resources/luts/bleach_steel.cube
TITLE "Bleach Steel"
LUT_3D_SIZE 33
DOMAIN_MIN 0.000000 0.000000 0.000000
DOMAIN_MAX 1.000000 1.000000 1.000000
0.000000 0.000000 0.014000
0.000000 0.000000 0.014000
0.000000 0.000000 0.014000
0.000000 0.000000 0.014000
0.000000 0.000000 0.014000
0.000000 0.000000 0.014000
0.000000 0.000000 0.014000
0.000000 0.000000 0.014000
0.007693 0.000000 0.013894
0.030547 0.000000 0.013765
0.053401 0.000000 0.013636
0.076255 0.000000 0.013508
0.099109 0.000000 0.013379
0.121963 0.000000 0.013250
0.144817 0.000000 0.013122
0.167671 0.000000 0.012993
0.190525 0.000000 0.012864
0.213379 0.000000 0.012736
0.236233 0.000000 0.012607
0.259087 0.000000 0.012478
0.281941 0.000000 0.012350
0.304795 0.000000 0.012221
0.327649 0.000000 0.012092
0.350502 0.000000 0.011964
0.373356 0.000000 0.011835
0.396210 0.000000 0.011706
0.419064 0.000000 0.011578
0.441918 0.000000 0.011449
0.464772 0.000000 0.011320
0.487626 0.000000 0.011192
0.510480 0.000000 0.011063
0.533334 0.000000 0.010934
0.556222 0.002033 0.012796
0.000000 0.000000 0.014000
0.000000 0.000000 0.014000
0.000000 0.000000 0.014000
0.000000 0.000000 0.014000
0.000000 0.000000 0.014000
0.000000 0.000000 0.014000
0.000000 0.000000 0.014000
0.002288 0.000000 0.013924
0.025142 0.000000 0.013795
0.047996 0.000000 0.013667
0.070850 0.000000 0.013538
0.093704 0.000000 0.013409
0.116558 0.000000 0.013281
0.139412 0.000000 0.013152
0.162266 0.000000 0.013023
0.185120 0.000000 0.012895
0.207974 0.000000 0.012766
0.230828 0.000000 0.012637
0.253682 0.000000 0.012509
0.276536 0.000000 0.012380
0.299390 0.000000 0.012251
0.322244 0.000000 0.012123
0.345098 0.000000 0.011994
0.367952 0.000000 0.011865
0.390805 0.000000 0.011737
0.413672 0.000846 0.011592
0.436605 0.006009 0.011365
0.459537 0.011173 0.011138
0.482470 0.016337 0.010911
0.505408 0.021500 0.014590
0.528349 0.026664 0.019516
0.551289 0.031827 0.024443
0.574230 0.036991 0.029370
0.000000 0.000000 0.014000
0.000000 0.000000 0.014000
0.000000 0.000000 0.014000
0.000000 0.000000 0.014000
0.000000 0.000000 0.014000
0.000000 0.000000 0.014000
0.000000 0.000000 0.013954
0.019737 0.000000 0.013826
0.042591 0.000000 0.013697
0.065445 0.000000 0.013569
0.088299 0.000000 0.013440
0.111153 0.000000 0.013311
0.134007 0.000000 0.013183
0.156861 0.000000 0.013054
0.179715 0.000000 0.012925
0.202569 0.000000 0.012797
0.225423 0.000000 0.012668
0.248277 0.000000 0.012539
0.271131 0.000000 0.012411
0.294058 0.004823 0.012190
0.316991 0.009986 0.011963
0.339923 0.015150 0.011736
0.362856 0.020313 0.011509
0.385788 0.025477 0.011283
0.408721 0.030640 0.011056
0.431654 0.035804 0.011456
0.454595 0.040967 0.016383
0.477535 0.046131 0.021310
0.500476 0.051294 0.026237
0.523416 0.056458 0.031163
0.546357 0.061621 0.036090
0.569297 0.066785 0.041017
0.592238 0.071949 0.045943
0.000000 0.000000 0.014000
0.000000 0.000000 0.014000
0.000000 0.000000 0.014000
0.000000 0.000000 0.014000
0.000000 0.000000 0.014000
0.000000 0.000000 0.013985
0.014332 0.000000 0.013856
0.037186 0.000000 0.013728
0.060040 0.000000 0.013599
0.082894 0.000000 0.013470
0.105748 0.000000 0.013342
0.128602 0.000000 0.013213
0.151511 0.003636 0.013015
0.174444 0.008800 0.012788
0.197376 0.013963 0.012561
0.220309 0.019127 0.012334
0.243242 0.024290 0.012108
0.266174 0.029454 0.011881
0.289107 0.034617 0.011654
0.312039 0.039781 0.011427
0.334972 0.044944 0.011200
0.357904 0.050108 0.010973
0.380841 0.055271 0.013250
0.403781 0.060435 0.018177
0.426722 0.065598 0.023104
0.449662 0.070762 0.028030
0.472603 0.075925 0.032957
0.495543 0.081089 0.037884
0.518484 0.086252 0.042810
0.541424 0.091416 0.047737
0.564364 0.096579 0.052664
0.587305 0.101743 0.057591
0.610245 0.106906 0.062517
0.000000 0.000000 0.014000
0.000000 0.000000 0.014000
0.000000 0.000000 0.014000
0.000000 0.000000 0.014000
0.000000 0.000000 0.014000
0.008965 0.002449 0.013840
0.031897 0.007613 0.013613
0.054830 0.012776 0.013386
0.077762 0.017940 0.013159
0.100695 0.023103 0.012933
0.123627 0.028267 0.012706
0.146560 0.033430 0.012479
0.169492 0.038594 0.012252
0.192425 0.043757 0.012025
0.215358 0.048921 0.011798
0.238290 0.054085 0.011571
0.261223 0.059248 0.011344
0.284155 0.064412 0.011117
0.307088 0.069575 0.010890
0.330027 0.074739 0.015044
0.352967 0.079902 0.019971
0.375908 0.085066 0.024897
0.398848 0.090229 0.029824
0.421789 0.095393 0.034751
0.444729 0.100556 0.039677
0.467670 0.105720 0.044604
0.490610 0.110883 0.049531
0.513551 0.116047 0.054457
0.536491 0.121210 0.059384
0.559432 0.126374 0.064311
0.582372 0.131537 0.069238
0.605313 0.136701 0.074164
0.628253 0.141864 0.079091
0.000000 0.011590 0.013780
0.000000 0.016753 0.013681
0.000000 0.021917 0.013583
0.000000 0.027080 0.013485
0.004013 0.032244 0.013304
0.026946 0.037407 0.013077
0.049878 0.042571 0.012850
0.072811 0.047734 0.012623
0.095743 0.052898 0.012396
0.118676 0.058061 0.012169
0.141608 0.063225 0.011942
0.164541 0.068388 0.011715
0.187474 0.073552 0.011489
0.210406 0.078715 0.011262
0.233339 0.083879 0.011035
0.256273 0.089042 0.011911
0.279213 0.094206 0.016837
0.302154 0.099369 0.021764
0.325094 0.104533 0.026691
0.348035 0.109697 0.031618
0.370975 0.114860 0.036544
0.393916 0.120024 0.041471
0.416856 0.125187 0.046398
0.439797 0.130351 0.051324
0.462737 0.135514 0.056251
0.485678 0.140678 0.061178
0.508618 0.145841 0.066104
0.531559 0.151005 0.071031
0.554499 0.156168 0.075958
0.577439 0.161332 0.080885
0.600380 0.166495 0.085811
0.623320 0.171659 0.090738
0.646261 0.176822 0.095665
0.000000 0.046548 0.013114
0.000000 0.051711 0.013016
0.000000 0.056875 0.012918
0.000000 0.062038 0.012767
0.021994 0.067202 0.012540
0.044927 0.072365 0.012314
0.067859 0.077529 0.012087
0.090792 0.082692 0.011860
0.113724 0.087856 0.011633
0.136657 0.093019 0.011406
0.159590 0.098183 0.011179
0.182522 0.103346 0.010952
0.205459 0.108510 0.013704
0.228400 0.113673 0.018631
0.251340 0.118837 0.023558
0.274281 0.124000 0.028484
0.297221 0.129164 0.033411
0.320162 0.134327 0.038338
0.343102 0.139491 0.043265
0.366042 0.144654 0.048191
0.388983 0.149818 0.053118
0.411923 0.154981 0.058045
0.434864 0.160145 0.062971
0.457804 0.165309 0.067898
0.480745 0.170472 0.072825
0.503685 0.175636 0.077752
0.526626 0.180799 0.082678
0.549566 0.185963 0.087605
0.572507 0.191126 0.092532
0.595447 0.196290 0.097458
0.618388 0.201453 0.102385
0.641328 0.206617 0.107312
0.664269 0.211780 0.112239
0.000000 0.081505 0.012449
0.000000 0.086669 0.012351
0.000000 0.091832 0.012231
0.017043 0.096996 0.012004
0.039975 0.102160 0.011777
0.062908 0.107323 0.011550
0.085840 0.112487 0.011323
0.108773 0.117650 0.011096
0.131705 0.122814 0.010870
0.154645 0.127977 0.015498
0.177586 0.133141 0.020425
0.200526 0.138304 0.025351
0.223467 0.143468 0.030278
0.246407 0.148631 0.035205
0.269348 0.153795 0.040132
0.292288 0.158958 0.045058
0.315229 0.164122 0.049985
0.338169 0.169285 0.054912
0.361110 0.174449 0.059838
0.384050 0.179612 0.064765
0.406991 0.184776 0.069692
0.429931 0.189939 0.074619
0.452872 0.195103 0.079545
0.475812 0.200266 0.084472
0.498753 0.205430 0.089399
0.521693 0.210593 0.094325
0.544634 0.215757 0.099252
0.567574 0.220921 0.104179
0.590514 0.226084 0.109105
0.613455 0.231248 0.114032
0.636395 0.236411 0.118959
0.659336 0.241575 0.123886
0.682276 0.246738 0.128812
0.000000 0.116463 0.011784
0.000000 0.121627 0.011686
0.012091 0.126790 0.011468
0.035024 0.131954 0.011241
0.057956 0.137117 0.011014
0.080891 0.142281 0.012365
0.103832 0.147444 0.017292
0.126772 0.152608 0.022218
0.149713 0.157772 0.027145
0.172653 0.162935 0.032072
0.195594 0.168099 0.036998
0.218534 0.173262 0.041925
0.241475 0.178426 0.046852
0.264415 0.183589 0.051779
0.287356 0.188753 0.056705
0.310296 0.193916 0.061632
0.333236 0.199080 0.066559
0.356177 0.204243 0.071485
0.379117 0.209407 0.076412
0.402058 0.214570 0.081339
0.424998 0.219734 0.086266
0.447939 0.224897 0.091192
0.470879 0.230061 0.096119
0.493820 0.235224 0.101046
0.516760 0.240388 0.105972
0.539701 0.245551 0.110899
0.562641 0.250715 0.115826
0.585582 0.255878 0.120753
0.608522 0.261042 0.125679
0.631463 0.266205 0.130606
0.654403 0.271369 0.135533
0.677344 0.276533 0.140459
0.700284 0.281696 0.145386
0.000000 0.151421 0.011119
0.007140 0.156585 0.010931
0.030078 0.161748 0.014159
0.053018 0.166912 0.019085
0.075959 0.172075 0.024012
0.098899 0.177239 0.028939
0.121840 0.182402 0.033865
0.144780 0.187566 0.038792
0.167720 0.192729 0.043719
0.190661 0.197893 0.048646
0.213601 0.203056 0.053572
0.236542 0.208220 0.058499
0.259482 0.213384 0.063426
0.282423 0.218547 0.068352
0.305363 0.223711 0.073279
0.328304 0.228874 0.078206
0.351244 0.234038 0.083133
0.374185 0.239201 0.088059
0.397125 0.244365 0.092986
0.420066 0.249528 0.097913
0.443006 0.254692 0.102839
0.465947 0.259855 0.107766
0.488887 0.265019 0.112693
0.511827 0.270182 0.117620
0.534768 0.275346 0.122546
0.557708 0.280509 0.127473
0.580649 0.285673 0.132400
0.603589 0.290836 0.137326
0.626530 0.296000 0.142253
0.649470 0.301163 0.147180
0.672411 0.306327 0.152106
0.695351 0.311490 0.157033
0.718292 0.316654 0.161960
0.002204 0.186379 0.020879
0.025145 0.191543 0.025806
0.048085 0.196706 0.030732
0.071026 0.201870 0.035659
0.093966 0.207033 0.040586
0.116907 0.212197 0.045512
0.139847 0.217360 0.050439
0.162788 0.222524 0.055366
0.185728 0.227687 0.060293
0.208669 0.232851 0.065219
0.231609 0.238014 0.070146
0.254550 0.243178 0.075073
0.277490 0.248341 0.079999
0.300431 0.253505 0.084926
0.323371 0.258668 0.089853
0.346312 0.263832 0.094780
0.369252 0.268996 0.099706
0.392192 0.274159 0.104633
0.415133 0.279323 0.109560
0.438073 0.284486 0.114486
0.461014 0.289650 0.119413
0.483954 0.294813 0.124340
0.506895 0.299977 0.129267
0.529835 0.305140 0.134193
0.552776 0.310304 0.139120
0.575716 0.315467 0.144047
0.598657 0.320631 0.148973
0.621597 0.325794 0.153900
0.644538 0.330958 0.158827
0.667478 0.336121 0.163754
0.690419 0.341285 0.168680
0.713359 0.346448 0.173607
0.736300 0.351612 0.178534
0.020212 0.221337 0.037453
0.043153 0.226501 0.042379
0.066093 0.231664 0.047306
0.089034 0.236828 0.052233
0.111974 0.241991 0.057160
0.134915 0.247155 0.062086
0.157855 0.252318 0.067013
0.180795 0.257482 0.071940
0.203736 0.262645 0.076866
0.226676 0.267809 0.081793
0.249617 0.272972 0.086720
0.272557 0.278136 0.091647
0.295498 0.283299 0.096573
0.318438 0.288463 0.101500
0.341379 0.293626 0.106427
0.364319 0.298790 0.111353
0.387260 0.303953 0.116280
0.410200 0.309117 0.121207
0.433141 0.314281 0.126133
0.456081 0.319444 0.131060
0.479022 0.324608 0.135987
0.501962 0.329771 0.140914
0.524903 0.334935 0.145840
0.547843 0.340098 0.150767
0.570783 0.345262 0.155694
0.593724 0.350425 0.160620
0.616664 0.355589 0.165547
0.639605 0.360752 0.170474
0.662545 0.365916 0.175401
0.685486 0.371079 0.180327
0.708426 0.376243 0.185254
0.731367 0.381406 0.190181
0.754307 0.386570 0.195107
0.038220 0.256295 0.054026
0.061160 0.261459 0.058953
0.084101 0.266622 0.063880
0.107041 0.271786 0.068807
0.129982 0.276949 0.073733
0.152922 0.282113 0.078660
0.175863 0.287276 0.083587
0.198803 0.292440 0.088513
0.221744 0.297603 0.093440
0.244684 0.302767 0.098367
0.267625 0.307930 0.103294
0.290565 0.313094 0.108220
0.313506 0.318257 0.113147
0.336446 0.323421 0.118074
0.359386 0.328584 0.123000
0.382327 0.333748 0.127927
0.405267 0.338911 0.132854
0.428208 0.344075 0.137781
0.451148 0.349238 0.142707
0.474089 0.354402 0.147634
0.497029 0.359565 0.152561
0.519970 0.364729 0.157487
0.542910 0.369893 0.162414
0.565851 0.375056 0.167341
0.588791 0.380220 0.172268
0.611732 0.385383 0.177194
0.634672 0.390547 0.182121
0.657613 0.395710 0.187048
0.680553 0.400874 0.191974
0.703494 0.406037 0.196901
0.726434 0.411201 0.201828
0.749375 0.416364 0.206755
0.773140 0.422412 0.212664
0.056228 0.291253 0.070600
0.079168 0.296416 0.075527
0.102109 0.301580 0.080454
0.125049 0.306744 0.085380
0.147990 0.311907 0.090307
0.170930 0.317071 0.095234
0.193870 0.322234 0.100161
0.216811 0.327398 0.105087
0.239751 0.332561 0.110014
0.262692 0.337725 0.114941
0.285632 0.342888 0.119867
0.308573 0.348052 0.124794
0.331513 0.353215 0.129721
0.354454 0.358379 0.134647
0.377394 0.363542 0.139574
0.400335 0.368706 0.144501
0.423275 0.373869 0.149428
0.446216 0.379033 0.154354
0.469156 0.384196 0.159281
0.492097 0.389360 0.164208
0.515037 0.394523 0.169134
0.537978 0.399687 0.174061
0.560918 0.404850 0.178988
0.583858 0.410014 0.183915
0.606799 0.415178 0.188841
0.629739 0.420341 0.193768
0.652680 0.425505 0.198695
0.675620 0.430668 0.203621
0.698754 0.436038 0.208778
0.722689 0.442267 0.214889
0.746624 0.448497 0.220999
0.770559 0.454726 0.227110
0.794494 0.460955 0.233221
0.074235 0.326211 0.087174
0.097176 0.331374 0.092101
0.120116 0.336538 0.097027
0.143057 0.341701 0.101954
0.165997 0.346865 0.106881
0.188938 0.352028 0.111808
0.211878 0.357192 0.116734
0.234819 0.362356 0.121661
0.257759 0.367519 0.126588
0.280700 0.372683 0.131514
0.303640 0.377846 0.136441
0.326581 0.383010 0.141368
0.349521 0.388173 0.146295
0.372461 0.393337 0.151221
0.395402 0.398500 0.156148
0.418342 0.403664 0.161075
0.441283 0.408827 0.166001
0.464223 0.413991 0.170928
0.487164 0.419154 0.175855
0.510104 0.424318 0.180782
0.533045 0.429481 0.185708
0.555985 0.434645 0.190635
0.578926 0.439808 0.195562
0.601866 0.444972 0.200488
0.624807 0.450135 0.205415
0.648302 0.455894 0.211002
0.672237 0.462123 0.217113
0.696172 0.468352 0.223224
0.720107 0.474581 0.229335
0.744042 0.480810 0.235446
0.767978 0.487039 0.241556
0.791790 0.493269 0.247820
0.815536 0.499498 0.254168
0.092243 0.361169 0.103748
0.115184 0.366332 0.108674
0.138124 0.371496 0.113601
0.161065 0.376659 0.118528
0.184005 0.381823 0.123455
0.206945 0.386986 0.128381
0.229886 0.392150 0.133308
0.252826 0.397313 0.138235
0.275767 0.402477 0.143161
0.298707 0.407640 0.148088
0.321648 0.412804 0.153015
0.344588 0.417968 0.157942
0.367529 0.423131 0.162868
0.390469 0.428295 0.167795
0.413410 0.433458 0.172722
0.436350 0.438622 0.177648
0.459291 0.443785 0.182575
0.482231 0.448949 0.187502
0.505172 0.454112 0.192429
0.528112 0.459276 0.197355
0.551053 0.464439 0.202282
0.573993 0.469603 0.207209
0.597851 0.475749 0.213227
0.621786 0.481978 0.219338
0.645721 0.488207 0.225449
0.669656 0.494436 0.231559
0.693591 0.500665 0.237670
0.717524 0.506895 0.243783
0.741270 0.513124 0.250131
0.765015 0.519353 0.256478
0.788761 0.525582 0.262826
0.812506 0.531811 0.269174
0.836252 0.538041 0.275521
0.110251 0.396127 0.120322
0.133191 0.401290 0.125248
0.156132 0.406454 0.130175
0.179072 0.411617 0.135102
0.202013 0.416781 0.140028
0.224953 0.421944 0.144955
0.247894 0.427108 0.149882
0.270834 0.432271 0.154809
0.293775 0.437435 0.159735
0.316715 0.442598 0.164662
0.339656 0.447762 0.169589
0.362596 0.452925 0.174515
0.385536 0.458089 0.179442
0.408477 0.463253 0.184369
0.431417 0.468416 0.189296
0.454358 0.473580 0.194222
0.477298 0.478743 0.199149
0.500239 0.483907 0.204076
0.523464 0.489375 0.209341
0.547399 0.495604 0.215452
0.571334 0.501833 0.221563
0.595269 0.508063 0.227673
0.619204 0.514292 0.233784
0.643139 0.520521 0.239895
0.667003 0.526750 0.246094
0.690749 0.532979 0.252442
0.714495 0.539208 0.258789
0.738240 0.545437 0.265137
0.761986 0.551667 0.271485
0.785732 0.557896 0.277832
0.809477 0.564125 0.284180
0.833223 0.570354 0.290527
0.856968 0.576583 0.296875
0.128259 0.431085 0.136895
0.151199 0.436248 0.141822
0.174140 0.441412 0.146749
0.197080 0.446575 0.151675
0.220020 0.451739 0.156602
0.242961 0.456902 0.161529
0.265901 0.462066 0.166456
0.288842 0.467229 0.171382
0.311782 0.472393 0.176309
0.334723 0.477556 0.181236
0.357663 0.482720 0.186162
0.380604 0.487883 0.191089
0.403544 0.493047 0.196016
0.426485 0.498210 0.200943
0.449425 0.503374 0.205869
0.473012 0.509230 0.211566
0.496947 0.515460 0.217677
0.520882 0.521689 0.223787
0.544818 0.527918 0.229898
0.568753 0.534147 0.236009
0.592688 0.540376 0.242120
0.616483 0.546605 0.248405
0.640229 0.552835 0.254753
0.663974 0.559064 0.261100
0.687720 0.565293 0.267448
0.711465 0.571522 0.273796
0.735211 0.577751 0.280143
0.758957 0.583980 0.286491
0.782702 0.590210 0.292838
0.806448 0.596439 0.299186
0.830194 0.602668 0.305533
0.853939 0.608897 0.311881
0.877685 0.615126 0.318229
0.146266 0.466043 0.153469
0.169207 0.471206 0.158396
0.192147 0.476370 0.163323
0.215088 0.481533 0.168249
0.238028 0.486697 0.173176
0.260969 0.491860 0.178103
0.283909 0.497024 0.183029
0.306850 0.502187 0.187956
0.329790 0.507351 0.192883
0.352731 0.512514 0.197810
0.375671 0.517678 0.202736
0.398626 0.522856 0.207680
0.422561 0.529086 0.213791
0.446496 0.535315 0.219901
0.470431 0.541544 0.226012
0.494366 0.547773 0.232123
0.518301 0.554002 0.238234
0.542217 0.560232 0.244369
0.565962 0.566461 0.250716
0.589708 0.572690 0.257064
0.613454 0.578919 0.263411
0.637199 0.585148 0.269759
0.660945 0.591377 0.276106
0.684690 0.597606 0.282454
0.708436 0.603836 0.288802
0.732182 0.610065 0.295149
0.755927 0.616294 0.301497
0.779673 0.622523 0.307844
0.803419 0.628752 0.314192
0.827164 0.634981 0.320539
0.850910 0.641211 0.326887
0.874655 0.647440 0.333235
0.898401 0.653669 0.339582
0.164274 0.501000 0.170043
0.187215 0.506164 0.174970
0.210155 0.511328 0.179896
0.233095 0.516491 0.184823
0.256036 0.521655 0.189750
0.278976 0.526818 0.194676
0.301917 0.531982 0.199603
0.324857 0.537145 0.204530
0.348174 0.542712 0.209905
0.372109 0.548941 0.216015
0.396044 0.555170 0.222126
0.419979 0.561399 0.228237
0.443914 0.567629 0.234348
0.467849 0.573858 0.240458
0.491696 0.580087 0.246680
0.515442 0.586316 0.253027
0.539187 0.592545 0.259375
0.562933 0.598774 0.265722
0.586679 0.605003 0.272070
0.610424 0.611233 0.278417
0.634170 0.617462 0.284765
0.657916 0.623691 0.291113
0.681661 0.629920 0.297460
0.705407 0.636149 0.303808
0.729152 0.642378 0.310155
0.752898 0.648608 0.316503
0.776644 0.654837 0.322850
0.800389 0.661066 0.329198
0.824135 0.667295 0.335545
0.847880 0.673524 0.341893
0.871626 0.679753 0.348241
0.895372 0.685983 0.354588
0.919117 0.692212 0.360936
0.182282 0.535958 0.186617
0.205222 0.541122 0.191543
0.228163 0.546285 0.196470
0.251103 0.551449 0.201397
0.274044 0.556612 0.206324
0.297722 0.562567 0.212129
0.321658 0.568796 0.218240
0.345593 0.575025 0.224351
0.369528 0.581255 0.230461
0.393463 0.587484 0.236572
0.417398 0.593713 0.242683
0.441176 0.599942 0.248990
0.464921 0.606171 0.255338
0.488667 0.612400 0.261686
0.512412 0.618630 0.268033
0.536158 0.624859 0.274381
0.559904 0.631088 0.280728
0.583649 0.637317 0.287076
0.607395 0.643546 0.293423
0.631141 0.649775 0.299771
0.654886 0.656005 0.306119
0.678632 0.662234 0.312466
0.702377 0.668463 0.318814
0.726123 0.674692 0.325161
0.749869 0.680921 0.331509
0.773614 0.687150 0.337856
0.797360 0.693380 0.344204
0.821106 0.699609 0.350552
0.844851 0.705838 0.356899
0.868597 0.712067 0.363247
0.892342 0.718296 0.369594
0.916088 0.724525 0.375942
0.939834 0.730755 0.382289
0.200290 0.570916 0.203190
0.223336 0.576193 0.208243
0.247271 0.582422 0.214354
0.271206 0.588652 0.220465
0.295141 0.594881 0.226575
0.319076 0.601110 0.232686
0.343011 0.607339 0.238797
0.366909 0.613568 0.244954
0.390655 0.619798 0.251301
0.414401 0.626027 0.257649
0.438146 0.632256 0.263997
0.461892 0.638485 0.270344
0.485638 0.644714 0.276692
0.509383 0.650943 0.283039
0.533129 0.657172 0.289387
0.556874 0.663402 0.295734
0.580620 0.669631 0.302082
0.604366 0.675860 0.308430
0.628111 0.682089 0.314777
0.651857 0.688318 0.321125
0.675603 0.694547 0.327472
0.699348 0.700777 0.333820
0.723094 0.707006 0.340167
0.746839 0.713235 0.346515
0.770585 0.719464 0.352863
0.794331 0.725693 0.359210
0.818076 0.731922 0.365558
0.841822 0.738152 0.371905
0.865568 0.744381 0.378253
0.889313 0.750610 0.384600
0.913059 0.756839 0.390948
0.936804 0.763068 0.397296
0.960550 0.769297 0.403643
0.220754 0.608507 0.222689
0.244689 0.614736 0.228800
0.268625 0.620965 0.234911
0.292560 0.627194 0.241022
0.316389 0.633424 0.247265
0.340135 0.639653 0.253612
0.363880 0.645882 0.259960
0.387626 0.652111 0.266307
0.411371 0.658340 0.272655
0.435117 0.664569 0.279003
0.458863 0.670799 0.285350
0.482608 0.677028 0.291698
0.506354 0.683257 0.298045
0.530099 0.689486 0.304393
0.553845 0.695715 0.310740
0.577591 0.701944 0.317088
0.601336 0.708174 0.323436
0.625082 0.714403 0.329783
0.648828 0.720632 0.336131
0.672573 0.726861 0.342478
0.696319 0.733090 0.348826
0.720065 0.739319 0.355173
0.743810 0.745549 0.361521
0.767556 0.751778 0.367869
0.791301 0.758007 0.374216
0.815047 0.764236 0.380564
0.838793 0.770465 0.386911
0.862538 0.776694 0.393259
0.886284 0.782924 0.399606
0.910029 0.789153 0.405954
0.933775 0.795382 0.412302
0.957521 0.801611 0.418649
0.981266 0.807840 0.424997
0.242108 0.647050 0.243246
0.265868 0.653279 0.249576
0.289614 0.659508 0.255923
0.313360 0.665737 0.262271
0.337105 0.671966 0.268618
0.360851 0.678196 0.274966
0.384597 0.684425 0.281314
0.408342 0.690654 0.287661
0.432088 0.696883 0.294009
0.455833 0.703112 0.300356
0.479579 0.709341 0.306704
0.503325 0.715571 0.313051
0.527070 0.721800 0.319399
0.550816 0.728029 0.325746
0.574561 0.734258 0.332094
0.598307 0.740487 0.338442
0.622053 0.746716 0.344789
0.645798 0.752946 0.351137
0.669544 0.759175 0.357484
0.693290 0.765404 0.363832
0.717035 0.771633 0.370179
0.740781 0.777862 0.376527
0.764526 0.784091 0.382875
0.788272 0.790321 0.389222
0.812018 0.796550 0.395570
0.835763 0.802779 0.401917
0.859509 0.809008 0.408265
0.883255 0.815237 0.414613
0.907000 0.821466 0.420960
0.930746 0.827696 0.427308
0.954491 0.833925 0.433655
0.978237 0.840154 0.440003
1.000000 0.846383 0.446350
0.262839 0.685593 0.264582
0.286585 0.691822 0.270929
0.310330 0.698051 0.277277
0.334076 0.704280 0.283624
0.357822 0.710509 0.289972
0.381567 0.716738 0.296320
0.405313 0.722968 0.302667
0.429058 0.729197 0.309015
0.452804 0.735426 0.315362
0.476550 0.741655 0.321710
0.500295 0.747884 0.328057
0.524041 0.754113 0.334405
0.547787 0.760342 0.340753
0.571532 0.766572 0.347100
0.595278 0.772801 0.353448
0.619023 0.779030 0.359795
0.642769 0.785259 0.366143
0.666515 0.791488 0.372490
0.690260 0.797718 0.378838
0.714006 0.803947 0.385186
0.737752 0.810176 0.391533
0.761497 0.816405 0.397881
0.785243 0.822634 0.404228
0.808988 0.828863 0.410576
0.832734 0.835093 0.416923
0.856480 0.841322 0.423271
0.880225 0.847551 0.429619
0.903971 0.853780 0.435966
0.927716 0.860009 0.442314
0.951462 0.866238 0.448661
0.975208 0.872468 0.455009
0.998953 0.878697 0.461356
1.000000 0.884926 0.467704
0.283555 0.724135 0.285935
0.307301 0.730365 0.292283
0.331047 0.736594 0.298631
0.354792 0.742823 0.304978
0.378538 0.749052 0.311326
0.402283 0.755281 0.317673
0.426029 0.761510 0.324021
0.449775 0.767740 0.330368
0.473520 0.773969 0.336716
0.497266 0.780198 0.343064
0.521012 0.786427 0.349411
0.544757 0.792656 0.355759
0.568503 0.798885 0.362106
0.592248 0.805115 0.368454
0.615994 0.811344 0.374801
0.639740 0.817573 0.381149
0.663485 0.823802 0.387497
0.687231 0.830031 0.393844
0.710977 0.836260 0.400192
0.734722 0.842490 0.406539
0.758468 0.848719 0.412887
0.782213 0.854948 0.419234
0.805959 0.861177 0.425582
0.829705 0.867406 0.431930
0.853450 0.873635 0.438277
0.877196 0.879865 0.444625
0.900942 0.886094 0.450972
0.924687 0.892323 0.457320
0.948433 0.898552 0.463667
0.972178 0.904781 0.470015
0.995924 0.911010 0.476363
1.000000 0.917239 0.482710
1.000000 0.923469 0.489058
0.304272 0.762678 0.307289
0.328017 0.768907 0.313637
0.351763 0.775136 0.319984
0.375509 0.781366 0.326332
0.399254 0.787595 0.332679
0.423000 0.793824 0.339027
0.446745 0.800053 0.345374
0.470491 0.806282 0.351722
0.494237 0.812511 0.358070
0.517982 0.818741 0.364417
0.541728 0.824970 0.370765
0.565474 0.831199 0.377112
0.589219 0.837428 0.383460
0.612965 0.843657 0.389807
0.636710 0.849887 0.396155
0.660456 0.856116 0.402502
0.684202 0.862345 0.408850
0.707947 0.868574 0.415198
0.731693 0.874803 0.421545
0.755439 0.881032 0.427893
0.779184 0.887262 0.434240
0.802930 0.893491 0.440588
0.826675 0.899720 0.446936
0.850421 0.905949 0.453283
0.874167 0.912178 0.459631
0.897912 0.918407 0.465978
