resources/luts/bleach_steel.cube
TITLE "Bleach Steel"
LUT_3D_SIZE 9
DOMAIN_MIN 0.000000 0.000000 0.000000
DOMAIN_MAX 1.000000 1.000000 1.000000
0.000000 0.000000 0.014000
0.000000 0.000000 0.014000
0.007693 0.000000 0.013894
0.099109 0.000000 0.013379
0.190525 0.000000 0.012864
0.281941 0.000000 0.012350
0.373356 0.000000 0.011835
0.464772 0.000000 0.011320
0.556222 0.002033 0.012796
0.000000 0.000000 0.014000
0.000000 0.000000 0.014000
0.077762 0.017940 0.013159
0.169492 0.038594 0.012252
0.261223 0.059248 0.011344
0.352967 0.079902 0.019971
0.444729 0.100556 0.039677
0.536491 0.121210 0.059384
0.628253 0.141864 0.079091
0.000000 0.116463 0.011784
0.057956 0.137117 0.011014
0.149713 0.157772 0.027145
0.241475 0.178426 0.046852
0.333236 0.199080 0.066559
0.424998 0.219734 0.086266
0.516760 0.240388 0.105972
0.608522 0.261042 0.125679
0.700284 0.281696 0.145386
0.038220 0.256295 0.054026
0.129982 0.276949 0.073733
0.221744 0.297603 0.093440
0.313506 0.318257 0.113147
0.405267 0.338911 0.132854
0.497029 0.359565 0.152561
0.588791 0.380220 0.172268
0.680553 0.400874 0.191974
0.773140 0.422412 0.212664
0.110251 0.396127 0.120322
0.202013 0.416781 0.140028
0.293775 0.437435 0.159735
0.385536 0.458089 0.179442
0.477298 0.478743 0.199149
0.571334 0.501833 0.221563
0.667003 0.526750 0.246094
0.761986 0.551667 0.271485
0.856968 0.576583 0.296875
0.182282 0.535958 0.186617
0.274044 0.556612 0.206324
0.369528 0.581255 0.230461
0.464921 0.606171 0.255338
0.559904 0.631088 0.280728
0.654886 0.656005 0.306119
0.749869 0.680921 0.331509
0.844851 0.705838 0.356899
0.939834 0.730755 0.382289
0.262839 0.685593 0.264582
0.357822 0.710509 0.289972
0.452804 0.735426 0.315362
0.547787 0.760342 0.340753
0.642769 0.785259 0.366143
0.737752 0.810176 0.391533
0.832734 0.835093 0.416923
0.927716 0.860009 0.442314
1.000000 0.884926 0.467704
0.345704 0.839764 0.349996
0.440687 0.864680 0.375387
0.535669 0.889597 0.400777
0.630652 0.914514 0.426167
0.725634 0.939431 0.451557
0.820617 0.964347 0.476948
0.915599 0.989264 0.502338
1.000000 1.000000 0.527728
1.000000 1.000000 0.551671
0.428570 0.993935 0.435411
0.523552 1.000000 0.460801
0.618535 1.000000 0.486191
0.712126 1.000000 0.509925
0.805458 1.000000 0.533351
0.898790 1.000000 0.556776
0.992122 1.000000 0.580202
1.000000 1.000000 0.602788
1.000000 1.000000 0.623641
0.000000 0.000000 0.014000
0.000000 0.000000 0.014000
0.014739 0.000000 0.013854
0.106155 0.000000 0.013339
0.197571 0.000000 0.012825
0.289013 0.000000 0.029711
0.380461 0.000000 0.049811
0.471909 0.000000 0.069911
0.563494 0.009047 0.089838
0.000000 0.000000 0.014000
0.000000 0.004300 0.018186
0.084953 0.024954 0.037892
0.176715 0.045608 0.057599
0.268477 0.066262 0.077306
0.360239 0.086916 0.097013
0.452001 0.107570 0.116720
0.543763 0.128225 0.136427
0.635525 0.148879 0.156134
0.000000 0.123478 0.064676
0.065222 0.144132 0.084481
0.156984 0.164786 0.104188
0.248746 0.185440 0.123894
0.340508 0.206094 0.143601
0.432270 0.226748 0.163308
0.524032 0.247402 0.183015
0.615794 0.268056 0.202722
0.707556 0.288710 0.222429
0.045491 0.263309 0.131069
0.137253 0.283963 0.150776
0.229015 0.304617 0.170483
0.320777 0.325272 0.190190
0.412539 0.345926 0.209896
0.504301 0.366580 0.229603
0.596063 0.387234 0.249310
0.687825 0.407888 0.269017
0.781763 0.430874 0.291315
0.117522 0.403141 0.197364
0.209284 0.423795 0.217071
0.301046 0.444449 0.236778
0.392808 0.465103 0.256485
0.484570 0.485757 0.276192
0.579957 0.510295 0.300214
0.675369 0.535212 0.325067
0.770351 0.560129 0.350457
0.865334 0.585045 0.375848
0.189553 0.542973 0.263659
0.282410 0.564800 0.284669
0.378150 0.589716 0.309112
0.473287 0.614633 0.334311
0.568269 0.639550 0.359701
0.663251 0.664466 0.385091
0.758234 0.689383 0.410482
0.853217 0.714300 0.435872
0.948199 0.739217 0.461262
0.271204 0.694054 0.343554
0.366187 0.718971 0.368945
0.461169 0.743888 0.394335
0.556152 0.768804 0.419725
0.651134 0.793721 0.445116
0.746117 0.818638 0.470506
0.841099 0.843554 0.495896
0.936082 0.868471 0.521286
1.000000 0.893388 0.546677
0.354070 0.848226 0.428969
0.449052 0.873142 0.454359
0.544035 0.898059 0.479750
0.639017 0.922976 0.505140
0.734000 0.947892 0.530530
0.828982 0.972809 0.555920
0.923965 0.997726 0.581311
1.000000 1.000000 0.606701
1.000000 1.000000 0.630445
0.436935 1.000000 0.514383
0.531917 1.000000 0.539774
0.626598 1.000000 0.564805
0.719930 1.000000 0.588230
0.813263 1.000000 0.611656
0.906595 1.000000 0.635082
0.999927 1.000000 0.658507
1.000000 1.000000 0.680895
1.000000 1.000000 0.701748
0.000000 0.000000 0.014000
0.000000 0.000000 0.026159
0.021836 0.000000 0.046588
0.113283 0.000000 0.066688
0.204731 0.000000 0.086787
0.296178 0.000000 0.106887
0.387626 0.000000 0.126987
0.479073 0.000000 0.147087
0.570765 0.016061 0.166881
0.000000 0.000000 0.074893
0.000463 0.011314 0.095228
0.092225 0.031968 0.114935
0.183987 0.052622 0.134642
0.275749 0.073276 0.154349
0.367511 0.093931 0.174056
0.459272 0.114585 0.193762
0.551034 0.135239 0.213469
0.642796 0.155893 0.233176
0.000000 0.130492 0.141759
0.072494 0.151146 0.161523
0.164256 0.171800 0.181230
0.256018 0.192454 0.200937
0.347780 0.213108 0.220644
0.439542 0.233762 0.240351
0.531303 0.254416 0.260058
0.623065 0.275070 0.279764
0.714827 0.295725 0.299471
0.052763 0.270324 0.208112
0.144525 0.290978 0.227818
0.236287 0.311632 0.247525
0.328049 0.332286 0.267232
0.419811 0.352940 0.286939
0.511572 0.373594 0.306646
0.603334 0.394248 0.326353
0.695096 0.414902 0.346060
0.790386 0.439336 0.369966
0.124794 0.410155 0.274407
0.216556 0.430809 0.294113
0.308318 0.451463 0.313820
0.400080 0.472117 0.333527
0.492839 0.493840 0.354422
0.588579 0.518757 0.378865
0.683734 0.543674 0.404040
0.778717 0.568590 0.429430
0.873699 0.593507 0.454820
0.196825 0.549987 0.340702
0.291033 0.573262 0.363320
0.386669 0.598178 0.387893
0.481652 0.623095 0.413283
0.576634 0.648012 0.438674
0.671617 0.672928 0.464064
0.766599 0.697845 0.489454
0.861582 0.722762 0.514845
0.956564 0.747678 0.540235
0.279570 0.702516 0.422527
0.374552 0.727433 0.447917
0.469535 0.752349 0.473308
0.564517 0.777266 0.498698
0.659500 0.802183 0.524088
0.754482 0.827100 0.549478
0.849465 0.852016 0.574869
0.944447 0.876933 0.600259
1.000000 0.901850 0.625649
0.362435 0.856687 0.507942
0.457417 0.881604 0.533332
0.552400 0.906521 0.558722
0.647382 0.931437 0.584112
0.742365 0.956354 0.609503
0.837347 0.981271 0.634893
0.932330 1.000000 0.660283
1.000000 1.000000 0.685674
1.000000 1.000000 0.709219
0.445300 1.000000 0.593356
0.540283 1.000000 0.618746
0.634403 1.000000 0.643110
0.727735 1.000000 0.666536
0.821067 1.000000 0.689962
0.914400 1.000000 0.713387
1.000000 1.000000 0.736813
1.000000 1.000000 0.759003
1.000000 1.000000 0.779855
0.000000 0.000000 0.082760
0.000000 0.000000 0.103375
0.029000 0.000000 0.123764
0.120448 0.000000 0.143864
0.211896 0.000000 0.163963
0.303343 0.000000 0.184063
0.394791 0.000000 0.204163
0.486275 0.002421 0.224217
0.578037 0.023075 0.243924
0.000000 0.000000 0.152109
0.007735 0.018328 0.172271
0.099497 0.038983 0.191978
0.191258 0.059637 0.211684
0.283020 0.080291 0.231391
0.374782 0.100945 0.251098
0.466544 0.121599 0.270805
0.558306 0.142253 0.290512
0.650068 0.162907 0.310219
0.000000 0.137506 0.218841
0.079766 0.158160 0.238566
0.171527 0.178814 0.258273
0.263289 0.199468 0.277980
0.355051 0.220122 0.297686
0.446813 0.240776 0.317393
0.538575 0.261431 0.337100
0.630337 0.282085 0.356807
0.722099 0.302739 0.376514
0.060035 0.277338 0.285154
0.151797 0.297992 0.304861
0.243558 0.318646 0.324568
0.335320 0.339300 0.344275
0.427082 0.359954 0.363981
0.518844 0.380608 0.383688
0.610606 0.401262 0.403395
0.703268 0.422881 0.424174
0.799008 0.447798 0.448617
0.132066 0.417169 0.351449
0.223827 0.437824 0.371156
0.315589 0.458478 0.390863
0.407351 0.479132 0.410570
0.501462 0.502302 0.433073
0.597117 0.527219 0.457622
0.692099 0.552135 0.483012
0.787082 0.577052 0.508403
0.882064 0.601969 0.533793
0.204097 0.557001 0.417744
0.299655 0.581723 0.441971
0.395035 0.606640 0.466866
0.490017 0.631557 0.492256
0.585000 0.656473 0.517646
0.679982 0.681390 0.543037
0.774965 0.706307 0.568427
0.869947 0.731223 0.593817
0.964930 0.756140 0.619207
0.287935 0.710978 0.501500
0.382918 0.735895 0.526890
0.477900 0.760811 0.552280
0.572882 0.785728 0.577671
0.667865 0.810645 0.603061
0.762847 0.835561 0.628451
0.857830 0.860478 0.653841
0.952812 0.885395 0.679232
1.000000 0.910241 0.704544
0.370800 0.865149 0.586914
0.465783 0.890066 0.612305
0.560765 0.914983 0.637695
0.655748 0.939899 0.663085
0.750730 0.964816 0.688475
0.845713 0.989733 0.713866
0.940695 1.000000 0.739256
1.000000 1.000000 0.764646
1.000000 1.000000 0.787813
0.453666 1.000000 0.672329
0.548648 1.000000 0.697719
0.642208 1.000000 0.721416
0.735540 1.000000 0.744841
0.828872 1.000000 0.768267
0.922205 1.000000 0.791693
1.000000 1.000000 0.815118
1.000000 1.000000 0.837110
1.000000 1.000000 0.857962
0.000000 0.000000 0.159976
0.000000 0.000000 0.180590
0.036165 0.000000 0.200940
0.127613 0.000000 0.221040
0.219060 0.000000 0.241139
0.310508 0.000000 0.261239
0.401955 0.000000 0.281339
0.493547 0.009436 0.301259
0.585308 0.030090 0.320966
0.000000 0.004689 0.229235
0.015006 0.025343 0.249313
0.106768 0.045997 0.269020
0.198530 0.066651 0.288727
0.290292 0.087305 0.308434
0.382054 0.107959 0.328141
0.473816 0.128613 0.347848
0.565578 0.149267 0.367554
0.657339 0.169921 0.387261
0.000000 0.144520 0.295901
0.087037 0.165174 0.315608
0.178799 0.185828 0.335315
0.270561 0.206483 0.355022
0.362323 0.227137 0.374729
0.454085 0.247791 0.394436
0.545847 0.268445 0.414143
0.637608 0.289099 0.433849
0.729370 0.309753 0.453556
0.067306 0.284352 0.362197
0.159068 0.305006 0.381903
0.250830 0.325660 0.401610
0.342592 0.346314 0.421317
0.434354 0.366968 0.441024
0.526116 0.387622 0.460731
0.617878 0.408276 0.480438
0.711891 0.431343 0.502825
0.807564 0.456259 0.527351
0.139337 0.424184 0.428492
0.231099 0.444838 0.448199
0.322861 0.465492 0.467905
0.414623 0.486146 0.487612
0.510084 0.510764 0.511724
0.605482 0.535681 0.536595
0.700465 0.560597 0.561985
0.795447 0.585514 0.587375
0.890430 0.610431 0.612765
0.212538 0.565269 0.496179
0.308278 0.590185 0.520622
0.403400 0.615102 0.545838
0.498382 0.640019 0.571229
0.593365 0.664935 0.596619
0.688348 0.689852 0.622009
0.783330 0.714769 0.647399
0.878312 0.739685 0.672790
0.973295 0.764602 0.698180
0.296300 0.719440 0.580472
0.391283 0.744357 0.605863
0.486265 0.769273 0.631253
0.581248 0.794190 0.656643
0.676230 0.819107 0.682033
0.771213 0.844023 0.707424
0.866195 0.868940 0.732814
0.961178 0.893856 0.758204
1.000000 0.918524 0.783318
0.379166 0.873611 0.665887
0.474148 0.898528 0.691277
0.569131 0.923444 0.716667
0.664113 0.948361 0.742058
0.759096 0.973278 0.767448
0.854078 0.998194 0.792838
0.949060 1.000000 0.818229
1.000000 1.000000 0.843619
1.000000 1.000000 0.865920
0.462031 1.000000 0.751301
0.556681 1.000000 0.776296
0.650013 1.000000 0.799721
0.743345 1.000000 0.823147
0.836677 1.000000 0.846573
0.930009 1.000000 0.869998
1.000000 1.000000 0.893424
1.000000 1.000000 0.915217
1.000000 1.000000 0.936069
0.000000 0.000000 0.237192
0.000000 0.000000 0.257806
0.043330 0.000000 0.278116
0.134778 0.000000 0.298216
0.226225 0.000000 0.318315
0.317673 0.000000 0.338415
0.409120 0.000000 0.358515
0.500818 0.016450 0.378302
0.592580 0.037104 0.398009
0.000000 0.011703 0.306317
0.022278 0.032357 0.326356
0.114040 0.053011 0.346063
0.205802 0.073665 0.365770
0.297563 0.094319 0.385476
0.389325 0.114973 0.405183
0.481087 0.135627 0.424890
0.572849 0.156281 0.444597
0.664611 0.176936 0.464304
0.002547 0.151534 0.372944
0.094309 0.172189 0.392651
0.186071 0.192843 0.412358
0.277833 0.213497 0.432065
0.369594 0.234151 0.451771
0.461356 0.254805 0.471478
0.553118 0.275459 0.491185
0.644880 0.296113 0.510892
0.736642 0.316767 0.530599
0.074578 0.291366 0.439239
0.166340 0.312020 0.458946
0.258102 0.332674 0.478653
0.349863 0.353328 0.498360
0.441625 0.373983 0.518067
0.533387 0.394637 0.537773
0.625149 0.415291 0.557480
0.720513 0.439805 0.581476
0.815930 0.464721 0.606324
0.146609 0.431198 0.505534
0.238371 0.451852 0.525241
0.330133 0.472506 0.544948
0.422967 0.494309 0.565931
0.518707 0.519226 0.590374
0.613848 0.544142 0.615567
0.708830 0.569059 0.640958
0.803813 0.593976 0.666348
0.898795 0.618892 0.691738
0.221160 0.573730 0.574830
0.316783 0.598647 0.599421
0.411765 0.623564 0.624811
0.506748 0.648480 0.650201
0.601730 0.673397 0.675592
0.696713 0.698314 0.700982
0.791695 0.723230 0.726372
0.886678 0.748147 0.751763
0.981660 0.773064 0.777153
0.304666 0.727902 0.659445
0.399648 0.752818 0.684835
0.494631 0.777735 0.710226
0.589613 0.802652 0.735616
0.684596 0.827568 0.761006
0.779578 0.852485 0.786397
0.874561 0.877402 0.811787
0.969543 0.902318 0.837177
1.000000 0.926808 0.862092
0.387531 0.882073 0.744860
0.482513 0.906990 0.770250
0.577496 0.931906 0.795640
0.672478 0.956823 0.821030
0.767461 0.981740 0.846421
0.862443 1.000000 0.871811
0.957426 1.000000 0.897201
1.000000 1.000000 0.922592
1.000000 1.000000 0.944027
0.470396 1.000000 0.830274
0.564486 1.000000 0.854601
0.657818 1.000000 0.878027
0.751150 1.000000 0.901452
0.844482 1.000000 0.924878
0.937814 1.000000 0.948304
1.000000 1.000000 0.971729
1.000000 1.000000 0.993324
1.000000 1.000000 1.000000
0.000000 0.000000 0.314407
0.000000 0.000000 0.335022
0.050495 0.000000 0.355292
0.141942 0.000000 0.375392
0.233390 0.000000 0.395491
0.324838 0.000000 0.415591
0.416328 0.002810 0.435638
0.508090 0.023464 0.455344
0.599852 0.044118 0.475051
0.000000 0.018717 0.383399
0.029549 0.039371 0.403398
0.121311 0.060025 0.423105
0.213073 0.080679 0.442812
0.304835 0.101333 0.462519
0.396597 0.121988 0.482226
0.488359 0.142642 0.501933
0.580121 0.163296 0.521639
0.671883 0.183950 0.541346
0.009818 0.158549 0.449987
0.101580 0.179203 0.469693
0.193342 0.199857 0.489400
0.285104 0.220511 0.509107
0.376866 0.241165 0.528814
0.468628 0.261819 0.548521
0.560390 0.282473 0.568228
0.652152 0.303127 0.587935
0.743913 0.323781 0.607641
0.081849 0.298380 0.516282
0.173611 0.319034 0.535989
0.265373 0.339689 0.555695
0.357135 0.360343 0.575402
0.448897 0.380997 0.595109
0.540659 0.401651 0.614816
0.633396 0.423350 0.635684
0.729136 0.448266 0.660127
0.824295 0.473183 0.685296
0.153880 0.438212 0.582577
0.245642 0.458866 0.602284
0.337404 0.479520 0.621991
0.431589 0.502771 0.644582
0.527230 0.527688 0.669150
0.622213 0.552604 0.694540
0.717195 0.577521 0.719930
0.812178 0.602438 0.745321
0.907160 0.627354 0.770711
0.229783 0.582192 0.653481
0.325148 0.607109 0.678393
0.420131 0.632025 0.703784
0.515113 0.656942 0.729174
0.610096 0.681859 0.754564
0.705078 0.706776 0.779955
0.800061 0.731692 0.805345
0.895043 0.756609 0.830735
0.990026 0.781525 0.856125
0.313031 0.736363 0.738418
0.408013 0.761280 0.763808
0.502996 0.786197 0.789198
0.597978 0.811113 0.814589
0.692961 0.836030 0.839979
0.787943 0.860947 0.865369
0.882926 0.885863 0.890759
0.977908 0.910780 0.916150
1.000000 0.935091 0.940867
0.395896 0.890535 0.823832
0.490879 0.915451 0.849223
0.585861 0.940368 0.874613
0.680844 0.965285 0.900003
0.775826 0.990201 0.925393
0.870809 1.000000 0.950784
0.965791 1.000000 0.976174
1.000000 1.000000 1.000000
1.000000 1.000000 1.000000
0.478761 1.000000 0.909247
0.572290 1.000000 0.932907
0.665622 1.000000 0.956332
0.758955 1.000000 0.979758
0.852287 1.000000 1.000000
0.945619 1.000000 1.000000
1.000000 1.000000 1.000000
1.000000 1.000000 1.000000
1.000000 1.000000 1.000000
0.000000 0.000000 0.391623
0.000000 0.000000 0.412237
0.057660 0.000000 0.432468
0.149107 0.000000 0.452568
0.240555 0.000000 0.472667
0.332002 0.000000 0.492767
0.423599 0.009824 0.512680
0.515361 0.030478 0.532387
0.607123 0.051132 0.552094
0.000000 0.025731 0.460482
0.036821 0.046385 0.480441
0.128583 0.067039 0.500148
0.220345 0.087694 0.519855
0.312107 0.108348 0.539561
0.403868 0.129002 0.559268
0.495630 0.149656 0.578975
0.587392 0.170310 0.598682
0.679154 0.190964 0.618389
0.017090 0.165563 0.527029
0.108852 0.186217 0.546736
0.200614 0.206871 0.566443
0.292376 0.227525 0.586150
0.384138 0.248179 0.605857
0.475899 0.268833 0.625563
0.567661 0.289487 0.645270
0.659423 0.310142 0.664977
0.751185 0.330796 0.684684
0.089121 0.305395 0.593324
0.180883 0.326049 0.613031
0.272645 0.346703 0.632738
0.364407 0.367357 0.652445
0.456169 0.388011 0.672152
0.547930 0.408665 0.691859
0.642018 0.431811 0.714335
0.737678 0.456728 0.738879
0.832660 0.481645 0.764269
0.161152 0.445226 0.659619
0.252914 0.465880 0.679326
0.344676 0.486535 0.699033
0.440212 0.511233 0.723233
0.535596 0.536149 0.748122
0.630578 0.561066 0.773513
0.725561 0.585983 0.798903
0.820543 0.610900 0.824293
0.915526 0.635816 0.849684
0.238406 0.590654 0.732132
0.333513 0.615571 0.757366
0.428496 0.640487 0.782756
0.523478 0.665404 0.808147
0.618461 0.690321 0.833537
0.713443 0.715237 0.858927
0.808426 0.740154 0.884318
0.903408 0.765071 0.909708
0.998391 0.789987 0.935098
0.321396 0.744825 0.817390
0.416379 0.769742 0.842781
0.511361 0.794659 0.868171
0.606344 0.819575 0.893561
0.701326 0.844492 0.918952
0.796309 0.869409 0.944342
0.891291 0.894325 0.969732
0.986274 0.919242 0.995122
1.000000 0.943374 1.000000
0.404262 0.898997 0.902805
0.499244 0.923913 0.928195
0.594227 0.948830 0.953586
0.689209 0.973747 0.978976
0.784192 0.998663 1.000000
0.879174 1.000000 1.000000
0.974157 1.000000 1.000000
1.000000 1.000000 1.000000
1.000000 1.000000 1.000000
0.486763 1.000000 0.987786
0.580095 1.000000 1.000000
0.673427 1.000000 1.000000
0.766760 1.000000 1.000000
0.859956 1.000000 1.000000
0.953122 1.000000 1.000000
1.000000 1.000000 1.000000
1.000000 1.000000 1.000000
1.000000 1.000000 1.000000
0.000000 0.000000 0.468839
0.000000 0.000000 0.489453
0.064825 0.000000 0.509644
0.156272 0.000000 0.529744
0.247720 0.000000 0.549843
0.339167 0.000000 0.569943
0.430871 0.016838 0.589723
0.522633 0.037492 0.609429
0.614395 0.058147 0.629136
0.000000 0.032745 0.537564
0.044093 0.053400 0.557483
0.135854 0.074054 0.577190
0.227616 0.094708 0.596897
0.319378 0.115362 0.616604
0.411140 0.136016 0.636311
0.502902 0.156670 0.656018
0.594664 0.177324 0.675724
0.686426 0.197978 0.695431
0.024362 0.172577 0.604072
0.116124 0.193231 0.623779
0.207885 0.213885 0.643485
0.299647 0.234539 0.663192
0.391409 0.255194 0.682899
0.483171 0.275848 0.702606
0.574933 0.296502 0.722313
0.666695 0.317156 0.742020
0.758457 0.337810 0.761726
0.096393 0.312409 0.670367
0.188154 0.333063 0.690074
0.279916 0.353717 0.709780
0.371678 0.374371 0.729487
0.463440 0.395025 0.749194
0.555202 0.415679 0.768901
0.650641 0.440273 0.792986
0.746043 0.465190 0.817851
0.841026 0.490107 0.843242
0.168424 0.452241 0.736662
0.260185 0.472895 0.756369
0.353095 0.494778 0.777441
0.448835 0.519695 0.801884
0.543961 0.544611 0.827095
0.638943 0.569528 0.852485
0.733926 0.594445 0.877876
0.828908 0.619361 0.903266
0.923891 0.644278 0.928656
0.246896 0.599116 0.810948
0.341879 0.624032 0.836339
0.436861 0.648949 0.861729
0.531844 0.673866 0.887119
0.626826 0.698783 0.912510
0.721809 0.723699 0.937900
0.816791 0.748616 0.963290
0.911774 0.773532 0.988680
1.000000 0.798449 1.000000
0.329762 0.753287 0.896363
0.424744 0.778204 0.921753
0.519727 0.803120 0.947144
0.614709 0.828037 0.972534
0.709692 0.852954 0.997924
0.804674 0.877871 1.000000
0.899657 0.902787 1.000000
0.994500 0.927555 1.000000
1.000000 0.951331 1.000000
0.412627 0.907458 0.981778
0.507609 0.932375 1.000000
0.602592 0.957292 1.000000
0.697542 0.982173 1.000000
0.792358 1.000000 1.000000
0.887173 1.000000 1.000000
0.981989 1.000000 1.000000
1.000000 1.000000 1.000000
1.000000 1.000000 1.000000
0.494475 1.000000 1.000000
0.587640 1.000000 1.000000
0.680806 1.000000 1.000000
0.773971 1.000000 1.000000
0.867137 1.000000 1.000000
0.960303 1.000000 1.000000
1.000000 1.000000 1.000000
1.000000 1.000000 1.000000
1.000000 1.000000 1.000000
