resources/luts/bleach_steel.cube
TITLE "Bleach Steel"
LUT_3D_SIZE 5
DOMAIN_MIN 0.000000 0.000000 0.000000
DOMAIN_MAX 1.000000 1.000000 1.000000
0.000000 0.000000 0.014000
0.007693 0.000000 0.013894
0.190525 0.000000 0.012864
0.373356 0.000000 0.011835
0.556222 0.002033 0.012796
0.000000 0.116463 0.011784
0.149713 0.157772 0.027145
0.333236 0.199080 0.066559
0.516760 0.240388 0.105972
0.700284 0.281696 0.145386
0.110251 0.396127 0.120322
0.293775 0.437435 0.159735
0.477298 0.478743 0.199149
0.667003 0.526750 0.246094
0.856968 0.576583 0.296875
0.262839 0.685593 0.264582
0.452804 0.735426 0.315362
0.642769 0.785259 0.366143
0.832734 0.835093 0.416923
1.000000 0.884926 0.467704
0.428570 0.993935 0.435411
0.618535 1.000000 0.486191
0.805458 1.000000 0.533351
0.992122 1.000000 0.580202
1.000000 1.000000 0.623641
0.000000 0.000000 0.014000
0.021836 0.000000 0.046588
0.204731 0.000000 0.086787
0.387626 0.000000 0.126987
0.570765 0.016061 0.166881
0.000000 0.130492 0.141759
0.164256 0.171800 0.181230
0.347780 0.213108 0.220644
0.531303 0.254416 0.260058
0.714827 0.295725 0.299471
0.124794 0.410155 0.274407
0.308318 0.451463 0.313820
0.492839 0.493840 0.354422
0.683734 0.543674 0.404040
0.873699 0.593507 0.454820
0.279570 0.702516 0.422527
0.469535 0.752349 0.473308
0.659500 0.802183 0.524088
0.849465 0.852016 0.574869
1.000000 0.901850 0.625649
0.445300 1.000000 0.593356
0.634403 1.000000 0.643110
0.821067 1.000000 0.689962
1.000000 1.000000 0.736813
1.000000 1.000000 0.779855
0.000000 0.000000 0.159976
0.036165 0.000000 0.200940
0.219060 0.000000 0.241139
0.401955 0.000000 0.281339
0.585308 0.030090 0.320966
0.000000 0.144520 0.295901
0.178799 0.185828 0.335315
0.362323 0.227137 0.374729
0.545847 0.268445 0.414143
0.729370 0.309753 0.453556
0.139337 0.424184 0.428492
0.322861 0.465492 0.467905
0.510084 0.510764 0.511724
0.700465 0.560597 0.561985
0.890430 0.610431 0.612765
0.296300 0.719440 0.580472
0.486265 0.769273 0.631253
0.676230 0.819107 0.682033
0.866195 0.868940 0.732814
1.000000 0.918524 0.783318
0.462031 1.000000 0.751301
0.650013 1.000000 0.799721
0.836677 1.000000 0.846573
1.000000 1.000000 0.893424
1.000000 1.000000 0.936069
0.000000 0.000000 0.314407
0.050495 0.000000 0.355292
0.233390 0.000000 0.395491
0.416328 0.002810 0.435638
0.599852 0.044118 0.475051
0.009818 0.158549 0.449987
0.193342 0.199857 0.489400
0.376866 0.241165 0.528814
0.560390 0.282473 0.568228
0.743913 0.323781 0.607641
0.153880 0.438212 0.582577
0.337404 0.479520 0.621991
0.527230 0.527688 0.669150
0.717195 0.577521 0.719930
0.907160 0.627354 0.770711
0.313031 0.736363 0.738418
0.502996 0.786197 0.789198
0.692961 0.836030 0.839979
0.882926 0.885863 0.890759
1.000000 0.935091 0.940867
0.478761 1.000000 0.909247
0.665622 1.000000 0.956332
0.852287 1.000000 1.000000
1.000000 1.000000 1.000000
1.000000 1.000000 1.000000
0.000000 0.000000 0.468839
0.064825 0.000000 0.509644
0.247720 0.000000 0.549843
0.430871 0.016838 0.589723
0.614395 0.058147 0.629136
0.024362 0.172577 0.604072
0.207885 0.213885 0.643485
0.391409 0.255194 0.682899
0.574933 0.296502 0.722313
0.758457 0.337810 0.761726
0.168424 0.452241 0.736662
0.353095 0.494778 0.777441
0.543961 0.544611 0.827095
0.733926 0.594445 0.877876
0.923891 0.644278 0.928656
0.329762 0.753287 0.896363
0.519727 0.803120 0.947144
0.709692 0.852954 0.997924
0.899657 0.902787 1.000000
1.000000 0.951331 1.000000
0.494475 1.000000 1.000000
0.680806 1.000000 1.000000
0.867137 1.000000 1.000000
1.000000 1.000000 1.000000
1.000000 1.000000 1.000000
