resources/luts/emerald_thriller.cube
TITLE "Emerald Thriller"
LUT_3D_SIZE 5
DOMAIN_MIN 0.000000 0.000000 0.000000
DOMAIN_MAX 1.000000 1.000000 1.000000
0.000000 0.000000 0.000000
0.152877 0.000000 0.000000
0.429828 0.000000 0.000000
0.729158 0.000000 0.000000
1.000000 0.000000 0.000000
0.000000 0.227713 0.000000
0.165652 0.225615 0.000000
0.443395 0.223518 0.000000
0.743698 0.221421 0.000000
1.000000 0.219324 0.000000
0.000000 0.515657 0.000000
0.178439 0.513560 0.000000
0.457026 0.511463 0.000000
0.766652 0.518777 0.000000
1.000000 0.529946 0.000000
0.000000 0.817611 0.000000
0.206442 0.829146 0.000000
0.492694 0.840681 0.000000
0.802070 0.852216 0.000000
1.000000 0.863751 0.000000
0.000000 1.000000 0.000000
0.236987 1.000000 0.000000
0.525716 1.000000 0.000000
0.836787 1.000000 0.000000
1.000000 1.000000 0.000000
0.000000 0.000000 0.198958
0.154166 0.000000 0.200531
0.431195 0.000000 0.202104
0.730625 0.000000 0.203677
1.000000 0.000000 0.205250
0.000000 0.227000 0.204250
0.166942 0.224903 0.205823
0.444768 0.222806 0.207396
0.745167 0.220709 0.208968
1.000000 0.218611 0.210541
0.000000 0.514945 0.209541
0.179731 0.512848 0.211114
0.459907 0.512545 0.213992
0.770903 0.522329 0.223694
1.000000 0.533864 0.232083
0.000000 0.821528 0.226748
0.209520 0.833063 0.235137
0.496012 0.844598 0.243526
0.805572 0.856133 0.251915
1.000000 0.867668 0.260304
0.000000 1.000000 0.254969
0.240078 1.000000 0.263358
0.529068 1.000000 0.271747
0.840293 1.000000 0.280136
1.000000 1.000000 0.288525
0.000000 0.000000 0.494492
0.155455 0.000000 0.496065
0.432563 0.000000 0.497638
0.732092 0.000000 0.499211
1.000000 0.000000 0.500784
0.000000 0.226288 0.499784
0.168232 0.224191 0.501357
0.446142 0.222094 0.502930
0.746636 0.219996 0.504503
1.000000 0.217899 0.506076
0.000000 0.514233 0.505075
0.181023 0.512136 0.506648
0.464571 0.515750 0.512375
0.774400 0.526246 0.521543
1.000000 0.537781 0.529932
0.000000 0.825446 0.524597
0.212599 0.836980 0.532986
0.499334 0.848515 0.541375
0.809076 0.860050 0.549764
1.000000 0.871585 0.558153
0.000000 1.000000 0.552818
0.243171 1.000000 0.561207
0.532423 1.000000 0.569596
0.843800 1.000000 0.577985
1.000000 1.000000 0.586374
0.000000 0.000000 0.790027
0.156744 0.000000 0.791600
0.433931 0.000000 0.793172
0.733559 0.000000 0.794745
1.000000 0.000000 0.796318
0.000000 0.225576 0.795318
0.169523 0.223479 0.796891
0.447516 0.221381 0.798464
0.748105 0.219284 0.800037
1.000000 0.217187 0.801610
0.000000 0.513521 0.800609
0.182315 0.511423 0.802182
0.469243 0.518955 0.810758
0.777897 0.530163 0.819392
1.000000 0.541698 0.827781
0.000000 0.829363 0.822446
0.215679 0.840898 0.830835
0.502659 0.852433 0.839224
0.812580 0.863968 0.847613
1.000000 0.875502 0.856002
0.000000 1.000000 0.850667
0.246265 1.000000 0.859056
0.535781 1.000000 0.867445
0.847307 1.000000 0.875834
1.000000 1.000000 0.884223
0.000000 0.000000 1.000000
0.158034 0.000000 1.000000
0.435299 0.000000 1.000000
0.735027 0.000000 1.000000
1.000000 0.000000 1.000000
0.000000 0.224864 1.000000
0.170814 0.222766 1.000000
0.448892 0.220669 1.000000
0.749575 0.218572 1.000000
1.000000 0.216475 1.000000
0.000000 0.512808 1.000000
0.185183 0.512722 1.000000
0.473171 0.522546 1.000000
0.781396 0.534081 1.000000
1.000000 0.545616 1.000000
0.000000 0.833280 1.000000
0.218760 0.844815 1.000000
0.505988 0.856350 1.000000
0.816084 0.867885 1.000000
1.000000 0.879420 1.000000
0.000000 1.000000 1.000000
0.249361 1.000000 1.000000
0.539143 1.000000 1.000000
0.850814 1.000000 1.000000
1.000000 1.000000 1.000000
