resources/luts/emerald_thriller.cube
TITLE "Emerald Thriller"
LUT_3D_SIZE 9
DOMAIN_MIN 0.000000 0.000000 0.000000
DOMAIN_MAX 1.000000 1.000000 1.000000
0.000000 0.000000 0.000000
0.017608 0.000000 0.000000
0.152877 0.000000 0.000000
0.289322 0.000000 0.000000
0.429828 0.000000 0.000000
0.576828 0.000000 0.000000
0.729158 0.000000 0.000000
0.883943 0.000000 0.000000
1.000000 0.000000 0.000000
0.000000 0.083740 0.000000
0.024003 0.082692 0.000000
0.159263 0.081643 0.000000
0.295834 0.080595 0.000000
0.436604 0.079546 0.000000
0.583915 0.078497 0.000000
0.736426 0.077449 0.000000
0.891255 0.076400 0.000000
1.000000 0.075351 0.000000
0.000000 0.227713 0.000000
0.030395 0.226664 0.000000
0.165652 0.225615 0.000000
0.302356 0.224567 0.000000
0.443395 0.223518 0.000000
0.591014 0.222470 0.000000
0.743698 0.221421 0.000000
0.898565 0.220372 0.000000
1.000000 0.219324 0.000000
0.000000 0.371685 0.000000
0.036784 0.370636 0.000000
0.172044 0.369588 0.000000
0.308888 0.368539 0.000000
0.450202 0.367491 0.000000
0.598123 0.366442 0.000000
0.750975 0.365393 0.000000
0.905875 0.364345 0.000000
1.000000 0.364840 0.000000
0.000000 0.515657 0.000000
0.043169 0.514609 0.000000
0.178439 0.513560 0.000000
0.315430 0.512512 0.000000
0.457026 0.511463 0.000000
0.608424 0.514058 0.000000
0.766652 0.518777 0.000000
0.925339 0.524179 0.000000
1.000000 0.529946 0.000000
0.000000 0.659630 0.000000
0.049553 0.658581 0.000000
0.189341 0.663276 0.000000
0.331202 0.668011 0.000000
0.476312 0.673779 0.000000
0.628257 0.679546 0.000000
0.784730 0.685314 0.000000
0.942674 0.691081 0.000000
1.000000 0.696849 0.000000
0.000000 0.817611 0.000000
0.068447 0.823378 0.000000
0.206442 0.829146 0.000000
0.346842 0.834913 0.000000
0.492694 0.840681 0.000000
0.645286 0.846448 0.000000
0.802070 0.852216 0.000000
0.959989 0.857983 0.000000
1.000000 0.863751 0.000000
0.000000 0.984513 0.000000
0.083588 0.990280 0.000000
0.221698 0.996048 0.000000
0.362549 1.000000 0.000000
0.509163 1.000000 0.000000
0.662366 1.000000 0.000000
0.819423 1.000000 0.000000
0.977282 1.000000 0.000000
1.000000 1.000000 0.000000
0.000000 1.000000 0.000000
0.098726 1.000000 0.000000
0.236987 1.000000 0.000000
0.378325 1.000000 0.000000
0.525716 1.000000 0.000000
0.679492 1.000000 0.000000
0.836787 1.000000 0.000000
0.994546 1.000000 0.000000
1.000000 1.000000 0.000000
0.000000 0.000000 0.051191
0.018254 0.000000 0.051978
0.153521 0.000000 0.052764
0.289979 0.000000 0.053551
0.430512 0.000000 0.054337
0.577543 0.000000 0.055123
0.729891 0.000000 0.055910
0.884681 0.000000 0.056696
1.000000 0.000000 0.057483
0.000000 0.083384 0.053837
0.024649 0.082336 0.054623
0.159908 0.081287 0.055410
0.296492 0.080238 0.056196
0.437289 0.079190 0.056983
0.584631 0.078141 0.057769
0.737159 0.077092 0.058556
0.891993 0.076044 0.059342
1.000000 0.074995 0.060129
0.000000 0.227357 0.056483
0.031040 0.226308 0.057269
0.166297 0.225259 0.058056
0.303015 0.224211 0.058842
0.444082 0.223162 0.059628
0.591731 0.222113 0.060415
0.744432 0.221065 0.061201
0.899303 0.220016 0.061988
1.000000 0.218968 0.062774
0.000000 0.371329 0.059128
0.037429 0.370280 0.059915
0.172689 0.369232 0.060701
0.309548 0.368183 0.061488
0.450891 0.367134 0.062274
0.598842 0.366086 0.063061
0.751710 0.365037 0.063847
0.906612 0.363989 0.064634
1.000000 0.366443 0.067968
0.000000 0.515301 0.061774
0.043814 0.514253 0.062561
0.179085 0.513204 0.063347
0.316091 0.512155 0.064133
0.457716 0.511107 0.064920
0.610854 0.515661 0.069781
0.769136 0.520380 0.074762
0.927090 0.526138 0.078964
1.000000 0.531905 0.083158
0.000000 0.659274 0.064420
0.051708 0.660160 0.066614
0.191523 0.664879 0.071594
0.332778 0.669970 0.076296
0.477962 0.675737 0.080491
0.629974 0.681505 0.084685
0.786479 0.687272 0.088880
0.944423 0.693040 0.093074
1.000000 0.698807 0.097269
0.000000 0.819570 0.077823
0.069976 0.825337 0.082018
0.207981 0.831104 0.086212
0.348425 0.836872 0.090407
0.494353 0.842639 0.094601
0.647008 0.848407 0.098796
0.803821 0.854174 0.102990
0.961736 0.859942 0.107185
1.000000 0.865709 0.111379
0.000000 0.986472 0.091934
0.085117 0.992239 0.096128
0.223240 0.998007 0.100323
0.364138 1.000000 0.104518
0.510831 1.000000 0.108712
0.664092 1.000000 0.112907
0.821176 1.000000 0.117101
0.979026 1.000000 0.121296
1.000000 1.000000 0.125490
0.000000 1.000000 0.106045
0.100254 1.000000 0.110239
0.238532 1.000000 0.114434
0.379922 1.000000 0.118628
0.527392 1.000000 0.122823
0.681223 1.000000 0.127017
0.838540 1.000000 0.131212
0.996288 1.000000 0.135406
1.000000 1.000000 0.139601
0.000000 0.000000 0.198958
0.018900 0.000000 0.199745
0.154166 0.000000 0.200531
0.290636 0.000000 0.201318
0.431195 0.000000 0.202104
0.578258 0.000000 0.202891
0.730625 0.000000 0.203677
0.885419 0.000000 0.204463
1.000000 0.000000 0.205250
0.000000 0.083028 0.201604
0.025294 0.081980 0.202390
0.160552 0.080931 0.203177
0.297150 0.079882 0.203963
0.437974 0.078834 0.204750
0.585347 0.077785 0.205536
0.737893 0.076736 0.206323
0.892731 0.075688 0.207109
1.000000 0.074639 0.207896
0.000000 0.227000 0.204250
0.031685 0.225952 0.205036
0.166942 0.224903 0.205823
0.303674 0.223855 0.206609
0.444768 0.222806 0.207396
0.592448 0.221757 0.208182
0.745167 0.220709 0.208968
0.900041 0.219660 0.209755
1.000000 0.218611 0.210541
0.000000 0.370973 0.206895
0.038073 0.369924 0.207682
0.173335 0.368876 0.208468
0.310208 0.367827 0.209255
0.451579 0.366778 0.210041
0.599560 0.365730 0.210828
0.752445 0.364681 0.211614
0.907350 0.363632 0.212401
1.000000 0.368045 0.217159
0.000000 0.514945 0.209541
0.044458 0.513897 0.210328
0.179731 0.512848 0.211114
0.316752 0.511799 0.211901
0.459907 0.512545 0.213992
0.613285 0.517263 0.218973
0.770903 0.522329 0.223694
0.928841 0.528096 0.227888
1.000000 0.533864 0.232083
0.000000 0.658917 0.212187
0.053882 0.661762 0.215805
0.193706 0.666481 0.220786
0.334354 0.671928 0.225221
0.479612 0.677696 0.229415
0.631691 0.683463 0.233610
0.788229 0.689231 0.237804
0.946172 0.694998 0.241999
1.000000 0.700766 0.246193
0.000000 0.821528 0.226748
0.071505 0.827296 0.230942
0.209520 0.833063 0.235137
0.350008 0.838831 0.239331
0.496012 0.844598 0.243526
0.648731 0.850366 0.247720
0.805572 0.856133 0.251915
0.963483 0.861900 0.256109
1.000000 0.867668 0.260304
0.000000 0.988430 0.240858
0.086645 0.994198 0.245053
0.224782 0.999965 0.249247
0.365728 1.000000 0.253442
0.512499 1.000000 0.257636
0.665820 1.000000 0.261831
0.822928 1.000000 0.266026
0.980770 1.000000 0.270220
1.000000 1.000000 0.274415
0.000000 1.000000 0.254969
0.101782 1.000000 0.259164
0.240078 1.000000 0.263358
0.381519 1.000000 0.267553
0.529068 1.000000 0.271747
0.682955 1.000000 0.275942
0.840293 1.000000 0.280136
0.998029 1.000000 0.284331
1.000000 1.000000 0.288525
0.000000 0.000000 0.346725
0.019545 0.000000 0.347512
0.154810 0.000000 0.348298
0.291293 0.000000 0.349085
0.431879 0.000000 0.349871
0.578973 0.000000 0.350658
0.731358 0.000000 0.351444
0.886157 0.000000 0.352231
1.000000 0.000000 0.353017
0.000000 0.082672 0.349371
0.025939 0.081623 0.350157
0.161197 0.080575 0.350944
0.297809 0.079526 0.351730
0.438659 0.078478 0.352517
0.586064 0.077429 0.353303
0.738627 0.076380 0.354090
0.893469 0.075332 0.354876
1.000000 0.074283 0.355663
0.000000 0.226644 0.352017
0.032330 0.225596 0.352803
0.167587 0.224547 0.353590
0.304334 0.223498 0.354376
0.445455 0.222450 0.355163
0.593166 0.221401 0.355949
0.745902 0.220353 0.356736
0.900779 0.219304 0.357522
1.000000 0.218255 0.358309
0.000000 0.370617 0.354663
0.038718 0.369568 0.355449
0.173980 0.368519 0.356235
0.310868 0.367471 0.357022
0.452267 0.366422 0.357808
0.600279 0.365374 0.358595
0.753180 0.364325 0.359381
0.909566 0.364929 0.361370
1.000000 0.369648 0.366351
0.000000 0.514589 0.357308
0.045103 0.513540 0.358095
0.180377 0.512492 0.358881
0.317413 0.511443 0.359668
0.462238 0.514147 0.363183
0.615718 0.518866 0.368164
0.772652 0.524287 0.372618
0.930591 0.530055 0.376813
1.000000 0.535822 0.381007
0.000000 0.658646 0.360016
0.056056 0.663365 0.364997
0.195824 0.668120 0.369951
0.335932 0.673887 0.374145
0.481264 0.679655 0.378340
0.633409 0.685422 0.382534
0.789980 0.691190 0.386729
0.947920 0.696957 0.390923
1.000000 0.702724 0.395118
0.000000 0.823487 0.375672
0.073034 0.829254 0.379867
0.211059 0.835022 0.384061
0.351592 0.840789 0.388256
0.497673 0.846557 0.392450
0.650454 0.852324 0.396645
0.807324 0.858092 0.400839
0.965229 0.863859 0.405034
1.000000 0.869627 0.409228
0.000000 0.990389 0.389783
0.088173 0.996156 0.393977
0.226325 1.000000 0.398172
0.367319 1.000000 0.402366
0.514168 1.000000 0.406561
0.667548 1.000000 0.410755
0.824681 1.000000 0.414950
0.982513 1.000000 0.419144
1.000000 1.000000 0.423339
0.000000 1.000000 0.403894
0.103310 1.000000 0.408088
0.241624 1.000000 0.412283
0.383118 1.000000 0.416477
0.530745 1.000000 0.420672
0.684687 1.000000 0.424866
0.842047 1.000000 0.429061
0.999769 1.000000 0.433255
1.000000 1.000000 0.437450
0.000000 0.000000 0.494492
0.020191 0.000000 0.495279
0.155455 0.000000 0.496065
0.291951 0.000000 0.496852
0.432563 0.000000 0.497638
0.579689 0.000000 0.498425
0.732092 0.000000 0.499211
0.886896 0.000000 0.499998
1.000000 0.000000 0.500784
0.000000 0.082316 0.497138
0.026585 0.081267 0.497925
0.161842 0.080219 0.498711
0.298467 0.079170 0.499498
0.439344 0.078121 0.500284
0.586780 0.077073 0.501070
0.739362 0.076024 0.501857
0.894207 0.074975 0.502643
1.000000 0.073927 0.503430
0.000000 0.226288 0.499784
0.032975 0.225240 0.500570
0.168232 0.224191 0.501357
0.304993 0.223142 0.502143
0.446142 0.222094 0.502930
0.593883 0.221045 0.503716
0.746636 0.219996 0.504503
0.901517 0.218948 0.505289
1.000000 0.217899 0.506076
0.000000 0.370261 0.502430
0.039363 0.369212 0.503216
0.174626 0.368163 0.504003
0.311528 0.367115 0.504789
0.452956 0.366066 0.505575
0.600997 0.365017 0.506362
0.753916 0.363969 0.507148
0.912056 0.366532 0.510561
1.000000 0.371250 0.515542
0.000000 0.514233 0.505075
0.045747 0.513184 0.505862
0.181023 0.512136 0.506648
0.318074 0.511087 0.507435
0.464571 0.515750 0.512375
0.618130 0.520479 0.517348
0.774400 0.526246 0.521543
0.932341 0.532014 0.525737
1.000000 0.537781 0.529932
0.000000 0.660249 0.509207
0.058230 0.664968 0.514188
0.197361 0.670078 0.518875
0.337510 0.675846 0.523070
0.482916 0.681613 0.527264
0.635127 0.687381 0.531459
0.791730 0.693148 0.535653
0.949668 0.698916 0.539848
1.000000 0.704683 0.544042
0.000000 0.825446 0.524597
0.074562 0.831213 0.528791
0.212599 0.836980 0.532986
0.353176 0.842748 0.537180
0.499334 0.848515 0.541375
0.652177 0.854283 0.545569
0.809076 0.860050 0.549764
0.966975 0.865818 0.553958
1.000000 0.871585 0.558153
0.000000 0.992348 0.538707
0.089701 0.998115 0.542902
0.227867 1.000000 0.547096
0.368911 1.000000 0.551291
0.515838 1.000000 0.555485
0.669276 1.000000 0.559680
0.826434 1.000000 0.563874
0.984257 1.000000 0.568069
1.000000 1.000000 0.572263
0.000000 1.000000 0.552818
0.104838 1.000000 0.557012
0.243171 1.000000 0.561207
0.384717 1.000000 0.565402
0.532423 1.000000 0.569596
0.686419 1.000000 0.573791
0.843800 1.000000 0.577985
1.000000 1.000000 0.582180
1.000000 1.000000 0.586374
0.000000 0.000000 0.642259
0.020837 0.000000 0.643046
0.156100 0.000000 0.643832
0.292608 0.000000 0.644619
0.433246 0.000000 0.645405
0.580404 0.000000 0.646192
0.732826 0.000000 0.646978
0.887634 0.000000 0.647765
1.000000 0.000000 0.648551
0.000000 0.081960 0.644905
0.027230 0.080911 0.645692
0.162487 0.079863 0.646478
0.299125 0.078814 0.647265
0.440030 0.077765 0.648051
0.587497 0.076717 0.648838
0.740096 0.075668 0.649624
0.894945 0.074619 0.650410
1.000000 0.073571 0.651197
0.000000 0.225932 0.647551
0.033620 0.224883 0.648337
0.168878 0.223835 0.649124
0.305652 0.222786 0.649910
0.446829 0.221738 0.650697
0.594601 0.220689 0.651483
0.747371 0.219640 0.652270
0.902255 0.218592 0.653056
1.000000 0.217543 0.653843
0.000000 0.369904 0.650197
0.040007 0.368856 0.650983
0.175271 0.367807 0.651770
0.312189 0.366759 0.652556
0.453645 0.365710 0.653342
0.601716 0.364661 0.654129
0.754651 0.363613 0.654916
0.914545 0.368134 0.659753
1.000000 0.372853 0.664734
0.000000 0.513877 0.652842
0.046392 0.512828 0.653629
0.181669 0.511779 0.654415
0.320262 0.512633 0.656585
0.466906 0.517352 0.661566
0.619844 0.522437 0.666273
0.776148 0.528205 0.670467
0.934091 0.533972 0.674662
1.000000 0.539740 0.678856
0.000000 0.661851 0.658399
0.060403 0.666570 0.663380
0.198898 0.672037 0.667800
0.339088 0.677804 0.671994
0.484570 0.683572 0.676189
0.636846 0.689339 0.680383
0.793480 0.695107 0.684578
0.951416 0.700874 0.688772
1.000000 0.706642 0.692967
0.000000 0.827404 0.673521
0.076091 0.833172 0.677716
0.214139 0.838939 0.681910
0.354762 0.844707 0.686105
0.500996 0.850474 0.690299
0.653901 0.856242 0.694494
0.810828 0.862009 0.698688
0.968721 0.867776 0.702883
1.000000 0.873544 0.707077
0.000000 0.994306 0.687632
0.091229 1.000000 0.691826
0.229411 1.000000 0.696021
0.370503 1.000000 0.700215
0.517508 1.000000 0.704410
0.671004 1.000000 0.708604
0.828187 1.000000 0.712799
0.986000 1.000000 0.716993
1.000000 1.000000 0.721188
0.000000 1.000000 0.701742
0.106366 1.000000 0.705937
0.244718 1.000000 0.710132
0.386316 1.000000 0.714326
0.534102 1.000000 0.718520
0.688153 1.000000 0.722715
0.845553 1.000000 0.726910
1.000000 1.000000 0.731104
1.000000 1.000000 0.735299
0.000000 0.000000 0.790027
0.021482 0.000000 0.790813
0.156744 0.000000 0.791600
0.293265 0.000000 0.792386
0.433931 0.000000 0.793172
0.581119 0.000000 0.793959
0.733559 0.000000 0.794745
0.888372 0.000000 0.795532
1.000000 0.000000 0.796318
0.000000 0.081604 0.792672
0.027875 0.080555 0.793459
0.163132 0.079506 0.794245
0.299784 0.078458 0.795032
0.440716 0.077409 0.795818
0.588213 0.076360 0.796605
0.740830 0.075312 0.797391
0.895683 0.074263 0.798178
1.000000 0.073215 0.798964
0.000000 0.225576 0.795318
0.034265 0.224527 0.796104
0.169523 0.223479 0.796891
0.306312 0.222430 0.797677
0.447516 0.221381 0.798464
0.595319 0.220333 0.799250
0.748105 0.219284 0.800037
0.902993 0.218236 0.800823
1.000000 0.217187 0.801610
0.000000 0.369548 0.797964
0.040652 0.368500 0.798750
0.175917 0.367451 0.799537
0.312849 0.366402 0.800323
0.454334 0.365354 0.801110
0.602435 0.364305 0.801896
0.756956 0.365018 0.803964
0.917034 0.369737 0.808944
1.000000 0.374796 0.813670
0.000000 0.513521 0.800609
0.047036 0.512472 0.801396
0.182315 0.511423 0.802182
0.322495 0.514236 0.805777
0.469243 0.518955 0.810758
0.621558 0.524396 0.815197
0.777897 0.530163 0.819392
0.935841 0.535931 0.823586
1.000000 0.541698 0.827781
0.000000 0.663454 0.807590
0.062476 0.668228 0.812530
0.200435 0.673996 0.816724
0.340667 0.679763 0.820919
0.486224 0.685531 0.825113
0.638566 0.691298 0.829308
0.795231 0.697065 0.833502
0.953164 0.702833 0.837697
1.000000 0.708600 0.841891
0.000000 0.829363 0.822446
0.077619 0.835130 0.826640
0.215679 0.840898 0.830835
0.356348 0.846665 0.835029
0.502659 0.852433 0.839224
0.655626 0.858200 0.843418
0.812580 0.863968 0.847613
0.970466 0.869735 0.851807
1.000000 0.875502 0.856002
0.000000 0.996265 0.836556
0.092757 1.000000 0.840751
0.230954 1.000000 0.844945
0.372096 1.000000 0.849140
0.519180 1.000000 0.853334
0.672734 1.000000 0.857529
0.829940 1.000000 0.861723
0.987742 1.000000 0.865918
1.000000 1.000000 0.870112
0.000000 1.000000 0.850667
0.107894 1.000000 0.854861
0.246265 1.000000 0.859056
0.387917 1.000000 0.863250
0.535781 1.000000 0.867445
0.689886 1.000000 0.871639
0.847307 1.000000 0.875834
1.000000 1.000000 0.880028
1.000000 1.000000 0.884223
0.000000 0.000000 0.937794
0.022128 0.000000 0.938580
0.157389 0.000000 0.939367
0.293923 0.000000 0.940153
0.434615 0.000000 0.940939
0.581835 0.000000 0.941726
0.734293 0.000000 0.942512
0.889110 0.000000 0.943299
1.000000 0.000000 0.944085
0.000000 0.081248 0.940439
0.028520 0.080199 0.941226
0.163777 0.079150 0.942012
0.300442 0.078102 0.942799
0.441401 0.077053 0.943585
0.588930 0.076004 0.944372
0.741564 0.074956 0.945158
0.896421 0.073907 0.945945
1.000000 0.072859 0.946731
0.000000 0.225220 0.943085
0.034910 0.224171 0.943871
0.170168 0.223123 0.944658
0.306971 0.222074 0.945444
0.448204 0.221025 0.946231
0.596036 0.219977 0.947017
0.748840 0.218928 0.947804
0.903731 0.217879 0.948590
1.000000 0.216831 0.949377
0.000000 0.369192 0.945731
0.041297 0.368144 0.946517
0.176563 0.367095 0.947304
0.313510 0.366046 0.948090
0.455023 0.364998 0.948877
0.603154 0.363949 0.949663
0.759438 0.366620 0.953155
0.919523 0.371339 0.958136
1.000000 0.376755 0.962594
0.000000 0.513165 0.948377
0.047680 0.512116 0.949163
0.183002 0.511120 0.949987
0.324730 0.515838 0.954968
0.471524 0.520587 0.959927
0.623272 0.526355 0.964122
0.779646 0.532122 0.968316
0.937591 0.537890 0.972511
1.000000 0.543657 0.976705
0.000000 0.665056 0.956782
0.064005 0.670187 0.961454
0.201972 0.675954 0.965649
0.342247 0.681722 0.969843
0.487879 0.687489 0.974038
0.640285 0.693257 0.978232
0.796982 0.699024 0.982427
0.954912 0.704792 0.986621
1.000000 0.710559 0.990816
0.000000 0.831321 0.971370
0.079147 0.837089 0.975565
0.217219 0.842856 0.979759
0.357934 0.848624 0.983954
0.504323 0.854391 0.988148
0.657350 0.860159 0.992343
0.814332 0.865926 0.996537
0.972211 0.871694 1.000000
1.000000 0.877461 1.000000
0.000000 0.998224 0.985481
0.094285 1.000000 0.989675
0.232498 1.000000 0.993870
0.373690 1.000000 0.998064
0.520852 1.000000 1.000000
0.674463 1.000000 1.000000
0.831693 1.000000 1.000000
0.989485 1.000000 1.000000
1.000000 1.000000 1.000000
0.000000 1.000000 0.999591
0.109422 1.000000 1.000000
0.247813 1.000000 1.000000
0.389518 1.000000 1.000000
0.537462 1.000000 1.000000
0.691620 1.000000 1.000000
0.849060 1.000000 1.000000
1.000000 1.000000 1.000000
1.000000 1.000000 1.000000
0.000000 0.000000 1.000000
0.022773 0.000000 1.000000
0.158034 0.000000 1.000000
0.294581 0.000000 1.000000
0.435299 0.000000 1.000000
0.582551 0.000000 1.000000
0.735027 0.000000 1.000000
0.889848 0.000000 1.000000
1.000000 0.000000 1.000000
0.000000 0.080891 1.000000
0.029166 0.079843 1.000000
0.164422 0.078794 1.000000
0.301101 0.077746 1.000000
0.442087 0.076697 1.000000
0.589647 0.075648 1.000000
0.742299 0.074600 1.000000
0.897159 0.073551 1.000000
1.000000 0.072502 1.000000
0.000000 0.224864 1.000000
0.035555 0.223815 1.000000
0.170814 0.222766 1.000000
0.307631 0.221718 1.000000
0.448892 0.220669 1.000000
0.596755 0.219621 1.000000
0.749575 0.218572 1.000000
0.904468 0.217523 1.000000
1.000000 0.216475 1.000000
0.000000 0.368836 1.000000
0.041941 0.367787 1.000000
0.177209 0.366739 1.000000
0.314170 0.365690 1.000000
0.455712 0.364642 1.000000
0.603873 0.363593 1.000000
0.761920 0.368223 1.000000
0.922002 0.372946 1.000000
1.000000 0.378714 1.000000
0.000000 0.512808 1.000000
0.048325 0.511760 1.000000
0.185183 0.512722 1.000000
0.326966 0.517441 1.000000
0.473171 0.522546 1.000000
0.624987 0.528313 1.000000
0.781396 0.534081 1.000000
0.939340 0.539848 1.000000
1.000000 0.545616 1.000000
0.000000 0.666659 1.000000
0.065534 0.672146 1.000000
0.203510 0.677913 1.000000
0.343828 0.683680 1.000000
0.489535 0.689448 1.000000
0.642006 0.695215 1.000000
0.798732 0.700983 1.000000
0.956659 0.706750 1.000000
1.000000 0.712518 1.000000
0.000000 0.833280 1.000000
0.080676 0.839048 1.000000
0.218760 0.844815 1.000000
0.359522 0.850583 1.000000
0.505988 0.856350 1.000000
0.659076 0.862117 1.000000
0.816084 0.867885 1.000000
0.973957 0.873652 1.000000
1.000000 0.879420 1.000000
0.000000 1.000000 1.000000
0.095813 1.000000 1.000000
0.234043 1.000000 1.000000
0.375284 1.000000 1.000000
0.522525 1.000000 1.000000
0.676193 1.000000 1.000000
0.833446 1.000000 1.000000
0.991227 1.000000 1.000000
1.000000 1.000000 1.000000
0.000000 1.000000 1.000000
0.110950 1.000000 1.000000
0.249361 1.000000 1.000000
0.391120 1.000000 1.000000
0.539143 1.000000 1.000000
0.693354 1.000000 1.000000
0.850814 1.000000 1.000000
1.000000 1.000000 1.000000
1.000000 1.000000 1.000000
