resources/luts/emerald_thriller.cube
TITLE "Emerald Thriller"
LUT_3D_SIZE 33
DOMAIN_MIN 0.000000 0.000000 0.000000
DOMAIN_MAX 1.000000 1.000000 1.000000
0.000000 0.000000 0.000000
0.000000 0.000000 0.000000
0.000000 0.000000 0.000000
0.000000 0.000000 0.000000
0.017608 0.000000 0.000000
0.051473 0.000000 0.000000
0.085276 0.000000 0.000000
0.119062 0.000000 0.000000
0.152877 0.000000 0.000000
0.186765 0.000000 0.000000
0.220772 0.000000 0.000000
0.254942 0.000000 0.000000
0.289322 0.000000 0.000000
0.323955 0.000000 0.000000
0.358887 0.000000 0.000000
0.394163 0.000000 0.000000
0.429828 0.000000 0.000000
0.465928 0.000000 0.000000
0.502486 0.000000 0.000000
0.539468 0.000000 0.000000
0.576828 0.000000 0.000000
0.614523 0.000000 0.000000
0.652506 0.000000 0.000000
0.690733 0.000000 0.000000
0.729158 0.000000 0.000000
0.767737 0.000000 0.000000
0.806424 0.000000 0.000000
0.845174 0.000000 0.000000
0.883943 0.000000 0.000000
0.922684 0.000000 0.000000
0.961354 0.000000 0.000000
0.999907 0.000000 0.000000
1.000000 0.000000 0.000000
0.000000 0.000000 0.000000
0.000000 0.000000 0.000000
0.000000 0.000000 0.000000
0.000000 0.000000 0.000000
0.019207 0.000000 0.000000
0.053068 0.000000 0.000000
0.086869 0.000000 0.000000
0.120656 0.000000 0.000000
0.154473 0.000000 0.000000
0.188366 0.000000 0.000000
0.222379 0.000000 0.000000
0.256559 0.000000 0.000000
0.290949 0.000000 0.000000
0.325595 0.000000 0.000000
0.360543 0.000000 0.000000
0.395836 0.000000 0.000000
0.431521 0.000000 0.000000
0.467642 0.000000 0.000000
0.504221 0.000000 0.000000
0.541221 0.000000 0.000000
0.578599 0.000000 0.000000
0.616308 0.000000 0.000000
0.654304 0.000000 0.000000
0.692541 0.000000 0.000000
0.730975 0.000000 0.000000
0.769559 0.000000 0.000000
0.808250 0.000000 0.000000
0.847003 0.000000 0.000000
0.885771 0.000000 0.000000
0.924510 0.000000 0.000000
0.963175 0.000000 0.000000
1.000000 0.000000 0.000000
1.000000 0.000000 0.000000
0.000000 0.011754 0.000000
0.000000 0.011492 0.000000
0.000000 0.011230 0.000000
0.000000 0.010968 0.000000
0.020806 0.010706 0.000000
0.054663 0.010443 0.000000
0.088463 0.010181 0.000000
0.122250 0.009919 0.000000
0.156069 0.009657 0.000000
0.189967 0.009395 0.000000
0.223987 0.009133 0.000000
0.258176 0.008870 0.000000
0.292577 0.008608 0.000000
0.327236 0.008346 0.000000
0.362199 0.008084 0.000000
0.397510 0.007822 0.000000
0.433214 0.007560 0.000000
0.469357 0.007298 0.000000
0.505957 0.007035 0.000000
0.542976 0.006773 0.000000
0.580370 0.006511 0.000000
0.618094 0.006249 0.000000
0.656102 0.005987 0.000000
0.694349 0.005725 0.000000
0.732791 0.005462 0.000000
0.771382 0.005200 0.000000
0.810077 0.004938 0.000000
0.848831 0.004676 0.000000
0.887599 0.004414 0.000000
0.926336 0.004152 0.000000
0.964996 0.003889 0.000000
1.000000 0.003627 0.000000
1.000000 0.003365 0.000000
0.000000 0.047747 0.000000
0.000000 0.047485 0.000000
0.000000 0.047223 0.000000
0.000000 0.046961 0.000000
0.022405 0.046699 0.000000
0.056258 0.046436 0.000000
0.090056 0.046174 0.000000
0.123843 0.045912 0.000000
0.157666 0.045650 0.000000
0.191568 0.045388 0.000000
0.225596 0.045126 0.000000
0.259793 0.044864 0.000000
0.294205 0.044601 0.000000
0.328878 0.044339 0.000000
0.363856 0.044077 0.000000
0.399185 0.043815 0.000000
0.434909 0.043553 0.000000
0.471073 0.043291 0.000000
0.507693 0.043028 0.000000
0.544732 0.042766 0.000000
0.582142 0.042504 0.000000
0.619880 0.042242 0.000000
0.657901 0.041980 0.000000
0.696159 0.041718 0.000000
0.734608 0.041456 0.000000
0.773205 0.041193 0.000000
0.811904 0.040931 0.000000
0.850659 0.040669 0.000000
0.889427 0.040407 0.000000
0.928161 0.040145 0.000000
0.966817 0.039883 0.000000
1.000000 0.039620 0.000000
1.000000 0.039358 0.000000
0.000000 0.083740 0.000000
0.000000 0.083478 0.000000
0.000000 0.083216 0.000000
0.000000 0.082954 0.000000
0.024003 0.082692 0.000000
0.057853 0.082430 0.000000
0.091649 0.082167 0.000000
0.125437 0.081905 0.000000
0.159263 0.081643 0.000000
0.193170 0.081381 0.000000
0.227204 0.081119 0.000000
0.261411 0.080857 0.000000
0.295834 0.080595 0.000000
0.330521 0.080332 0.000000
0.365514 0.080070 0.000000
0.400860 0.079808 0.000000
0.436604 0.079546 0.000000
0.472790 0.079284 0.000000
0.509431 0.079022 0.000000
0.546488 0.078759 0.000000
0.583915 0.078497 0.000000
0.621668 0.078235 0.000000
0.659700 0.077973 0.000000
0.697968 0.077711 0.000000
0.736426 0.077449 0.000000
0.775028 0.077186 0.000000
0.813731 0.076924 0.000000
0.852488 0.076662 0.000000
0.891255 0.076400 0.000000
0.929986 0.076138 0.000000
0.968637 0.075876 0.000000
1.000000 0.075613 0.000000
1.000000 0.075351 0.000000
0.000000 0.119733 0.000000
0.000000 0.119471 0.000000
0.000000 0.119209 0.000000
0.000000 0.118947 0.000000
0.025602 0.118685 0.000000
0.059448 0.118423 0.000000
0.093243 0.118161 0.000000
0.127032 0.117898 0.000000
0.160860 0.117636 0.000000
0.194772 0.117374 0.000000
0.228813 0.117112 0.000000
0.263029 0.116850 0.000000
0.297464 0.116588 0.000000
0.332164 0.116325 0.000000
0.367173 0.116063 0.000000
0.402537 0.115801 0.000000
0.438300 0.115539 0.000000
0.474508 0.115277 0.000000
0.511170 0.115015 0.000000
0.548245 0.114752 0.000000
0.585689 0.114490 0.000000
0.623455 0.114228 0.000000
0.661500 0.113966 0.000000
0.699778 0.113704 0.000000
0.738243 0.113442 0.000000
0.776851 0.113180 0.000000
0.815558 0.112917 0.000000
0.854316 0.112655 0.000000
0.893082 0.112393 0.000000
0.931811 0.112131 0.000000
0.970457 0.111869 0.000000
1.000000 0.111607 0.000000
1.000000 0.111344 0.000000
0.000000 0.155727 0.000000
0.000000 0.155464 0.000000
0.000000 0.155202 0.000000
0.000000 0.154940 0.000000
0.027200 0.154678 0.000000
0.061042 0.154416 0.000000
0.094836 0.154154 0.000000
0.128626 0.153891 0.000000
0.162457 0.153629 0.000000
0.196374 0.153367 0.000000
0.230423 0.153105 0.000000
0.264648 0.152843 0.000000
0.299094 0.152581 0.000000
0.333807 0.152319 0.000000
0.368832 0.152056 0.000000
0.404214 0.151794 0.000000
0.439998 0.151532 0.000000
0.476227 0.151270 0.000000
0.512910 0.151008 0.000000
0.550003 0.150746 0.000000
0.587463 0.150483 0.000000
0.625244 0.150221 0.000000
0.663300 0.149959 0.000000
0.701588 0.149697 0.000000
0.740061 0.149435 0.000000
0.778675 0.149173 0.000000
0.817385 0.148910 0.000000
0.856145 0.148648 0.000000
0.894910 0.148386 0.000000
0.933636 0.148124 0.000000
0.972277 0.147862 0.000000
1.000000 0.147600 0.000000
1.000000 0.147338 0.000000
0.000000 0.191720 0.000000
0.000000 0.191457 0.000000
0.000000 0.191195 0.000000
0.000000 0.190933 0.000000
0.028798 0.190671 0.000000
0.062637 0.190409 0.000000
0.096429 0.190147 0.000000
0.130220 0.189885 0.000000
0.164054 0.189622 0.000000
0.197977 0.189360 0.000000
0.232032 0.189098 0.000000
0.266267 0.188836 0.000000
0.300725 0.188574 0.000000
0.335452 0.188312 0.000000
0.370493 0.188049 0.000000
0.405892 0.187787 0.000000
0.441696 0.187525 0.000000
0.477947 0.187263 0.000000
0.514650 0.187001 0.000000
0.551762 0.186739 0.000000
0.589238 0.186476 0.000000
0.627033 0.186214 0.000000
0.665101 0.185952 0.000000
0.703399 0.185690 0.000000
0.741880 0.185428 0.000000
0.780499 0.185166 0.000000
0.819212 0.184904 0.000000
0.857973 0.184641 0.000000
0.896738 0.184379 0.000000
0.935461 0.184117 0.000000
0.974097 0.183855 0.000000
1.000000 0.183593 0.000000
1.000000 0.183331 0.000000
0.000000 0.227713 0.000000
0.000000 0.227451 0.000000
0.000000 0.227188 0.000000
0.000000 0.226926 0.000000
0.030395 0.226664 0.000000
0.064231 0.226402 0.000000
0.098023 0.226140 0.000000
0.131814 0.225878 0.000000
0.165652 0.225615 0.000000
0.199579 0.225353 0.000000
0.233643 0.225091 0.000000
0.267887 0.224829 0.000000
0.302356 0.224567 0.000000
0.337097 0.224305 0.000000
0.372154 0.224043 0.000000
0.407571 0.223780 0.000000
0.443395 0.223518 0.000000
0.479668 0.223256 0.000000
0.516392 0.222994 0.000000
0.553522 0.222732 0.000000
0.591014 0.222470 0.000000
0.628822 0.222207 0.000000
0.666903 0.221945 0.000000
0.705209 0.221683 0.000000
0.743698 0.221421 0.000000
0.782323 0.221159 0.000000
0.821039 0.220897 0.000000
0.859802 0.220634 0.000000
0.898565 0.220372 0.000000
0.937285 0.220110 0.000000
0.975916 0.219848 0.000000
1.000000 0.219586 0.000000
1.000000 0.219324 0.000000
0.000000 0.263706 0.000000
0.000000 0.263444 0.000000
0.000000 0.263181 0.000000
0.000000 0.262919 0.000000
0.031993 0.262657 0.000000
0.065826 0.262395 0.000000
0.099616 0.262133 0.000000
0.133409 0.261871 0.000000
0.167249 0.261609 0.000000
0.201182 0.261346 0.000000
0.235253 0.261084 0.000000
0.269507 0.260822 0.000000
0.303989 0.260560 0.000000
0.338743 0.260298 0.000000
0.373816 0.260036 0.000000
0.409251 0.259773 0.000000
0.445096 0.259511 0.000000
0.481390 0.259249 0.000000
0.518134 0.258987 0.000000
0.555282 0.258725 0.000000
0.592790 0.258463 0.000000
0.630612 0.258200 0.000000
0.668705 0.257938 0.000000
0.707021 0.257676 0.000000
0.745517 0.257414 0.000000
0.784147 0.257152 0.000000
0.822867 0.256890 0.000000
0.861630 0.256628 0.000000
0.900393 0.256365 0.000000
0.939109 0.256103 0.000000
0.977735 0.255841 0.000000
1.000000 0.255579 0.000000
1.000000 0.255317 0.000000
0.000000 0.299699 0.000000
0.000000 0.299437 0.000000
0.000000 0.299175 0.000000
0.000000 0.298912 0.000000
0.033590 0.298650 0.000000
0.067420 0.298388 0.000000
0.101209 0.298126 0.000000
0.135003 0.297864 0.000000
0.168847 0.297602 0.000000
0.202786 0.297339 0.000000
0.236864 0.297077 0.000000
0.271128 0.296815 0.000000
0.305621 0.296553 0.000000
0.340390 0.296291 0.000000
0.375478 0.296029 0.000000
0.410932 0.295767 0.000000
0.446797 0.295504 0.000000
0.483114 0.295242 0.000000
0.519877 0.294980 0.000000
0.557043 0.294718 0.000000
0.594567 0.294456 0.000000
0.632403 0.294194 0.000000
0.670507 0.293931 0.000000
0.708833 0.293669 0.000000
0.747336 0.293407 0.000000
0.785972 0.293145 0.000000
0.824694 0.292883 0.000000
0.863459 0.292621 0.000000
0.902220 0.292358 0.000000
0.940933 0.292096 0.000000
0.979554 0.291834 0.000000
1.000000 0.291572 0.000000
1.000000 0.291310 0.000000
0.000000 0.335692 0.000000
0.000000 0.335430 0.000000
0.000000 0.335168 0.000000
0.001276 0.334905 0.000000
0.035187 0.334643 0.000000
0.069014 0.334381 0.000000
0.102803 0.334119 0.000000
0.136598 0.333857 0.000000
0.170445 0.333595 0.000000
0.204390 0.333333 0.000000
0.238476 0.333070 0.000000
0.272749 0.332808 0.000000
0.307254 0.332546 0.000000
0.342037 0.332284 0.000000
0.377142 0.332022 0.000000
0.412614 0.331760 0.000000
0.448499 0.331497 0.000000
0.484838 0.331235 0.000000
0.521621 0.330973 0.000000
0.558805 0.330711 0.000000
0.596345 0.330449 0.000000
0.634195 0.330187 0.000000
0.672310 0.329924 0.000000
0.710645 0.329662 0.000000
0.749156 0.329400 0.000000
0.787796 0.329138 0.000000
0.826522 0.328876 0.000000
0.865287 0.328614 0.000000
0.904047 0.328352 0.000000
0.942757 0.328089 0.000000
0.981372 0.327827 0.000000
1.000000 0.327565 0.000000
1.000000 0.327303 0.000000
0.000000 0.371685 0.000000
0.000000 0.371423 0.000000
0.000000 0.371161 0.000000
0.002878 0.370899 0.000000
0.036784 0.370636 0.000000
0.070608 0.370374 0.000000
0.104396 0.370112 0.000000
0.138193 0.369850 0.000000
0.172044 0.369588 0.000000
0.205994 0.369326 0.000000
0.240088 0.369063 0.000000
0.274371 0.368801 0.000000
0.308888 0.368539 0.000000
0.343685 0.368277 0.000000
0.378806 0.368015 0.000000
0.414297 0.367753 0.000000
0.450202 0.367491 0.000000
0.486563 0.367228 0.000000
0.523366 0.366966 0.000000
0.560568 0.366704 0.000000
0.598123 0.366442 0.000000
0.635987 0.366180 0.000000
0.674113 0.365918 0.000000
0.712458 0.365655 0.000000
0.750975 0.365393 0.000000
0.789621 0.365131 0.000000
0.828350 0.364869 0.000000
0.867116 0.364607 0.000000
0.905875 0.364345 0.000000
0.944581 0.364083 0.000000
0.983190 0.363820 0.000000
1.000000 0.363661 0.000000
1.000000 0.364840 0.000000
0.000000 0.407678 0.000000
0.000000 0.407416 0.000000
0.000000 0.407154 0.000000
0.004480 0.406892 0.000000
0.038380 0.406630 0.000000
0.072202 0.406367 0.000000
0.105989 0.406105 0.000000
0.139788 0.405843 0.000000
0.173642 0.405581 0.000000
0.207598 0.405319 0.000000
0.241700 0.405057 0.000000
0.275993 0.404794 0.000000
0.310523 0.404532 0.000000
0.345334 0.404270 0.000000
0.380471 0.404008 0.000000
0.415981 0.403746 0.000000
0.451907 0.403484 0.000000
0.488289 0.403221 0.000000
0.525112 0.402959 0.000000
0.562332 0.402697 0.000000
0.599902 0.402435 0.000000
0.637779 0.402173 0.000000
0.675917 0.401911 0.000000
0.714271 0.401649 0.000000
0.752796 0.401386 0.000000
0.791446 0.401124 0.000000
0.830177 0.400862 0.000000
0.868944 0.400600 0.000000
0.908263 0.400965 0.000000
0.948252 0.402145 0.000000
0.988132 0.403325 0.000000
1.000000 0.404504 0.000000
1.000000 0.405684 0.000000
0.000000 0.443671 0.000000
0.000000 0.443409 0.000000
0.000000 0.443147 0.000000
0.006081 0.442885 0.000000
0.039977 0.442623 0.000000
0.073796 0.442360 0.000000
0.107583 0.442098 0.000000
0.141383 0.441836 0.000000
0.175241 0.441574 0.000000
0.209203 0.441312 0.000000
0.243312 0.441050 0.000000
0.277616 0.440787 0.000000
0.312158 0.440525 0.000000
0.346983 0.440263 0.000000
0.382137 0.440001 0.000000
0.417665 0.439739 0.000000
0.453612 0.439477 0.000000
0.490016 0.439215 0.000000
0.526859 0.438952 0.000000
0.564096 0.438690 0.000000
0.601682 0.438428 0.000000
0.639572 0.438166 0.000000
0.677721 0.437904 0.000000
0.716084 0.437642 0.000000
0.754616 0.437379 0.000000
0.794301 0.438270 0.000000
0.834327 0.439449 0.000000
0.874386 0.440629 0.000000
0.914428 0.441809 0.000000
0.954403 0.442988 0.000000
0.994262 0.444168 0.000000
1.000000 0.445348 0.000000
1.000000 0.446528 0.000000
0.000000 0.479664 0.000000
0.000000 0.479402 0.000000
0.000000 0.479140 0.000000
0.007682 0.478878 0.000000
0.041573 0.478616 0.000000
0.075390 0.478354 0.000000
0.109176 0.478091 0.000000
0.142978 0.477829 0.000000
0.176840 0.477567 0.000000
0.210808 0.477305 0.000000
0.244926 0.477043 0.000000
0.279239 0.476781 0.000000
0.313793 0.476518 0.000000
0.348633 0.476256 0.000000
0.383804 0.475994 0.000000
0.419351 0.475732 0.000000
0.455319 0.475470 0.000000
0.491744 0.475208 0.000000
0.528607 0.474945 0.000000
0.565861 0.474683 0.000000
0.603463 0.474421 0.000000
0.641573 0.474394 0.000000
0.681009 0.475574 0.000000
0.720669 0.476754 0.000000
0.760504 0.477933 0.000000
0.800463 0.479113 0.000000
0.840497 0.480293 0.000000
0.880556 0.481473 0.000000
0.920591 0.482652 0.000000
0.960421 0.483895 0.000000
0.999719 0.485337 0.000000
1.000000 0.486779 0.000000
1.000000 0.488221 0.000000
0.000000 0.515657 0.000000
0.000000 0.515395 0.000000
0.000000 0.515133 0.000000
0.009283 0.514871 0.000000
0.043169 0.514609 0.000000
0.076983 0.514347 0.000000
0.110770 0.514084 0.000000
0.144573 0.513822 0.000000
0.178439 0.513560 0.000000
0.212413 0.513298 0.000000
0.246539 0.513036 0.000000
0.280863 0.512774 0.000000
0.315430 0.512512 0.000000
0.350284 0.512249 0.000000
0.385472 0.511987 0.000000
0.421037 0.511725 0.000000
0.457026 0.511463 0.000000
0.493473 0.511201 0.000000
0.531006 0.511699 0.000000
0.569532 0.512879 0.000000
0.608424 0.514058 0.000000
0.647631 0.515238 0.000000
0.687105 0.516418 0.000000
0.726795 0.517597 0.000000
0.766652 0.518777 0.000000
0.806626 0.519957 0.000000
0.846338 0.521295 0.000000
0.885854 0.522737 0.000000
0.925339 0.524179 0.000000
0.964747 0.525621 0.000000
1.000000 0.527063 0.000000
1.000000 0.528505 0.000000
1.000000 0.529946 0.000000
0.000000 0.551651 0.000000
0.000000 0.551388 0.000000
0.000000 0.551126 0.000000
0.010883 0.550864 0.000000
0.044766 0.550602 0.000000
0.078577 0.550340 0.000000
0.112363 0.550078 0.000000
0.146169 0.549815 0.000000
0.180039 0.549553 0.000000
0.214019 0.549291 0.000000
0.248153 0.549029 0.000000
0.282488 0.548767 0.000000
0.317067 0.548505 0.000000
0.351936 0.548242 0.000000
0.387140 0.547980 0.000000
0.423787 0.549003 0.000000
0.461018 0.550183 0.000000
0.498738 0.551363 0.000000
0.536915 0.552542 0.000000
0.575500 0.553722 0.000000
0.614444 0.554902 0.000000
0.653696 0.556082 0.000000
0.693206 0.557261 0.000000
0.732401 0.558695 0.000000
0.771736 0.560137 0.000000
0.811179 0.561579 0.000000
0.850681 0.563021 0.000000
0.890195 0.564463 0.000000
0.929675 0.565904 0.000000
0.969070 0.567346 0.000000
1.000000 0.568788 0.000000
1.000000 0.570230 0.000000
1.000000 0.571672 0.000000
0.000000 0.587644 0.000000
0.000000 0.587381 0.000000
0.000000 0.587119 0.000000
0.012483 0.586857 0.000000
0.046361 0.586595 0.000000
0.080171 0.586333 0.000000
0.113957 0.586071 0.000000
0.147764 0.585808 0.000000
0.181639 0.585546 0.000000
0.215625 0.585284 0.000000
0.249768 0.585022 0.000000
0.284406 0.585128 0.000000
0.320156 0.586308 0.000000
0.356221 0.587488 0.000000
0.392650 0.588667 0.000000
0.429491 0.589847 0.000000
0.466796 0.591027 0.000000
0.504590 0.592206 0.000000
0.542834 0.593386 0.000000
0.581302 0.594653 0.000000
0.619763 0.596095 0.000000
0.658518 0.597537 0.000000
0.697519 0.598979 0.000000
0.736717 0.600421 0.000000
0.776066 0.601863 0.000000
0.815518 0.603304 0.000000
0.855023 0.604746 0.000000
0.894536 0.606188 0.000000
0.934009 0.607630 0.000000
0.973392 0.609072 0.000000
1.000000 0.610514 0.000000
1.000000 0.611956 0.000000
1.000000 0.613397 0.000000
0.000000 0.623637 0.000000
0.000000 0.623374 0.000000
0.000000 0.623112 0.000000
0.014083 0.622850 0.000000
0.047957 0.622588 0.000000
0.081764 0.622326 0.000000
0.115550 0.622064 0.000000
0.149360 0.621802 0.000000
0.183938 0.622433 0.000000
0.219068 0.623612 0.000000
0.254370 0.624792 0.000000
0.289894 0.625972 0.000000
0.325690 0.627151 0.000000
0.361808 0.628331 0.000000
0.398297 0.629511 0.000000
0.435207 0.630691 0.000000
0.472231 0.632053 0.000000
0.509576 0.633495 0.000000
0.547352 0.634937 0.000000
0.585512 0.636379 0.000000
0.624008 0.637821 0.000000
0.662793 0.639262 0.000000
0.701818 0.640704 0.000000
0.741035 0.642146 0.000000
0.780397 0.643588 0.000000
0.819857 0.645030 0.000000
0.859366 0.646472 0.000000
0.898877 0.647914 0.000000
0.938342 0.649356 0.000000
0.977713 0.650797 0.000000
1.000000 0.652239 0.000000
1.000000 0.653681 0.000000
1.000000 0.655123 0.000000
0.000000 0.659630 0.000000
0.000000 0.659368 0.000000
0.000000 0.659105 0.000000
0.015683 0.658843 0.000000
0.049553 0.658581 0.000000
0.084464 0.659737 0.000000
0.119376 0.660917 0.000000
0.154318 0.662097 0.000000
0.189341 0.663276 0.000000
0.224494 0.664456 0.000000
0.259827 0.665636 0.000000
0.295389 0.666815 0.000000
0.331202 0.668011 0.000000
0.366880 0.669453 0.000000
0.402926 0.670895 0.000000
0.439388 0.672337 0.000000
0.476312 0.673779 0.000000
0.513707 0.675220 0.000000
0.551528 0.676662 0.000000
0.589727 0.678104 0.000000
0.628257 0.679546 0.000000
0.667070 0.680988 0.000000
0.706119 0.682430 0.000000
0.745354 0.683872 0.000000
0.784730 0.685314 0.000000
0.824197 0.686755 0.000000
0.863709 0.688197 0.000000
0.903217 0.689639 0.000000
0.942674 0.691081 0.000000
0.982032 0.692523 0.000000
1.000000 0.693965 0.000000
1.000000 0.695407 0.000000
1.000000 0.696849 0.000000
0.000000 0.695623 0.000000
0.000000 0.695862 0.000000
0.000000 0.697042 0.000000
0.019933 0.698221 0.000000
0.054918 0.699401 0.000000
0.089842 0.700581 0.000000
0.124755 0.701760 0.000000
0.159706 0.702940 0.000000
0.194746 0.704120 0.000000
0.229720 0.705411 0.000000
0.264602 0.706853 0.000000
0.299715 0.708295 0.000000
0.335106 0.709737 0.000000
0.370822 0.711179 0.000000
0.406911 0.712620 0.000000
0.443422 0.714062 0.000000
0.480399 0.715504 0.000000
0.517843 0.716946 0.000000
0.555708 0.718388 0.000000
0.593946 0.719830 0.000000
0.632510 0.721272 0.000000
0.671351 0.722713 0.000000
0.710422 0.724155 0.000000
0.749675 0.725597 0.000000
0.789063 0.727039 0.000000
0.828538 0.728481 0.000000
0.868051 0.729923 0.000000
0.907556 0.731365 0.000000
0.947005 0.732807 0.000000
0.986349 0.734248 0.000000
1.000000 0.735690 0.000000
1.000000 0.737132 0.000000
1.000000 0.738574 0.000000
0.000000 0.735526 0.000000
0.000000 0.736705 0.000000
0.000000 0.737885 0.000000
0.025328 0.739065 0.000000
0.060301 0.740245 0.000000
0.095220 0.741424 0.000000
0.129761 0.742811 0.000000
0.164247 0.744253 0.000000
0.198825 0.745695 0.000000
0.233543 0.747137 0.000000
0.268449 0.748579 0.000000
0.303590 0.750020 0.000000
0.339014 0.751462 0.000000
0.374769 0.752904 0.000000
0.410902 0.754346 0.000000
0.447462 0.755788 0.000000
0.484492 0.757230 0.000000
0.521984 0.758672 0.000000
0.559893 0.760113 0.000000
0.598169 0.761555 0.000000
0.636765 0.762997 0.000000
0.675634 0.764439 0.000000
0.714728 0.765881 0.000000
0.753998 0.767323 0.000000
0.793398 0.768765 0.000000
0.832879 0.770206 0.000000
0.872394 0.771648 0.000000
0.911895 0.773090 0.000000
0.951334 0.774532 0.000000
0.990664 0.775974 0.000000
1.000000 0.777416 0.000000
1.000000 0.778858 0.000000
1.000000 0.780300 0.000000
0.000000 0.776369 0.000000
0.000000 0.777549 0.000000
0.000000 0.778769 0.000000
0.030173 0.780211 0.000000
0.064661 0.781653 0.000000
0.099104 0.783095 0.000000
0.133548 0.784537 0.000000
0.168042 0.785978 0.000000
0.202633 0.787420 0.000000
0.237369 0.788862 0.000000
0.272298 0.790304 0.000000
0.307468 0.791746 0.000000
0.342926 0.793188 0.000000
0.378720 0.794630 0.000000
0.414898 0.796072 0.000000
0.451507 0.797513 0.000000
0.488590 0.798955 0.000000
0.526131 0.800397 0.000000
0.564082 0.801839 0.000000
0.602395 0.803281 0.000000
0.641024 0.804723 0.000000
0.679920 0.806165 0.000000
0.719035 0.807606 0.000000
0.758322 0.809048 0.000000
0.797733 0.810490 0.000000
0.837220 0.811932 0.000000
0.876736 0.813374 0.000000
0.916233 0.814816 0.000000
0.955662 0.816258 0.000000
0.994977 0.817699 0.000000
1.000000 0.819141 0.000000
1.000000 0.820583 0.000000
1.000000 0.822025 0.000000
0.000000 0.817611 0.000000
0.000000 0.819053 0.000000
0.000000 0.820495 0.000000
0.033967 0.821936 0.000000
0.068447 0.823378 0.000000
0.102888 0.824820 0.000000
0.137335 0.826262 0.000000
0.171837 0.827704 0.000000
0.206442 0.829146 0.000000
0.241197 0.830588 0.000000
0.276150 0.832030 0.000000
0.311350 0.833471 0.000000
0.346842 0.834913 0.000000
0.382676 0.836355 0.000000
0.418899 0.837797 0.000000
0.455559 0.839239 0.000000
0.492694 0.840681 0.000000
0.530282 0.842123 0.000000
0.568275 0.843565 0.000000
0.606626 0.845006 0.000000
0.645286 0.846448 0.000000
0.684209 0.847890 0.000000
0.723345 0.849332 0.000000
0.762648 0.850774 0.000000
0.802070 0.852216 0.000000
0.841563 0.853658 0.000000
0.881078 0.855099 0.000000
0.920570 0.856541 0.000000
0.959989 0.857983 0.000000
0.999288 0.859425 0.000000
1.000000 0.860867 0.000000
1.000000 0.862309 0.000000
1.000000 0.863751 0.000000
0.000000 0.859336 0.000000
0.000000 0.860778 0.000000
0.003202 0.862220 0.000000
0.037759 0.863662 0.000000
0.072233 0.865104 0.000000
0.106672 0.866546 0.000000
0.141123 0.867988 0.000000
0.175634 0.869429 0.000000
0.210253 0.870871 0.000000
0.245028 0.872313 0.000000
0.280006 0.873755 0.000000
0.315235 0.875197 0.000000
0.350762 0.876639 0.000000
0.386637 0.878081 0.000000
0.422906 0.879523 0.000000
0.459616 0.880964 0.000000
0.496803 0.882406 0.000000
0.534438 0.883848 0.000000
0.572473 0.885290 0.000000
0.610860 0.886732 0.000000
0.649551 0.888174 0.000000
0.688500 0.889616 0.000000
0.727657 0.891057 0.000000
0.766975 0.892499 0.000000
0.806407 0.893941 0.000000
0.845905 0.895383 0.000000
0.885420 0.896825 0.000000
0.924906 0.898267 0.000000
0.964315 0.899709 0.000000
1.000000 0.901150 0.000000
1.000000 0.902592 0.000000
1.000000 0.904034 0.000000
1.000000 0.905476 0.000000
0.000000 0.901062 0.000000
0.000000 0.902504 0.000000
0.007005 0.903946 0.000000
0.041551 0.905388 0.000000
0.076019 0.906829 0.000000
0.110456 0.908271 0.000000
0.144912 0.909713 0.000000
0.179432 0.911155 0.000000
0.214066 0.912597 0.000000
0.248861 0.914039 0.000000
0.283864 0.915481 0.000000
0.319123 0.916923 0.000000
0.354687 0.918364 0.000000
0.390602 0.919806 0.000000
0.426917 0.921248 0.000000
0.463679 0.922690 0.000000
0.500918 0.924132 0.000000
0.538599 0.925574 0.000000
0.576675 0.927015 0.000000
0.615098 0.928457 0.000000
0.653820 0.929899 0.000000
0.692793 0.931341 0.000000
0.731970 0.932783 0.000000
0.771304 0.934225 0.000000
0.810745 0.935667 0.000000
0.850247 0.937109 0.000000
