resources/luts/faded_print.cube
TITLE "Faded Print"
LUT_3D_SIZE 5
DOMAIN_MIN 0.000000 0.000000 0.000000
DOMAIN_MAX 1.000000 1.000000 1.000000
0.084550 0.082046 0.075371
0.268611 0.090064 0.084072
0.452673 0.098082 0.092774
0.636735 0.106100 0.101476
0.820796 0.114118 0.110178
0.110660 0.285320 0.104644
0.294722 0.293338 0.113346
0.478784 0.301356 0.122047
0.662845 0.309374 0.130749
0.846907 0.317392 0.139451
0.136771 0.488593 0.133917
0.320833 0.496611 0.142619
0.505463 0.505158 0.151771
0.694457 0.517767 0.164380
0.883901 0.530577 0.176531
0.170332 0.698726 0.168815
0.359792 0.711544 0.180949
0.549252 0.724362 0.193084
0.738712 0.737181 0.205218
0.928172 0.749999 0.217353
0.214603 0.918147 0.209636
0.404063 0.930966 0.221771
0.593523 0.943784 0.233905
0.782983 0.956602 0.246040
0.972443 0.969420 0.258175
0.087185 0.084769 0.254626
0.271247 0.092787 0.263328
0.455309 0.100805 0.272029
0.639370 0.108823 0.280731
0.823432 0.116841 0.289433
0.113296 0.288042 0.283899
0.297358 0.296061 0.292601
0.481420 0.304079 0.301302
0.665481 0.312097 0.310004
0.849543 0.320115 0.318706
0.139407 0.491316 0.313172
0.323469 0.499334 0.321874
0.509774 0.509440 0.332353
0.698910 0.522112 0.344818
0.888370 0.534931 0.356952
0.174801 0.703079 0.349236
0.364261 0.715897 0.361370
0.553721 0.728716 0.373505
0.743181 0.741534 0.385639
0.932641 0.754352 0.397774
0.219072 0.922500 0.390057
0.408532 0.935319 0.402192
0.597992 0.948137 0.414326
0.787452 0.960955 0.426461
0.976913 0.973774 0.438596
0.089821 0.087492 0.433881
0.273883 0.095510 0.442583
0.457945 0.103528 0.451284
0.642006 0.111546 0.459986
0.826068 0.119564 0.468688
0.115932 0.290765 0.463154
0.299994 0.298784 0.471856
0.484055 0.306802 0.480558
0.668117 0.314820 0.489259
0.852179 0.322838 0.497961
0.142043 0.494039 0.492427
0.326105 0.502057 0.501129
0.514085 0.513722 0.512935
0.703379 0.526466 0.525239
0.892839 0.539284 0.537373
0.179270 0.707432 0.529656
0.368730 0.720250 0.541791
0.558190 0.733069 0.553926
0.747650 0.745887 0.566060
0.937110 0.758705 0.578195
0.223541 0.926854 0.570478
0.413002 0.939672 0.582613
0.602462 0.952490 0.594747
0.791922 0.965308 0.606882
0.981382 0.978127 0.619016
0.092457 0.090215 0.613136
0.276519 0.098233 0.621838
0.460581 0.106251 0.630540
0.644642 0.114269 0.639241
0.828704 0.122287 0.647943
0.118568 0.293488 0.642409
0.302630 0.301506 0.651111
0.486691 0.309525 0.659813
0.670753 0.317543 0.668514
0.854815 0.325561 0.677216
0.144679 0.496762 0.671682
0.329402 0.505395 0.680908
0.518396 0.518004 0.693517
0.707848 0.530819 0.705660
0.897308 0.543637 0.717794
0.183739 0.711785 0.710077
0.373199 0.724604 0.722212
0.562659 0.737422 0.734347
0.752120 0.750240 0.746481
0.941580 0.763058 0.758616
0.228011 0.931207 0.750899
0.417471 0.944025 0.763034
0.606931 0.956843 0.775168
0.796391 0.969662 0.787303
0.985851 0.982480 0.799437
0.095093 0.092938 0.792391
0.279155 0.100956 0.801093
0.463216 0.108974 0.809795
0.647278 0.116992 0.818496
0.831340 0.125010 0.827198
0.121204 0.296211 0.821665
0.305266 0.304229 0.830366
0.489327 0.312248 0.839068
0.673389 0.320266 0.847770
0.857992 0.328787 0.856900
0.147315 0.499485 0.850938
0.333713 0.509677 0.861490
0.522857 0.522354 0.873946
0.712317 0.535172 0.886081
0.901778 0.547990 0.898215
0.188209 0.716138 0.890498
0.377669 0.728957 0.902633
0.567129 0.741775 0.914768
0.756589 0.754593 0.926902
0.946049 0.767411 0.939037
0.232480 0.935560 0.931320
0.421940 0.948378 0.943455
0.611400 0.961196 0.955589
0.800860 0.974015 0.967724
0.990320 0.986833 0.979858
