resources/luts/faded_print.cube
TITLE "Faded Print"
LUT_3D_SIZE 33
DOMAIN_MIN 0.000000 0.000000 0.000000
DOMAIN_MAX 1.000000 1.000000 1.000000
0.084550 0.082046 0.075371
0.107557 0.083048 0.076458
0.130565 0.084051 0.077546
0.153573 0.085053 0.078634
0.176580 0.086055 0.079722
0.199588 0.087058 0.080809
0.222596 0.088060 0.081897
0.245604 0.089062 0.082985
0.268611 0.090064 0.084072
0.291619 0.091067 0.085160
0.314627 0.092069 0.086248
0.337634 0.093071 0.087336
0.360642 0.094073 0.088423
0.383650 0.095076 0.089511
0.406657 0.096078 0.090599
0.429665 0.097080 0.091686
0.452673 0.098082 0.092774
0.475681 0.099085 0.093862
0.498688 0.100087 0.094950
0.521696 0.101089 0.096037
0.544704 0.102091 0.097125
0.567711 0.103094 0.098213
0.590719 0.104096 0.099300
0.613727 0.105098 0.100388
0.636735 0.106100 0.101476
0.659742 0.107103 0.102564
0.682750 0.108105 0.103651
0.705758 0.109107 0.104739
0.728765 0.110109 0.105827
0.751773 0.111112 0.106914
0.774781 0.112114 0.108002
0.797789 0.113116 0.109090
0.820796 0.114118 0.110178
0.087813 0.107455 0.079030
0.110821 0.108458 0.080118
0.133829 0.109460 0.081205
0.156837 0.110462 0.082293
0.179844 0.111464 0.083381
0.202852 0.112467 0.084468
0.225860 0.113469 0.085556
0.248867 0.114471 0.086644
0.271875 0.115473 0.087732
0.294883 0.116476 0.088819
0.317890 0.117478 0.089907
0.340898 0.118480 0.090995
0.363906 0.119482 0.092082
0.386914 0.120485 0.093170
0.409921 0.121487 0.094258
0.432929 0.122489 0.095346
0.455937 0.123492 0.096433
0.478944 0.124494 0.097521
0.501952 0.125496 0.098609
0.524960 0.126498 0.099697
0.547968 0.127501 0.100784
0.570975 0.128503 0.101872
0.593983 0.129505 0.102960
0.616991 0.130507 0.104047
0.639998 0.131510 0.105135
0.663006 0.132512 0.106223
0.686014 0.133514 0.107310
0.709022 0.134516 0.108398
0.732029 0.135519 0.109486
0.755037 0.136521 0.110574
0.778045 0.137523 0.111661
0.801052 0.138525 0.112749
0.824060 0.139528 0.113837
0.091077 0.132865 0.082689
0.114085 0.133867 0.083777
0.137093 0.134869 0.084864
0.160100 0.135871 0.085952
0.183108 0.136874 0.087040
0.206116 0.137876 0.088128
0.229123 0.138878 0.089215
0.252131 0.139880 0.090303
0.275139 0.140883 0.091391
0.298147 0.141885 0.092478
0.321154 0.142887 0.093566
0.344162 0.143889 0.094654
0.367170 0.144892 0.095742
0.390177 0.145894 0.096829
0.413185 0.146896 0.097917
0.436193 0.147898 0.099005
0.459201 0.148901 0.100092
0.482208 0.149903 0.101180
0.505216 0.150905 0.102268
0.528224 0.151907 0.103356
0.551231 0.152910 0.104443
0.574239 0.153912 0.105531
0.597247 0.154914 0.106619
0.620255 0.155916 0.107707
0.643262 0.156919 0.108794
0.666270 0.157921 0.109882
0.689278 0.158923 0.110970
0.712285 0.159925 0.112057
0.735293 0.160928 0.113145
0.758301 0.161930 0.114233
0.781309 0.162932 0.115320
0.804316 0.163935 0.116408
0.827324 0.164937 0.117496
0.094341 0.158274 0.086348
0.117349 0.159276 0.087436
0.140356 0.160278 0.088524
0.163364 0.161280 0.089611
0.186372 0.162283 0.090699
0.209380 0.163285 0.091787
0.232387 0.164287 0.092874
0.255395 0.165290 0.093962
0.278403 0.166292 0.095050
0.301410 0.167294 0.096138
0.324418 0.168296 0.097225
0.347426 0.169299 0.098313
0.370434 0.170301 0.099401
0.393441 0.171303 0.100488
0.416449 0.172305 0.101576
0.439457 0.173308 0.102664
0.462464 0.174310 0.103752
0.485472 0.175312 0.104839
0.508480 0.176314 0.105927
0.531488 0.177317 0.107015
0.554495 0.178319 0.108102
0.577503 0.179321 0.109190
0.600511 0.180323 0.110278
0.623518 0.181326 0.111366
0.646526 0.182328 0.112453
0.669534 0.183330 0.113541
0.692542 0.184332 0.114629
0.715549 0.185335 0.115717
0.738557 0.186337 0.116804
0.761565 0.187339 0.117892
0.784572 0.188341 0.118980
0.807580 0.189344 0.120067
0.830588 0.190346 0.121155
0.097605 0.183683 0.090007
0.120613 0.184685 0.091095
0.143620 0.185687 0.092183
0.166628 0.186690 0.093270
0.189636 0.187692 0.094358
0.212643 0.188694 0.095446
0.235651 0.189696 0.096534
0.258659 0.190699 0.097621
0.281667 0.191701 0.098709
0.304674 0.192703 0.099797
0.327682 0.193705 0.100884
0.350690 0.194708 0.101972
0.373697 0.195710 0.103060
0.396705 0.196712 0.104148
0.419713 0.197714 0.105235
0.442721 0.198717 0.106323
0.465728 0.199719 0.107411
0.488736 0.200721 0.108498
0.511744 0.201723 0.109586
0.534751 0.202726 0.110674
0.557759 0.203728 0.111762
0.580767 0.204730 0.112849
0.603775 0.205733 0.113937
0.626782 0.206735 0.115025
0.649790 0.207737 0.116113
0.672798 0.208739 0.117200
0.695805 0.209742 0.118288
0.718813 0.210744 0.119376
0.741821 0.211746 0.120463
0.764829 0.212748 0.121551
0.787836 0.213751 0.122639
0.810844 0.214753 0.123727
0.833852 0.215755 0.124814
0.100869 0.209092 0.093666
0.123876 0.210094 0.094754
0.146884 0.211097 0.095842
0.169892 0.212099 0.096930
0.192900 0.213101 0.098017
0.215907 0.214103 0.099105
0.238915 0.215106 0.100193
0.261923 0.216108 0.101280
0.284930 0.217110 0.102368
0.307938 0.218112 0.103456
0.330946 0.219115 0.104544
0.353954 0.220117 0.105631
0.376961 0.221119 0.106719
0.399969 0.222121 0.107807
0.422977 0.223124 0.108894
0.445984 0.224126 0.109982
0.468992 0.225128 0.111070
0.492000 0.226130 0.112158
0.515008 0.227133 0.113245
0.538015 0.228135 0.114333
0.561023 0.229137 0.115421
0.584031 0.230139 0.116508
0.607038 0.231142 0.117596
0.630046 0.232144 0.118684
0.653054 0.233146 0.119772
0.676062 0.234148 0.120859
0.699069 0.235151 0.121947
0.722077 0.236153 0.123035
0.745085 0.237155 0.124122
0.768092 0.238157 0.125210
0.791100 0.239160 0.126298
0.814108 0.240162 0.127386
0.837115 0.241164 0.128473
0.104133 0.234501 0.097326
0.127140 0.235503 0.098413
0.150148 0.236506 0.099501
0.173156 0.237508 0.100589
0.196163 0.238510 0.101676
0.219171 0.239512 0.102764
0.242179 0.240515 0.103852
0.265187 0.241517 0.104940
0.288194 0.242519 0.106027
0.311202 0.243521 0.107115
0.334210 0.244524 0.108203
0.357217 0.245526 0.109290
0.380225 0.246528 0.110378
0.403233 0.247531 0.111466
0.426241 0.248533 0.112554
0.449248 0.249535 0.113641
0.472256 0.250537 0.114729
0.495264 0.251540 0.115817
0.518271 0.252542 0.116904
0.541279 0.253544 0.117992
0.564287 0.254546 0.119080
0.587295 0.255549 0.120168
0.610302 0.256551 0.121255
0.633310 0.257553 0.122343
0.656318 0.258555 0.123431
0.679325 0.259558 0.124518
0.702333 0.260560 0.125606
0.725341 0.261562 0.126694
0.748348 0.262564 0.127782
0.771356 0.263567 0.128869
0.794364 0.264569 0.129957
0.817372 0.265571 0.131045
0.840379 0.266573 0.132132
0.107396 0.259910 0.100985
0.130404 0.260913 0.102072
0.153412 0.261915 0.103160
0.176420 0.262917 0.104248
0.199427 0.263919 0.105336
0.222435 0.264922 0.106423
0.245443 0.265924 0.107511
0.268450 0.266926 0.108599
0.291458 0.267928 0.109686
0.314466 0.268931 0.110774
0.337474 0.269933 0.111862
0.360481 0.270935 0.112950
0.383489 0.271937 0.114037
0.406497 0.272940 0.115125
0.429504 0.273942 0.116213
0.452512 0.274944 0.117300
0.475520 0.275946 0.118388
0.498528 0.276949 0.119476
0.521535 0.277951 0.120564
0.544543 0.278953 0.121651
0.567551 0.279955 0.122739
0.590558 0.280958 0.123827
0.613566 0.281960 0.124914
0.636574 0.282962 0.126002
0.659581 0.283965 0.127090
0.682589 0.284967 0.128178
0.705597 0.285969 0.129265
0.728605 0.286971 0.130353
0.751612 0.287974 0.131441
0.774620 0.288976 0.132528
0.797628 0.289978 0.133616
0.820635 0.290980 0.134704
0.843643 0.291983 0.135792
0.110660 0.285320 0.104644
0.133668 0.286322 0.105732
0.156676 0.287324 0.106819
0.179683 0.288326 0.107907
0.202691 0.289329 0.108995
0.225699 0.290331 0.110082
0.248707 0.291333 0.111170
0.271714 0.292335 0.112258
0.294722 0.293338 0.113346
0.317730 0.294340 0.114433
0.340737 0.295342 0.115521
0.363745 0.296344 0.116609
0.386753 0.297347 0.117696
0.409761 0.298349 0.118784
0.432768 0.299351 0.119872
0.455776 0.300353 0.120960
0.478784 0.301356 0.122047
0.501791 0.302358 0.123135
0.524799 0.303360 0.124223
0.547807 0.304362 0.125310
0.570815 0.305365 0.126398
0.593822 0.306367 0.127486
0.616830 0.307369 0.128574
0.639838 0.308371 0.129661
0.662845 0.309374 0.130749
0.685853 0.310376 0.131837
0.708861 0.311378 0.132924
0.731869 0.312380 0.134012
0.754876 0.313383 0.135100
0.777884 0.314385 0.136188
0.800892 0.315387 0.137275
0.823899 0.316389 0.138363
0.846907 0.317392 0.139451
0.113924 0.310729 0.108303
0.136932 0.311731 0.109391
0.159940 0.312733 0.110478
0.182947 0.313735 0.111566
0.205955 0.314738 0.112654
0.228963 0.315740 0.113742
0.251970 0.316742 0.114829
0.274978 0.317744 0.115917
0.297986 0.318747 0.117005
0.320994 0.319749 0.118092
0.344001 0.320751 0.119180
0.367009 0.321754 0.120268
0.390017 0.322756 0.121356
0.413024 0.323758 0.122443
0.436032 0.324760 0.123531
0.459040 0.325763 0.124619
0.482048 0.326765 0.125706
0.505055 0.327767 0.126794
0.528063 0.328769 0.127882
0.551071 0.329772 0.128970
0.574078 0.330774 0.130057
0.597086 0.331776 0.131145
0.620094 0.332778 0.132233
0.643102 0.333781 0.133321
0.666109 0.334783 0.134408
0.689117 0.335785 0.135496
0.712125 0.336787 0.136584
0.735132 0.337790 0.137671
0.758140 0.338792 0.138759
0.781148 0.339794 0.139847
0.804156 0.340796 0.140934
0.827163 0.341799 0.142022
0.850171 0.342801 0.143110
0.117188 0.336138 0.111962
0.140196 0.337140 0.113050
0.163203 0.338142 0.114138
0.186211 0.339145 0.115225
0.209219 0.340147 0.116313
0.232227 0.341149 0.117401
0.255234 0.342151 0.118488
0.278242 0.343154 0.119576
0.301250 0.344156 0.120664
0.324257 0.345158 0.121752
0.347265 0.346160 0.122839
0.370273 0.347163 0.123927
0.393281 0.348165 0.125015
0.416288 0.349167 0.126102
0.439296 0.350169 0.127190
0.462304 0.351172 0.128278
0.485311 0.352174 0.129366
0.508319 0.353176 0.130453
0.531327 0.354178 0.131541
0.554335 0.355181 0.132629
0.577342 0.356183 0.133716
0.600350 0.357185 0.134804
0.623358 0.358187 0.135892
0.646365 0.359190 0.136980
0.669373 0.360192 0.138067
0.692381 0.361194 0.139155
0.715389 0.362196 0.140243
0.738396 0.363199 0.141331
0.761404 0.364201 0.142418
0.784412 0.365203 0.143506
0.807419 0.366206 0.144594
0.830427 0.367208 0.145681
0.853435 0.368210 0.146769
0.120452 0.361547 0.115621
0.143460 0.362549 0.116709
0.166467 0.363551 0.117797
0.189475 0.364554 0.118884
0.212483 0.365556 0.119972
0.235490 0.366558 0.121060
0.258498 0.367561 0.122148
0.281506 0.368563 0.123235
0.304514 0.369565 0.124323
0.327521 0.370567 0.125411
0.350529 0.371570 0.126498
0.373537 0.372572 0.127586
0.396544 0.373574 0.128674
0.419552 0.374576 0.129762
0.442560 0.375579 0.130849
0.465568 0.376581 0.131937
0.488575 0.377583 0.133025
0.511583 0.378585 0.134112
0.534591 0.379588 0.135200
0.557598 0.380590 0.136288
0.580606 0.381592 0.137376
0.603614 0.382594 0.138463
0.626621 0.383597 0.139551
0.649629 0.384599 0.140639
0.672637 0.385601 0.141726
0.695645 0.386603 0.142814
0.718652 0.387606 0.143902
0.741660 0.388608 0.144990
0.764668 0.389610 0.146077
0.787675 0.390612 0.147165
0.810683 0.391615 0.148253
0.833691 0.392617 0.149340
0.856762 0.393678 0.150478
0.123716 0.386956 0.119280
0.146723 0.387958 0.120368
0.169731 0.388961 0.121456
0.192739 0.389963 0.122544
0.215747 0.390965 0.123631
0.238754 0.391967 0.124719
0.261762 0.392970 0.125807
0.284770 0.393972 0.126894
0.307777 0.394974 0.127982
0.330785 0.395976 0.129070
0.353793 0.396979 0.130158
0.376801 0.397981 0.131245
0.399808 0.398983 0.132333
0.422816 0.399985 0.133421
0.445824 0.400988 0.134508
0.468831 0.401990 0.135596
0.491839 0.402992 0.136684
0.514847 0.403994 0.137772
0.537855 0.404997 0.138859
0.560862 0.405999 0.139947
0.583870 0.407001 0.141035
0.606878 0.408003 0.142122
0.629885 0.409006 0.143210
0.652893 0.410008 0.144298
0.675901 0.411010 0.145386
0.698908 0.412013 0.146473
0.721916 0.413015 0.147561
0.744924 0.414017 0.148649
0.767932 0.415019 0.149736
0.791227 0.416289 0.151052
0.814851 0.417865 0.152628
0.838475 0.419441 0.154204
0.862100 0.421017 0.155780
0.126980 0.412365 0.122940
0.149987 0.413368 0.124027
0.172995 0.414370 0.125115
0.196003 0.415372 0.126203
0.219010 0.416374 0.127290
0.242018 0.417377 0.128378
0.265026 0.418379 0.129466
0.288034 0.419381 0.130554
0.311041 0.420383 0.131641
0.334049 0.421386 0.132729
0.357057 0.422388 0.133817
0.380064 0.423390 0.134904
0.403072 0.424392 0.135992
0.426080 0.425395 0.137080
0.449088 0.426397 0.138168
0.472095 0.427399 0.139255
0.495103 0.428401 0.140343
0.518111 0.429404 0.141431
0.541118 0.430406 0.142518
0.564126 0.431408 0.143606
0.587134 0.432410 0.144694
0.610141 0.433413 0.145782
0.633149 0.434415 0.146869
0.656157 0.435417 0.147957
0.679165 0.436419 0.149045
0.702172 0.437422 0.150133
0.725692 0.438900 0.151626
0.749316 0.440476 0.153202
0.772940 0.442052 0.154778
0.796565 0.443629 0.156354
0.820189 0.445205 0.157930
0.843813 0.446781 0.159506
0.867437 0.448357 0.161082
0.130243 0.437774 0.126599
0.153251 0.438777 0.127686
0.176259 0.439779 0.128774
0.199267 0.440781 0.129862
0.222274 0.441783 0.130950
0.245282 0.442786 0.132037
0.268290 0.443788 0.133125
0.291297 0.444790 0.134213
0.314305 0.445793 0.135300
0.337313 0.446795 0.136388
0.360321 0.447797 0.137476
0.383328 0.448799 0.138564
0.406336 0.449802 0.139651
0.429344 0.450804 0.140739
0.452351 0.451806 0.141827
0.475359 0.452808 0.142914
0.498367 0.453811 0.144002
0.521375 0.454813 0.145090
0.544382 0.455815 0.146178
0.567390 0.456817 0.147265
0.590398 0.457820 0.148353
0.613405 0.458822 0.149441
0.636533 0.459936 0.150623
0.660157 0.461512 0.152199
0.683781 0.463088 0.153776
0.707406 0.464664 0.155352
0.731030 0.466240 0.156928
0.754654 0.467816 0.158504
0.778278 0.469392 0.160080
0.801903 0.470968 0.161656
0.825527 0.472544 0.163232
0.849151 0.474120 0.164808
0.872833 0.475722 0.166326
0.133507 0.463184 0.130258
0.156515 0.464186 0.131346
0.179523 0.465188 0.132433
0.202530 0.466190 0.133521
0.225538 0.467193 0.134609
0.248546 0.468195 0.135697
0.271554 0.469197 0.136784
0.294561 0.470199 0.137872
0.317569 0.471202 0.138960
0.340577 0.472204 0.140047
0.363584 0.473206 0.141135
0.386592 0.474208 0.142223
0.409600 0.475211 0.143310
0.432608 0.476213 0.144398
0.455615 0.477215 0.145486
0.478623 0.478217 0.146574
0.501631 0.479220 0.147661
0.524638 0.480222 0.148749
0.547646 0.481224 0.149837
0.570998 0.482547 0.151197
0.594622 0.484123 0.152773
0.618246 0.485699 0.154349
0.641871 0.487275 0.155925
0.665495 0.488851 0.157501
0.689119 0.490427 0.159078
0.712744 0.492003 0.160654
0.736368 0.493579 0.162230
0.759992 0.495156 0.163806
0.783637 0.496741 0.165361
0.807319 0.498343 0.166878
0.831002 0.499945 0.168395
0.854684 0.501548 0.169912
0.878367 0.503150 0.171429
0.136771 0.488593 0.133917
0.159779 0.489595 0.135005
0.182787 0.490597 0.136092
0.205794 0.491600 0.137180
0.228802 0.492602 0.138268
0.251810 0.493604 0.139356
0.274817 0.494606 0.140443
0.297825 0.495609 0.141531
0.320833 0.496611 0.142619
0.343841 0.497613 0.143706
0.366848 0.498615 0.144794
0.389856 0.499618 0.145882
0.412864 0.500620 0.146970
0.435871 0.501622 0.148057
0.458879 0.502624 0.149145
0.481887 0.503627 0.150233
0.505463 0.505158 0.151771
0.529087 0.506734 0.153347
0.552712 0.508310 0.154923
0.576336 0.509886 0.156499
0.599960 0.511462 0.158075
0.623584 0.513039 0.159651
0.647209 0.514615 0.161227
0.670833 0.516191 0.162804
0.694457 0.517767 0.164380
0.718123 0.519361 0.165914
0.741806 0.520964 0.167430
0.765488 0.522566 0.168947
0.789171 0.524168 0.170464
0.812853 0.525771 0.171981
0.836536 0.527373 0.173498
0.860218 0.528975 0.175015
0.883901 0.530577 0.176531
0.140035 0.514002 0.137576
0.163043 0.515004 0.138664
0.186050 0.516006 0.139752
0.209058 0.517009 0.140839
0.232066 0.518011 0.141927
0.255074 0.519013 0.143015
0.278081 0.520015 0.144102
0.301089 0.521018 0.145190
0.324097 0.522020 0.146278
0.347104 0.523022 0.147366
0.370112 0.524024 0.148453
0.393120 0.525027 0.149541
0.416304 0.526193 0.150769
0.439928 0.527769 0.152345
0.463553 0.529346 0.153921
0.487177 0.530922 0.155497
0.510801 0.532498 0.157073
0.534425 0.534074 0.158649
0.558050 0.535650 0.160225
0.581674 0.537226 0.161801
0.605298 0.538802 0.163377
0.628927 0.540380 0.164949
0.652609 0.541982 0.166466
0.676292 0.543585 0.167983
0.699974 0.545187 0.169499
0.723657 0.546789 0.171016
0.747339 0.548392 0.172533
0.771022 0.549994 0.174050
0.794704 0.551596 0.175567
0.818387 0.553198 0.177084
0.842070 0.554801 0.178600
0.865752 0.556403 0.180117
0.889434 0.558005 0.181634
0.143299 0.539411 0.141235
0.166307 0.540413 0.142323
0.189314 0.541416 0.143411
0.212322 0.542418 0.144498
0.235330 0.543420 0.145586
0.258337 0.544422 0.146674
0.281345 0.545425 0.147762
0.304353 0.546427 0.148849
0.327361 0.547429 0.149937
0.350769 0.548805 0.151342
0.374394 0.550381 0.152919
0.398018 0.551957 0.154495
0.421642 0.553533 0.156071
0.445266 0.555109 0.157647
0.468891 0.556685 0.159223
0.492515 0.558261 0.160799
0.516139 0.559837 0.162375
0.539763 0.561413 0.163951
0.563413 0.563001 0.165501
0.587096 0.564603 0.167018
0.610778 0.566206 0.168535
0.634461 0.567808 0.170052
0.658143 0.569410 0.171569
0.681826 0.571012 0.173085
0.705508 0.572615 0.174602
0.729191 0.574217 0.176119
0.752873 0.575819 0.177636
0.776556 0.577421 0.179153
0.800238 0.579024 0.180669
0.823921 0.580626 0.182186
0.847603 0.582228 0.183703
0.871286 0.583831 0.185220
0.894968 0.585433 0.186737
0.146563 0.564820 0.144894
0.169570 0.565822 0.145982
0.192578 0.566825 0.147070
0.215586 0.567827 0.148158
0.238594 0.568829 0.149245
0.261610 0.569840 0.150340
0.285234 0.571416 0.151916
0.308859 0.572992 0.153492
0.332483 0.574568 0.155068
0.356107 0.576144 0.156644
0.379732 0.577720 0.158221
0.403356 0.579296 0.159797
0.426980 0.580872 0.161373
0.450604 0.582448 0.162949
0.474229 0.584025 0.164525
0.497900 0.585622 0.166053
0.521582 0.587224 0.167570
0.545265 0.588826 0.169087
0.568947 0.590429 0.170604
0.592630 0.592031 0.172121
0.616312 0.593633 0.173638
0.639995 0.595235 0.175154
0.663677 0.596838 0.176671
0.687360 0.598440 0.178188
0.711042 0.600042 0.179705
0.734725 0.601645 0.181222
0.758407 0.603247 0.182738
0.782090 0.604849 0.184255
0.805772 0.606451 0.185772
0.829455 0.608054 0.187289
0.853137 0.609656 0.188806
0.876820 0.611258 0.190323
0.900502 0.612861 0.191839
0.149827 0.590229 0.148554
0.172834 0.591232 0.149641
0.196075 0.592451 0.150914
0.219700 0.594027 0.152490
0.243324 0.595603 0.154066
0.266948 0.597179 0.155642
0.290572 0.598756 0.157218
0.314197 0.600332 0.158794
0.337821 0.601908 0.160370
0.361445 0.603484 0.161947
0.385070 0.605060 0.163523
0.408704 0.606640 0.165089
0.432386 0.608243 0.166606
0.456069 0.609845 0.168122
0.479751 0.611447 0.169639
0.503434 0.613049 0.171156
0.527116 0.614652 0.172673
0.550799 0.616254 0.174190
0.574481 0.617856 0.175707
0.598164 0.619459 0.177223
0.621846 0.621061 0.178740
0.645529 0.622663 0.180257
0.669211 0.624265 0.181774
0.692894 0.625868 0.183291
0.716576 0.627470 0.184808
0.740259 0.629072 0.186324
0.763941 0.630675 0.187841
0.787624 0.632277 0.189358
0.811306 0.633879 0.190875
0.834989 0.635481 0.192392
0.858671 0.637084 0.193908
0.882354 0.638686 0.195425
0.906036 0.640288 0.196942
0.154165 0.616638 0.153064
0.177789 0.618215 0.154640
0.201413 0.619791 0.156216
0.225038 0.621367 0.157792
0.248662 0.622943 0.159368
0.272286 0.624519 0.160944
0.295910 0.626095 0.162520
0.319535 0.627671 0.164096
0.343190 0.629261 0.165641
0.366872 0.630863 0.167158
0.390555 0.632466 0.168675
0.414237 0.634068 0.170192
0.437920 0.635670 0.171708
0.461602 0.637272 0.173225
0.485285 0.638875 0.174742
0.508968 0.640477 0.176259
0.532650 0.642079 0.177776
0.556333 0.643682 0.179292
0.580015 0.645284 0.180809
0.603698 0.646886 0.182326
0.627380 0.648488 0.183843
0.651063 0.650091 0.185360
0.674745 0.651693 0.186877
0.698428 0.653295 0.188393
0.722110 0.654898 0.189910
0.745793 0.656500 0.191427
0.769475 0.658102 0.192944
0.793158 0.659704 0.194461
0.816840 0.661307 0.195978
0.840523 0.662909 0.197494
0.864205 0.664511 0.199011
0.887888 0.666114 0.200528
0.911570 0.667716 0.202045
0.159503 0.643978 0.158366
0.183127 0.645554 0.159942
0.206751 0.647130 0.161518
0.230376 0.648706 0.163094
0.254000 0.650282 0.164670
0.277676 0.651882 0.166193
0.301359 0.653484 0.167710
0.325041 0.655087 0.169227
0.348724 0.656689 0.170744
0.372406 0.658291 0.172261
0.396089 0.659893 0.173777
0.419771 0.661496 0.175294
0.443454 0.663098 0.176811
0.467136 0.664700 0.178328
0.490819 0.666303 0.179845
0.514501 0.667905 0.181362
0.538184 0.669507 0.182878
0.561866 0.671109 0.184395
0.585549 0.672712 0.185912
0.609231 0.674314 0.187429
0.632914 0.675916 0.188946
0.656596 0.677518 0.190462
0.680279 0.679121 0.191979
0.703961 0.680723 0.193496
0.727644 0.682325 0.195013
0.751327 0.683928 0.196530
0.775009 0.685530 0.198047
0.798692 0.687132 0.199563
0.822374 0.688734 0.201080
0.846057 0.690337 0.202597
0.869739 0.691939 0.204114
0.893422 0.693541 0.205631
0.917104 0.695144 0.207148
0.164841 0.671318 0.163668
0.188480 0.672900 0.165229
0.212163 0.674503 0.166745
0.235845 0.676105 0.168262
0.259528 0.677707 0.169779
0.283210 0.679310 0.171296
0.306893 0.680912 0.172813
0.330575 0.682514 0.174330
0.354258 0.684116 0.175846
0.377940 0.685719 0.177363
0.401623 0.687321 0.178880
0.425305 0.688923 0.180397
0.448988 0.690526 0.181914
0.472670 0.692128 0.183431
0.496353 0.693730 0.184947
0.520035 0.695333 0.186464
0.543718 0.696935 0.187981
0.567400 0.698537 0.189498
0.591083 0.700139 0.191015
0.614765 0.701742 0.192532
0.638448 0.703344 0.194048
0.662130 0.704946 0.195565
0.685813 0.706548 0.197082
0.709495 0.708151 0.198599
0.733178 0.709753 0.200116
0.756860 0.711355 0.201632
0.780543 0.712958 0.203149
0.804226 0.714560 0.204666
0.827908 0.716162 0.206183
0.851591 0.717764 0.207700
0.875273 0.719367 0.209217
0.898956 0.720969 0.210733
0.922638 0.722571 0.212250
0.170332 0.698726 0.168815
0.194014 0.700328 0.170331
0.217697 0.701930 0.171848
0.241379 0.703533 0.173365
0.265062 0.705135 0.174882
0.288744 0.706737 0.176399
0.312427 0.708340 0.177915
0.336109 0.709942 0.179432
0.359792 0.711544 0.180949
0.383474 0.713146 0.182466
0.407157 0.714749 0.183983
0.430839 0.716351 0.185500
0.454522 0.717953 0.187016
0.478204 0.719555 0.188533
0.501887 0.721158 0.190050
0.525569 0.722760 0.191567
0.549252 0.724362 0.193084
0.572934 0.725965 0.194601
0.596617 0.727567 0.196117
0.620299 0.729169 0.197634
0.643982 0.730772 0.199151
0.667664 0.732374 0.200668
0.691347 0.733976 0.202185
0.715029 0.735578 0.203702
0.738712 0.737181 0.205218
0.762394 0.738783 0.206735
0.786077 0.740385 0.208252
0.809759 0.741988 0.209769
0.833442 0.743590 0.211286
0.857124 0.745192 0.212802
0.880807 0.746794 0.214319
0.904489 0.748397 0.215836
0.928172 0.749999 0.217353
0.175866 0.726154 0.173917
0.199548 0.727756 0.175434
0.223231 0.729358 0.176951
0.246913 0.730960 0.178468
0.270596 0.732563 0.179985
0.294278 0.734165 0.181501
0.317961 0.735767 0.183018
0.341643 0.737370 0.184535
0.365326 0.738972 0.186052
0.389008 0.740574 0.187569
0.412691 0.742176 0.189085
0.436373 0.743779 0.190602
0.460056 0.745381 0.192119
0.483738 0.746983 0.193636
0.507421 0.748586 0.195153
0.531103 0.750188 0.196670
0.554786 0.751790 0.198186
0.578468 0.753392 0.199703
0.602151 0.754995 0.201220
0.625833 0.756597 0.202737
0.649516 0.758199 0.204254
0.673198 0.759802 0.205771
0.696881 0.761404 0.207287
0.720563 0.763006 0.208804
0.744246 0.764608 0.210321
0.767928 0.766211 0.211838
0.791611 0.767813 0.213355
0.815293 0.769415 0.214872
0.838976 0.771017 0.216388
0.862658 0.772620 0.217905
0.886341 0.774222 0.219422
0.910023 0.775824 0.220939
0.933706 0.777427 0.222456
0.181399 0.753581 0.179020
0.205082 0.755184 0.180537
0.228764 0.756786 0.182054
0.252447 0.758388 0.183570
0.276130 0.759990 0.185087
0.299812 0.761593 0.186604
0.323495 0.763195 0.188121
0.347177 0.764797 0.189638
0.370860 0.766400 0.191155
0.394542 0.768002 0.192671
0.418225 0.769604 0.194188
0.441907 0.771206 0.195705
0.465590 0.772809 0.197222
0.489272 0.774411 0.198739
0.512955 0.776013 0.200255
0.536637 0.777616 0.201772
0.560320 0.779218 0.203289
0.584002 0.780820 0.204806
0.607685 0.782422 0.206323
0.631367 0.784025 0.207840
0.655050 0.785627 0.209356
0.678732 0.787229 0.210873
0.702415 0.788831 0.212390
0.726097 0.790434 0.213907
0.749780 0.792036 0.215424
0.773462 0.793638 0.216941
