resources/luts/faded_print.cube
TITLE "Faded Print"
LUT_3D_SIZE 9
DOMAIN_MIN 0.000000 0.000000 0.000000
DOMAIN_MAX 1.000000 1.000000 1.000000
0.084550 0.082046 0.075371
0.176580 0.086055 0.079722
0.268611 0.090064 0.084072
0.360642 0.094073 0.088423
0.452673 0.098082 0.092774
0.544704 0.102091 0.097125
0.636735 0.106100 0.101476
0.728765 0.110109 0.105827
0.820796 0.114118 0.110178
0.097605 0.183683 0.090007
0.189636 0.187692 0.094358
0.281667 0.191701 0.098709
0.373697 0.195710 0.103060
0.465728 0.199719 0.107411
0.557759 0.203728 0.111762
0.649790 0.207737 0.116113
0.741821 0.211746 0.120463
0.833852 0.215755 0.124814
0.110660 0.285320 0.104644
0.202691 0.289329 0.108995
0.294722 0.293338 0.113346
0.386753 0.297347 0.117696
0.478784 0.301356 0.122047
0.570815 0.305365 0.126398
0.662845 0.309374 0.130749
0.754876 0.313383 0.135100
0.846907 0.317392 0.139451
0.123716 0.386956 0.119280
0.215747 0.390965 0.123631
0.307777 0.394974 0.127982
0.399808 0.398983 0.132333
0.491839 0.402992 0.136684
0.583870 0.407001 0.141035
0.675901 0.411010 0.145386
0.767932 0.415019 0.149736
0.862100 0.421017 0.155780
0.136771 0.488593 0.133917
0.228802 0.492602 0.138268
0.320833 0.496611 0.142619
0.412864 0.500620 0.146970
0.505463 0.505158 0.151771
0.599960 0.511462 0.158075
0.694457 0.517767 0.164380
0.789171 0.524168 0.170464
0.883901 0.530577 0.176531
0.149827 0.590229 0.148554
0.243324 0.595603 0.154066
0.337821 0.601908 0.160370
0.432386 0.608243 0.166606
0.527116 0.614652 0.172673
0.621846 0.621061 0.178740
0.716576 0.627470 0.184808
0.811306 0.633879 0.190875
0.906036 0.640288 0.196942
0.170332 0.698726 0.168815
0.265062 0.705135 0.174882
0.359792 0.711544 0.180949
0.454522 0.717953 0.187016
0.549252 0.724362 0.193084
0.643982 0.730772 0.199151
0.738712 0.737181 0.205218
0.833442 0.743590 0.211286
0.928172 0.749999 0.217353
0.192467 0.808437 0.189225
0.287197 0.814846 0.195293
0.381927 0.821255 0.201360
0.476657 0.827664 0.207427
0.571388 0.834073 0.213495
0.666118 0.840482 0.219562
0.760848 0.846891 0.225629
0.855578 0.853301 0.231696
0.950308 0.859710 0.237764
0.214603 0.918147 0.209636
0.309333 0.924556 0.215703
0.404063 0.930966 0.221771
0.498793 0.937375 0.227838
0.593523 0.943784 0.233905
0.688253 0.950193 0.239973
0.782983 0.956602 0.246040
0.877713 0.963011 0.252107
0.972443 0.969420 0.258175
0.085867 0.083408 0.164998
0.177898 0.087417 0.169349
0.269929 0.091426 0.173700
0.361960 0.095435 0.178051
0.453991 0.099444 0.182402
0.546022 0.103453 0.186753
0.638053 0.107462 0.191103
0.730083 0.111471 0.195454
0.822114 0.115480 0.199805
0.098923 0.185044 0.179635
0.190954 0.189053 0.183986
0.282985 0.193062 0.188337
0.375015 0.197071 0.192687
0.467046 0.201080 0.197038
0.559077 0.205089 0.201389
0.651108 0.209099 0.205740
0.743139 0.213108 0.210091
0.835170 0.217117 0.214442
0.111978 0.286681 0.194271
0.204009 0.290690 0.198622
0.296040 0.294699 0.202973
0.388071 0.298708 0.207324
0.480102 0.302717 0.211675
0.572133 0.306726 0.216026
0.664163 0.310735 0.220377
0.756194 0.314744 0.224727
0.848225 0.318753 0.229078
0.125034 0.388318 0.208908
0.217065 0.392327 0.213259
0.309095 0.396336 0.217610
0.401126 0.400345 0.221961
0.493157 0.404354 0.226311
0.585188 0.408363 0.230662
0.677219 0.412372 0.235013
0.769758 0.416854 0.239767
0.864255 0.423158 0.246071
0.138089 0.489954 0.223545
0.230120 0.493963 0.227895
0.322151 0.497972 0.232246
0.414182 0.501981 0.236597
0.507619 0.507299 0.242062
0.602116 0.513603 0.248366
0.696675 0.519936 0.254607
0.791405 0.526345 0.260675
0.886135 0.532754 0.266742
0.151144 0.591591 0.238181
0.245479 0.597744 0.244357
0.339976 0.604049 0.250661
0.434621 0.610419 0.256816
0.529351 0.616828 0.262883
0.624081 0.623237 0.268951
0.718811 0.629647 0.275018
0.813541 0.636056 0.281085
0.908271 0.642465 0.287153
0.172566 0.700902 0.259025
0.267296 0.707312 0.265092
0.362026 0.713721 0.271160
0.456756 0.720130 0.277227
0.551486 0.726539 0.283294
0.646216 0.732948 0.289362
0.740946 0.739357 0.295429
0.835676 0.745766 0.301496
0.930407 0.752176 0.307563
0.194702 0.810613 0.279436
0.289432 0.817022 0.285503
0.384162 0.823431 0.291570
0.478892 0.829841 0.297638
0.573622 0.836250 0.303705
0.668352 0.842659 0.309772
0.763082 0.849068 0.315840
0.857812 0.855477 0.321907
0.952542 0.861886 0.327974
0.216838 0.920324 0.299847
0.311568 0.926733 0.305914
0.406298 0.933142 0.311981
0.501028 0.939551 0.318048
0.595758 0.945960 0.324116
0.690488 0.952370 0.330183
0.785218 0.958779 0.336250
0.879948 0.965188 0.342318
0.974678 0.971597 0.348385
0.087185 0.084769 0.254626
0.179216 0.088778 0.258977
0.271247 0.092787 0.263328
0.363278 0.096796 0.267678
0.455309 0.100805 0.272029
0.547340 0.104814 0.276380
0.639370 0.108823 0.280731
0.731401 0.112832 0.285082
0.823432 0.116841 0.289433
0.100241 0.186406 0.269262
0.192272 0.190415 0.273613
0.284303 0.194424 0.277964
0.376333 0.198433 0.282315
0.468364 0.202442 0.286666
0.560395 0.206451 0.291017
0.652426 0.210460 0.295368
0.744457 0.214469 0.299719
0.836488 0.218478 0.304069
0.113296 0.288042 0.283899
0.205327 0.292051 0.288250
0.297358 0.296061 0.292601
0.389389 0.300070 0.296952
0.481420 0.304079 0.301302
0.573450 0.308088 0.305653
0.665481 0.312097 0.310004
0.757512 0.316106 0.314355
0.849543 0.320115 0.318706
0.126352 0.389679 0.298536
0.218382 0.393688 0.302886
0.310413 0.397697 0.307237
0.402444 0.401706 0.311588
0.494475 0.405715 0.315939
0.586506 0.409724 0.320290
0.678537 0.413733 0.324641
0.771913 0.418995 0.330058
0.866410 0.425299 0.336362
0.139407 0.491316 0.313172
0.231438 0.495325 0.317523
0.323469 0.499334 0.321874
0.415500 0.503343 0.326225
0.509774 0.509440 0.332353
0.604271 0.515744 0.338657
0.698910 0.522112 0.344818
0.793640 0.528522 0.350885
0.888370 0.534931 0.356952
0.153138 0.593581 0.328344
0.247635 0.599885 0.334648
0.342132 0.606190 0.340952
0.436855 0.612596 0.347027
0.531585 0.619005 0.353094
0.626315 0.625414 0.359161
0.721045 0.631823 0.365229
0.815775 0.638232 0.371296
0.910506 0.644641 0.377363
0.174801 0.703079 0.349236
0.269531 0.709488 0.355303
0.364261 0.715897 0.361370
0.458991 0.722306 0.367437
0.553721 0.728716 0.373505
0.648451 0.735125 0.379572
0.743181 0.741534 0.385639
0.837911 0.747943 0.391707
0.932641 0.754352 0.397774
0.196937 0.812790 0.369646
0.291667 0.819199 0.375714
0.386397 0.825608 0.381781
0.481127 0.832017 0.387848
0.575857 0.838426 0.393916
0.670587 0.844835 0.399983
0.765317 0.851245 0.406050
0.860047 0.857654 0.412117
0.954777 0.864063 0.418185
0.219072 0.922500 0.390057
0.313802 0.928910 0.396124
0.408532 0.935319 0.402192
0.503262 0.941728 0.408259
0.597992 0.948137 0.414326
0.692722 0.954546 0.420394
0.787452 0.960955 0.426461
0.882183 0.967364 0.432528
0.976913 0.973774 0.438596
0.088503 0.086131 0.344253
0.180534 0.090140 0.348604
0.272565 0.094149 0.352955
0.364596 0.098158 0.357306
0.456627 0.102167 0.361657
0.548658 0.106176 0.366008
0.640688 0.110185 0.370359
0.732719 0.114194 0.374709
0.824750 0.118203 0.379060
0.101559 0.187767 0.358890
0.193590 0.191776 0.363241
0.285620 0.195785 0.367592
0.377651 0.199794 0.371943
0.469682 0.203803 0.376293
0.561713 0.207812 0.380644
0.653744 0.211821 0.384995
0.745775 0.215831 0.389346
0.837806 0.219840 0.393697
0.114614 0.289404 0.373527
0.206645 0.293413 0.377877
0.298676 0.297422 0.382228
0.390707 0.301431 0.386579
0.482738 0.305440 0.390930
0.574768 0.309449 0.395281
0.666799 0.313458 0.399632
0.758830 0.317467 0.403983
0.850861 0.321476 0.408333
0.127670 0.391041 0.388163
0.219700 0.395050 0.392514
0.311731 0.399059 0.396865
0.403762 0.403068 0.401216
0.495793 0.407077 0.405567
0.587824 0.411086 0.409917
0.679855 0.415095 0.414268
0.774069 0.421136 0.420349
0.868566 0.427440 0.426653
0.140725 0.492677 0.402800
0.232756 0.496686 0.407151
0.324787 0.500695 0.411501
0.417433 0.505277 0.416339
0.511930 0.511581 0.422644
0.606427 0.517885 0.428948
0.701144 0.524289 0.435028
0.795874 0.530698 0.441096
0.890604 0.537107 0.447163
0.155293 0.595722 0.418635
0.249790 0.602026 0.424939
0.344360 0.608363 0.431170
0.439090 0.614772 0.437237
0.533820 0.621181 0.443304
0.628550 0.627591 0.449372
0.723280 0.634000 0.455439
0.818010 0.640409 0.461506
0.912740 0.646818 0.467574
0.177035 0.705256 0.439446
0.271765 0.711665 0.445513
0.366496 0.718074 0.451581
0.461226 0.724483 0.457648
0.555956 0.730892 0.463715
0.650686 0.737301 0.469782
0.745416 0.743710 0.475850
0.840146 0.750120 0.481917
0.934876 0.756529 0.487984
0.199171 0.814966 0.459857
0.293901 0.821375 0.465924
0.388631 0.827785 0.471991
0.483361 0.834194 0.478059
0.578091 0.840603 0.484126
0.672821 0.847012 0.490193
0.767551 0.853421 0.496261
0.862282 0.859830 0.502328
0.957012 0.866239 0.508395
0.221307 0.924677 0.480268
0.316037 0.931086 0.486335
0.410767 0.937495 0.492402
0.505497 0.943904 0.498469
0.600227 0.950314 0.504537
0.694957 0.956723 0.510604
0.789687 0.963132 0.516671
0.884417 0.969541 0.522739
0.979147 0.975950 0.528806
0.089821 0.087492 0.433881
0.181852 0.091501 0.438232
0.273883 0.095510 0.442583
0.365914 0.099519 0.446934
0.457945 0.103528 0.451284
0.549976 0.107537 0.455635
0.642006 0.111546 0.459986
0.734037 0.115555 0.464337
0.826068 0.119564 0.468688
0.102877 0.189129 0.448518
0.194908 0.193138 0.452868
0.286938 0.197147 0.457219
0.378969 0.201156 0.461570
0.471000 0.205165 0.465921
0.563031 0.209174 0.470272
0.655062 0.213183 0.474623
0.747093 0.217192 0.478974
0.839123 0.221201 0.483324
0.115932 0.290765 0.463154
0.207963 0.294774 0.467505
0.299994 0.298784 0.471856
0.392025 0.302793 0.476207
0.484055 0.306802 0.480558
0.576086 0.310811 0.484908
0.668117 0.314820 0.489259
0.760148 0.318829 0.493610
0.852179 0.322838 0.497961
0.128988 0.392402 0.477791
0.221018 0.396411 0.482142
0.313049 0.400420 0.486492
0.405080 0.404429 0.490843
0.497111 0.408438 0.495194
0.589142 0.412447 0.499545
0.681727 0.416973 0.504335
0.776224 0.423277 0.510640
0.870721 0.429581 0.516944
0.142043 0.494039 0.492427
0.234074 0.498048 0.496778
0.326105 0.502057 0.501129
0.419588 0.507418 0.506631
0.514085 0.513722 0.512935
0.608649 0.520056 0.519171
0.703379 0.526466 0.525239
0.798109 0.532875 0.531306
0.892839 0.539284 0.537373
0.157449 0.597863 0.508926
0.251946 0.604167 0.515230
0.346594 0.610540 0.521380
0.441324 0.616949 0.527448
0.536055 0.623358 0.533515
0.630785 0.629767 0.539582
0.725515 0.636176 0.545649
0.820245 0.642585 0.551717
0.914975 0.648995 0.557784
0.179270 0.707432 0.529656
0.274000 0.713841 0.535724
0.368730 0.720250 0.541791
0.463460 0.726660 0.547858
0.558190 0.733069 0.553926
0.652920 0.739478 0.559993
0.747650 0.745887 0.566060
0.842380 0.752296 0.572128
0.937110 0.758705 0.578195
0.201406 0.817143 0.550067
0.296136 0.823552 0.556135
0.390866 0.829961 0.562202
0.485596 0.836370 0.568269
0.580326 0.842779 0.574336
0.675056 0.849189 0.580404
0.769786 0.855598 0.586471
0.864516 0.862007 0.592538
0.959246 0.868416 0.598606
0.223541 0.926854 0.570478
0.318272 0.933263 0.576545
0.413002 0.939672 0.582613
0.507732 0.946081 0.588680
0.602462 0.952490 0.594747
0.697192 0.958899 0.600815
0.791922 0.965308 0.606882
0.886652 0.971718 0.612949
0.981382 0.978127 0.619016
0.091139 0.088854 0.523509
0.183170 0.092863 0.527860
0.275201 0.096872 0.532210
0.367232 0.100881 0.536561
0.459263 0.104890 0.540912
0.551293 0.108899 0.545263
0.643324 0.112908 0.549614
0.735355 0.116917 0.553965
0.827386 0.120926 0.558316
0.104195 0.190490 0.538145
0.196226 0.194499 0.542496
0.288256 0.198508 0.546847
0.380287 0.202517 0.551198
0.472318 0.206526 0.555549
0.564349 0.210535 0.559900
0.656380 0.214544 0.564250
0.748411 0.218553 0.568601
0.840441 0.222563 0.572952
0.117250 0.292127 0.552782
0.209281 0.296136 0.557133
0.301312 0.300145 0.561484
0.393343 0.304154 0.565834
0.485373 0.308163 0.570185
0.577404 0.312172 0.574536
0.669435 0.316181 0.578887
0.761466 0.320190 0.583238
0.853497 0.324199 0.587589
0.130305 0.393764 0.567418
0.222336 0.397773 0.571769
0.314367 0.401782 0.576120
0.406398 0.405791 0.580471
0.498429 0.409800 0.584822
0.590460 0.413809 0.589173
0.683883 0.419113 0.594626
0.778380 0.425418 0.600931
0.872938 0.431750 0.607173
0.143361 0.495400 0.582055
0.235392 0.499409 0.586406
0.327423 0.503418 0.590757
0.421744 0.509559 0.596922
0.516241 0.515863 0.603226
0.610883 0.522233 0.609382
0.705614 0.528642 0.615449
0.800344 0.535051 0.621517
0.895074 0.541460 0.627584
0.159604 0.600004 0.599217
0.254101 0.606308 0.605521
0.348829 0.612716 0.611591
0.443559 0.619125 0.617658
0.538289 0.625535 0.623725
0.633019 0.631944 0.629793
0.727749 0.638353 0.635860
0.822479 0.644762 0.641927
0.917209 0.651171 0.647995
0.181505 0.709609 0.619867
0.276235 0.716018 0.625934
0.370965 0.722427 0.632002
0.465695 0.728836 0.638069
0.560425 0.735245 0.644136
0.655155 0.741654 0.650203
0.749885 0.748064 0.656271
0.844615 0.754473 0.662338
0.939345 0.760882 0.668405
0.203640 0.819319 0.640278
0.298370 0.825729 0.646345
0.393101 0.832138 0.652412
0.487831 0.838547 0.658480
0.582561 0.844956 0.664547
0.677291 0.851365 0.670614
0.772021 0.857774 0.676682
0.866751 0.864183 0.682749
0.961481 0.870593 0.688816
0.225776 0.929030 0.660689
0.320506 0.935439 0.666756
0.415236 0.941849 0.672823
0.509966 0.948258 0.678890
0.604696 0.954667 0.684958
0.699426 0.961076 0.691025
0.794156 0.967485 0.697092
0.888886 0.973894 0.703160
0.983616 0.980303 0.709227
0.092457 0.090215 0.613136
0.184488 0.094224 0.617487
0.276519 0.098233 0.621838
0.368550 0.102242 0.626189
0.460581 0.106251 0.630540
0.552611 0.110260 0.634890
0.644642 0.114269 0.639241
0.736673 0.118278 0.643592
0.828704 0.122287 0.647943
0.105513 0.191852 0.627773
0.197543 0.195861 0.632124
0.289574 0.199870 0.636474
0.381605 0.203879 0.640825
0.473636 0.207888 0.645176
0.565667 0.211897 0.649527
0.657698 0.215906 0.653878
0.749729 0.219915 0.658229
0.841759 0.223924 0.662580
0.118568 0.293488 0.642409
0.210599 0.297497 0.646760
0.302630 0.301506 0.651111
0.394661 0.305515 0.655462
0.486691 0.309525 0.659813
0.578722 0.313534 0.664164
0.670753 0.317543 0.668514
0.762784 0.321552 0.672865
0.854815 0.325561 0.677216
0.131623 0.395125 0.657046
0.223654 0.399134 0.661397
0.315685 0.403143 0.665748
0.407716 0.407152 0.670098
0.499747 0.411161 0.674449
0.591778 0.415170 0.678800
0.686038 0.421254 0.684917
0.780535 0.427559 0.691222
0.875173 0.433926 0.697383
0.144679 0.496762 0.671682
0.236710 0.500771 0.676033
0.329402 0.505395 0.680908
0.423899 0.511700 0.687212
0.518396 0.518004 0.693517
0.613118 0.524410 0.699592
0.707848 0.530819 0.705660
0.802578 0.537228 0.711727
0.897308 0.543637 0.717794
0.161760 0.602145 0.689508
0.256334 0.608484 0.695734
0.351064 0.614893 0.701801
0.445794 0.621302 0.707869
0.540524 0.627711 0.713936
0.635254 0.634120 0.720003
0.729984 0.640529 0.726070
0.824714 0.646939 0.732138
0.919444 0.653348 0.738205
0.183739 0.711785 0.710077
0.278469 0.718194 0.716145
0.373199 0.724604 0.722212
0.467929 0.731013 0.728279
0.562659 0.737422 0.734347
0.657390 0.743831 0.740414
0.752120 0.750240 0.746481
0.846850 0.756649 0.752549
0.941580 0.763058 0.758616
0.205875 0.821496 0.730488
0.300605 0.827905 0.736556
0.395335 0.834314 0.742623
0.490065 0.840723 0.748690
0.584795 0.847133 0.754757
0.679525 0.853542 0.760825
0.774255 0.859951 0.766892
0.868985 0.866360 0.772959
0.963715 0.872769 0.779027
0.228011 0.931207 0.750899
0.322741 0.937616 0.756966
0.417471 0.944025 0.763034
0.512201 0.950434 0.769101
0.606931 0.956843 0.775168
0.701661 0.963252 0.781236
0.796391 0.969662 0.787303
0.891121 0.976071 0.793370
0.985851 0.982480 0.799437
0.093775 0.091577 0.702764
0.185806 0.095586 0.707115
0.277837 0.099595 0.711465
0.369868 0.103604 0.715816
0.461899 0.107613 0.720167
0.553929 0.111622 0.724518
0.645960 0.115631 0.728869
0.737991 0.119640 0.733220
0.830022 0.123649 0.737571
0.106831 0.193213 0.717400
0.198861 0.197222 0.721751
0.290892 0.201231 0.726102
0.382923 0.205240 0.730453
0.474954 0.209249 0.734804
0.566985 0.213258 0.739155
0.659016 0.217267 0.743505
0.751046 0.221276 0.747856
0.843077 0.225285 0.752207
0.119886 0.294850 0.732037
0.211917 0.298859 0.736388
0.303948 0.302868 0.740739
0.395979 0.306877 0.745089
0.488009 0.310886 0.749440
0.580040 0.314895 0.753791
0.672071 0.318904 0.758142
0.764102 0.322913 0.762493
0.856133 0.326922 0.766844
0.132941 0.396486 0.746673
0.224972 0.400495 0.751024
0.317003 0.404505 0.755375
0.409034 0.408514 0.759726
0.501065 0.412523 0.764077
0.593697 0.417091 0.768904
0.688194 0.423395 0.775208
0.782691 0.429700 0.781513
0.877407 0.436103 0.787594
0.145997 0.498123 0.761310
0.238028 0.502132 0.765661
0.331558 0.507536 0.771199
0.426055 0.513841 0.777503
0.520623 0.520177 0.783736
0.615353 0.526586 0.789803
0.710083 0.532995 0.795870
0.804813 0.539404 0.801937
0.899543 0.545814 0.808005
0.163915 0.604286 0.779799
0.258568 0.610660 0.785944
0.353298 0.617069 0.792012
0.448028 0.623479 0.798079
0.542758 0.629888 0.804146
0.637488 0.636297 0.810214
0.732219 0.642706 0.816281
0.826949 0.649115 0.822348
0.921679 0.655524 0.828416
0.185974 0.713962 0.800288
0.280704 0.720371 0.806355
0.375434 0.726780 0.812423
0.470164 0.733189 0.818490
0.564894 0.739598 0.824557
0.659624 0.746008 0.830624
0.754354 0.752417 0.836692
0.849084 0.758826 0.842759
0.943814 0.765235 0.848826
0.208110 0.823673 0.820699
0.302840 0.830082 0.826766
0.397570 0.836491 0.832833
0.492300 0.842900 0.838901
0.587030 0.849309 0.844968
0.681760 0.855718 0.851035
0.776490 0.862127 0.857103
0.871220 0.868537 0.863170
0.965950 0.874946 0.869237
0.230245 0.933383 0.841109
0.324975 0.939793 0.847177
0.419705 0.946202 0.853244
0.514435 0.952611 0.859311
0.609165 0.959020 0.865379
0.703896 0.965429 0.871446
0.798626 0.971838 0.877513
0.893356 0.978247 0.883581
0.988086 0.984656 0.889648
0.095093 0.092938 0.792391
0.187124 0.096947 0.796742
0.279155 0.100956 0.801093
0.371186 0.104965 0.805444
0.463216 0.108974 0.809795
0.555247 0.112983 0.814146
0.647278 0.116992 0.818496
0.739309 0.121001 0.822847
0.831340 0.125010 0.827198
0.108149 0.194575 0.807028
0.200179 0.198584 0.811379
0.292210 0.202593 0.815730
0.384241 0.206602 0.820081
0.476272 0.210611 0.824431
0.568303 0.214620 0.828782
0.660334 0.218629 0.833133
0.752364 0.222638 0.837484
0.844395 0.226647 0.841835
0.121204 0.296211 0.821665
0.213235 0.300220 0.826015
0.305266 0.304229 0.830366
0.397296 0.308238 0.834717
0.489327 0.312248 0.839068
0.581358 0.316257 0.843419
0.673389 0.320266 0.847770
0.765420 0.324275 0.852121
0.857992 0.328787 0.856900
0.134259 0.397848 0.836301
0.226290 0.401857 0.840652
0.318321 0.405866 0.845003
0.410352 0.409875 0.849354
0.502383 0.413884 0.853704
0.595852 0.419232 0.859195
0.690349 0.425536 0.865499
0.784912 0.431870 0.871737
0.879642 0.438279 0.877804
0.147315 0.499485 0.850938
0.239346 0.503494 0.855289
0.333713 0.509677 0.861490
0.428210 0.515982 0.867794
0.522857 0.522354 0.873946
0.617587 0.528763 0.880013
0.712317 0.535172 0.886081
0.807047 0.541581 0.892148
0.901778 0.547990 0.898215
0.166073 0.606428 0.870088
0.260803 0.612837 0.876155
0.355533 0.619246 0.882222
0.450263 0.625655 0.888290
0.544993 0.632064 0.894357
0.639723 0.638473 0.900424
0.734453 0.644883 0.906491
0.829183 0.651292 0.912559
0.923913 0.657701 0.918626
0.188209 0.716138 0.890498
0.282939 0.722548 0.896566
0.377669 0.728957 0.902633
0.472399 0.735366 0.908700
0.567129 0.741775 0.914768
0.661859 0.748184 0.920835
0.756589 0.754593 0.926902
0.851319 0.761002 0.932970
0.946049 0.767411 0.939037
0.210344 0.825849 0.910909
0.305074 0.832258 0.916977
0.399804 0.838667 0.923044
0.494534 0.845077 0.929111
0.589264 0.851486 0.935178
0.683994 0.857895 0.941246
0.778724 0.864304 0.947313
0.873455 0.870713 0.953380
0.968185 0.877122 0.959448
0.232480 0.935560 0.931320
0.327210 0.941969 0.937387
0.421940 0.948378 0.943455
0.516670 0.954787 0.949522
0.611400 0.961196 0.955589
0.706130 0.967606 0.961657
0.800860 0.974015 0.967724
0.895590 0.980424 0.973791
0.990320 0.986833 0.979858
