resources/luts/golden_memory.cube
TITLE "Golden Memory"
LUT_3D_SIZE 9
DOMAIN_MIN 0.000000 0.000000 0.000000
DOMAIN_MAX 1.000000 1.000000 1.000000
0.004397 0.000000 0.050909
0.131140 0.000000 0.050379
0.257883 0.000000 0.049848
0.384626 0.000000 0.049317
0.511368 0.000000 0.048787
0.638111 0.000000 0.048256
0.764854 0.000000 0.047726
0.891597 0.000000 0.047195
1.000000 0.000000 0.046676
0.002007 0.114604 0.049281
0.128740 0.114744 0.048741
0.255473 0.114883 0.048201
0.382207 0.115023 0.047661
0.508940 0.115163 0.047121
0.635673 0.115303 0.046581
0.762406 0.115442 0.046040
0.889140 0.115582 0.045500
1.000000 0.115730 0.044968
0.000000 0.242574 0.047464
0.126161 0.242714 0.046924
0.252894 0.242854 0.046384
0.379627 0.242993 0.045844
0.506361 0.243133 0.045304
0.633094 0.243273 0.044764
0.759827 0.243413 0.044224
0.886560 0.243552 0.043683
1.000000 0.243697 0.043148
0.000000 0.370544 0.045647
0.123582 0.370684 0.045107
0.250315 0.370824 0.044567
0.377048 0.370963 0.044027
0.503781 0.371103 0.043487
0.630515 0.371243 0.042947
0.757248 0.371383 0.042407
0.883981 0.371522 0.041867
1.000000 0.372800 0.041312
0.000000 0.498514 0.043830
0.121002 0.498654 0.043290
0.247736 0.498794 0.042750
0.374469 0.498934 0.042210
0.501202 0.499073 0.041670
0.631462 0.501880 0.041077
0.763775 0.506240 0.041815
0.896240 0.510161 0.042907
1.000000 0.513936 0.043544
0.000000 0.626484 0.042013
0.118423 0.626624 0.041473
0.250715 0.630968 0.040850
0.383030 0.635316 0.042556
0.515578 0.639004 0.043107
0.648126 0.642693 0.043659
0.780674 0.646381 0.044210
0.913222 0.650070 0.044761
1.000000 0.653923 0.045477
0.002367 0.764159 0.042757
0.134916 0.767847 0.043308
0.267464 0.771536 0.043859
0.400012 0.775224 0.044411
0.532560 0.778912 0.044962
0.665108 0.782601 0.045512
0.797656 0.786289 0.046063
0.930204 0.789978 0.046613
1.000000 0.793911 0.047408
0.019350 0.904067 0.044611
0.151898 0.907755 0.045162
0.284446 0.911444 0.045713
0.416994 0.915132 0.046263
0.549542 0.918821 0.046813
0.682090 0.922509 0.047363
0.814638 0.926198 0.047913
0.947186 0.929886 0.048463
1.000000 0.933899 0.049336
0.036880 1.000000 0.047012
0.169489 1.000000 0.047623
0.302097 1.000000 0.048233
0.434706 1.000000 0.048843
0.567315 1.000000 0.049453
0.699923 1.000000 0.050063
0.832531 1.000000 0.050672
0.965140 1.000000 0.051282
1.000000 1.000000 0.052294
0.004209 0.000000 0.129690
0.130949 0.000000 0.130702
0.257690 0.000000 0.131714
0.384431 0.000000 0.132725
0.511171 0.000000 0.133737
0.637912 0.000000 0.134748
0.764653 0.000000 0.135759
0.891393 0.000000 0.136770
1.000000 0.000000 0.137792
0.001808 0.114713 0.133247
0.128539 0.114850 0.134249
0.255270 0.114988 0.135250
0.382001 0.115126 0.136252
0.508732 0.115263 0.137253
0.635463 0.115401 0.138255
0.762194 0.115538 0.139256
0.888926 0.115676 0.140257
1.000000 0.115821 0.141265
0.000000 0.242676 0.136617
0.125952 0.242813 0.137618
0.252683 0.242951 0.138619
0.379415 0.243088 0.139620
0.506146 0.243226 0.140621
0.632877 0.243363 0.141622
0.759608 0.243501 0.142622
0.886339 0.243639 0.143623
1.000000 0.243781 0.144628
0.000000 0.370638 0.139984
0.123366 0.370776 0.140985
0.250097 0.370914 0.141986
0.376828 0.371051 0.142987
0.503559 0.371189 0.143987
0.630290 0.371326 0.144987
0.757021 0.371464 0.145988
0.883752 0.371601 0.146988
1.000000 0.374318 0.148654
0.000000 0.498601 0.143351
0.120779 0.498739 0.144351
0.247510 0.498876 0.145351
0.374241 0.499014 0.146352
0.500972 0.499151 0.147352
0.633124 0.503388 0.149392
0.765435 0.507746 0.151463
0.897981 0.511440 0.152016
1.000000 0.515223 0.152649
0.000000 0.626564 0.146716
0.120065 0.628117 0.148075
0.252375 0.632475 0.150146
0.384770 0.636595 0.151673
0.517318 0.640283 0.152212
0.649867 0.643972 0.152751
0.782415 0.647660 0.153291
0.914963 0.651349 0.153830
1.000000 0.655210 0.154542
0.004108 0.765438 0.151869
0.136656 0.769126 0.152409
0.269204 0.772815 0.152948
0.401753 0.776503 0.153487
0.534301 0.780191 0.154026
0.666849 0.783880 0.154565
0.799397 0.787568 0.155104
0.931945 0.791257 0.155643
1.000000 0.795198 0.156435
0.021090 0.905346 0.153683
0.153638 0.909034 0.154222
0.286187 0.912723 0.154761
0.418735 0.916411 0.155300
0.551283 0.920100 0.155839
0.683831 0.923788 0.156378
0.816379 0.927477 0.156917
0.948927 0.931165 0.157456
1.000000 0.935186 0.158327
0.038642 1.000000 0.156066
0.171250 1.000000 0.156665
0.303859 1.000000 0.157265
0.436467 1.000000 0.157864
0.569076 1.000000 0.158463
0.701684 1.000000 0.159062
0.834293 1.000000 0.159661
0.966901 1.000000 0.160261
1.000000 1.000000 0.161271
0.003978 0.000000 0.238503
0.130719 0.000000 0.239513
0.257459 0.000000 0.240523
0.384200 0.000000 0.241533
0.510940 0.000000 0.242544
0.637681 0.000000 0.243554
0.764422 0.000000 0.244564
0.891162 0.000000 0.245575
1.000000 0.000000 0.246596
0.001574 0.114787 0.242051
0.128305 0.114924 0.243052
0.255036 0.115062 0.244053
0.381767 0.115199 0.245054
0.508498 0.115337 0.246055
0.635229 0.115474 0.247056
0.761960 0.115612 0.248058
0.888691 0.115750 0.249059
1.000000 0.115894 0.250069
0.000000 0.242749 0.245418
0.125718 0.242887 0.246420
0.252449 0.243024 0.247421
0.379180 0.243162 0.248422
0.505912 0.243300 0.249424
0.632643 0.243437 0.250426
0.759374 0.243575 0.251428
0.886105 0.243712 0.252430
1.000000 0.243854 0.253437
0.000000 0.370712 0.248787
0.123132 0.370850 0.249789
0.249863 0.370987 0.250791
0.376594 0.371125 0.251793
0.503325 0.371262 0.252795
0.630056 0.371400 0.253797
0.756787 0.371537 0.254800
0.883518 0.371675 0.255803
1.000000 0.375832 0.257845
0.000000 0.498675 0.252158
0.120545 0.498812 0.253160
0.247276 0.498950 0.254162
0.374007 0.499088 0.255165
0.502474 0.500538 0.256502
0.634785 0.504895 0.258578
0.767174 0.509032 0.260148
0.899722 0.512720 0.260690
1.000000 0.516510 0.261334
0.000000 0.626638 0.255530
0.121725 0.629624 0.257257
0.254036 0.633982 0.259334
0.386512 0.637874 0.260345
0.519060 0.641563 0.260887
0.651608 0.645251 0.261430
0.784156 0.648940 0.261972
0.916704 0.652628 0.262515
1.000000 0.656498 0.263239
0.005849 0.766717 0.260543
0.138398 0.770406 0.261085
0.270946 0.774094 0.261627
0.403494 0.777783 0.262170
0.536042 0.781471 0.262713
0.668590 0.785159 0.263256
0.801138 0.788848 0.263799
0.933686 0.792536 0.264342
1.000000 0.796486 0.265146
0.022832 0.906625 0.262368
0.155380 0.910314 0.262910
0.287928 0.914002 0.263453
0.420476 0.917691 0.263996
0.553024 0.921379 0.264539
0.685572 0.925068 0.265083
0.818120 0.928756 0.265626
0.950668 0.932445 0.266170
1.000000 0.936473 0.267053
0.040404 1.000000 0.264784
0.173012 1.000000 0.265387
0.305621 1.000000 0.265991
0.438229 1.000000 0.266595
0.570838 1.000000 0.267199
0.703446 1.000000 0.267803
0.836055 1.000000 0.268407
0.968663 1.000000 0.269011
1.000000 1.000000 0.270035
0.003746 0.000000 0.347888
0.130487 0.000000 0.348916
0.257227 0.000000 0.349945
0.383968 0.000000 0.350974
0.510709 0.000000 0.352004
0.637449 0.000000 0.353034
0.764190 0.000000 0.354064
0.890931 0.000000 0.355095
1.000000 0.000000 0.356136
0.001339 0.114859 0.351496
0.128070 0.114997 0.352516
0.254801 0.115134 0.353537
0.381532 0.115272 0.354558
0.508263 0.115410 0.355579
0.634994 0.115547 0.356601
0.761725 0.115685 0.357624
0.888456 0.115822 0.358646
1.000000 0.115967 0.359677
0.000000 0.242822 0.354930
0.125483 0.242960 0.355951
0.252214 0.243097 0.356973
0.378945 0.243235 0.357996
0.505676 0.243372 0.359019
0.632407 0.243510 0.360042
0.759138 0.243647 0.361066
0.885870 0.243785 0.362090
1.000000 0.243926 0.363119
0.000000 0.370785 0.358368
0.122896 0.370922 0.359391
0.249627 0.371060 0.360415
0.376358 0.371197 0.361439
0.503090 0.371335 0.362464
0.629821 0.371472 0.363488
0.756552 0.371610 0.364514
0.884882 0.372957 0.365852
1.000000 0.377345 0.368001
0.000000 0.498747 0.361812
0.120310 0.498885 0.362837
0.247041 0.499022 0.363862
0.373772 0.499160 0.364887
0.504133 0.502043 0.366623
0.636444 0.506401 0.368742
0.768914 0.510310 0.369816
0.901462 0.513998 0.370377
1.000000 0.517796 0.371048
0.000000 0.626772 0.365277
0.123385 0.631130 0.367394
0.255703 0.635464 0.369460
0.388251 0.639153 0.370020
0.520800 0.642841 0.370581
0.653348 0.646529 0.371142
0.785896 0.650218 0.371703
0.918444 0.653906 0.372265
1.000000 0.657784 0.373016
0.007589 0.767995 0.370224
0.140137 0.771684 0.370785
0.272686 0.775372 0.371346
0.405234 0.779061 0.371908
0.537782 0.782749 0.372470
0.670330 0.786438 0.373032
0.802878 0.790126 0.373594
0.935426 0.793814 0.374156
1.000000 0.797772 0.374988
0.024571 0.907903 0.372112
0.157120 0.911592 0.372674
0.289668 0.915280 0.373236
0.422216 0.918969 0.373799
0.554764 0.922657 0.374361
0.687312 0.926346 0.374924
0.819860 0.930034 0.375487
0.952408 0.933722 0.376051
1.000000 0.937759 0.376963
0.042164 1.000000 0.374614
0.174772 1.000000 0.375237
0.307381 1.000000 0.375860
0.439989 1.000000 0.376484
0.572598 1.000000 0.377108
0.705206 1.000000 0.377732
0.837815 1.000000 0.378357
0.970423 1.000000 0.378982
1.000000 1.000000 0.380035
0.003512 0.000000 0.459296
0.130252 0.000000 0.460363
0.256993 0.000000 0.461431
0.383733 0.000000 0.462500
0.510474 0.000000 0.463570
0.637214 0.000000 0.464640
0.763955 0.000000 0.465711
0.890696 0.000000 0.466783
1.000000 0.000000 0.467865
0.001101 0.114929 0.463033
0.127832 0.115067 0.464094
0.254563 0.115204 0.465155
0.381294 0.115342 0.466216
0.508025 0.115479 0.467279
0.634756 0.115617 0.468342
0.761487 0.115754 0.469406
0.888218 0.115892 0.470470
1.000000 0.116036 0.471542
0.000000 0.242892 0.466603
0.125245 0.243029 0.467666
0.251976 0.243167 0.468729
0.378707 0.243304 0.469793
0.505438 0.243442 0.470858
0.632169 0.243579 0.471924
0.758900 0.243717 0.472990
0.885631 0.243854 0.474057
1.000000 0.243995 0.475129
0.000000 0.370854 0.470181
0.122658 0.370992 0.471246
0.249389 0.371129 0.472312
0.376120 0.371267 0.473379
0.502851 0.371404 0.474446
0.629582 0.371542 0.475514
0.756313 0.371679 0.476583
0.886538 0.374459 0.478356
1.000000 0.378855 0.480591
0.000000 0.498817 0.473767
0.120071 0.498954 0.474835
0.246802 0.499092 0.475903
0.373533 0.499229 0.476972
0.505789 0.503545 0.479155
0.638102 0.507896 0.481336
0.770650 0.511584 0.481930
0.903198 0.515273 0.482524
1.000000 0.519079 0.483237
0.000000 0.628274 0.477760
0.125041 0.632632 0.479955
0.257440 0.636739 0.481552
0.389988 0.640427 0.482146
0.522536 0.644116 0.482741
0.655084 0.647804 0.483336
0.787632 0.651492 0.483931
0.920180 0.655181 0.484527
1.000000 0.659066 0.485321
0.009326 0.769270 0.482363
0.141874 0.772958 0.482957
0.274422 0.776647 0.483553
0.406970 0.780335 0.484148
0.539518 0.784024 0.484744
0.672066 0.787712 0.485341
0.804614 0.791400 0.485937
0.937162 0.795089 0.486535
1.000000 0.799054 0.487409
0.026308 0.909178 0.484365
0.158856 0.912866 0.484961
0.291404 0.916555 0.485558
0.423952 0.920243 0.486155
0.556500 0.923931 0.486752
0.689048 0.927620 0.487350
0.821596 0.931308 0.487948
0.954144 0.934997 0.488547
1.000000 0.939041 0.489502
0.043920 1.000000 0.487003
0.176529 1.000000 0.487661
0.309137 1.000000 0.488319
0.441746 1.000000 0.488978
0.574354 1.000000 0.489637
0.706963 1.000000 0.490297
0.839571 1.000000 0.490957
0.972179 1.000000 0.491617
1.000000 1.000000 0.492714
0.003272 0.000000 0.573986
0.130013 0.000000 0.575102
0.256753 0.000000 0.576218
0.383494 0.000000 0.577334
0.510234 0.000000 0.578452
0.636975 0.000000 0.579570
0.763715 0.000000 0.580688
0.890456 0.000000 0.581807
1.000000 0.000000 0.582936
0.000858 0.114994 0.577882
0.127589 0.115132 0.578990
0.254320 0.115269 0.580098
0.381051 0.115407 0.581207
0.507782 0.115544 0.582317
0.634513 0.115681 0.583427
0.761244 0.115819 0.584537
0.887975 0.115956 0.585648
1.000000 0.116100 0.586766
0.000000 0.242957 0.581611
0.125002 0.243094 0.582721
0.251733 0.243231 0.583831
0.378464 0.243369 0.584942
0.505195 0.243506 0.586053
0.631926 0.243644 0.587165
0.758657 0.243781 0.588277
0.885388 0.243918 0.589390
1.000000 0.244059 0.590506
0.000000 0.370919 0.585346
0.122415 0.371056 0.586458
0.249146 0.371194 0.587570
0.375877 0.371331 0.588682
0.502608 0.371468 0.589795
0.629339 0.371606 0.590909
0.756069 0.371743 0.592023
0.888189 0.375956 0.594255
1.000000 0.380360 0.596574
0.000000 0.498881 0.589087
0.119828 0.499018 0.590200
0.246559 0.499156 0.591314
0.375130 0.500685 0.592810
0.507440 0.505042 0.595082
0.639834 0.509166 0.596780
0.772382 0.512854 0.597407
0.904930 0.516543 0.598034
1.000000 0.520357 0.598787
0.000000 0.629771 0.593637
0.126692 0.634129 0.595910
0.259172 0.638009 0.597008
0.391720 0.641697 0.597635
0.524268 0.645385 0.598262
0.656816 0.649074 0.598890
0.789364 0.652762 0.599517
0.921912 0.656450 0.600145
1.000000 0.660344 0.600979
0.011057 0.770540 0.597864
0.143605 0.774228 0.598491
0.276153 0.777917 0.599118
0.408701 0.781605 0.599746
0.541249 0.785293 0.600374
0.673797 0.788982 0.601002
0.806345 0.792670 0.601631
0.938893 0.796358 0.602259
1.000000 0.800331 0.603173
0.028039 0.910448 0.599975
0.160587 0.914136 0.600603
0.293135 0.917824 0.601231
0.425683 0.921513 0.601860
0.558231 0.925201 0.602488
0.690779 0.928889 0.603118
0.823327 0.932578 0.603747
0.955875 0.936266 0.604377
1.000000 0.940319 0.605371
0.045672 1.000000 0.602740
0.178281 1.000000 0.603429
0.310889 1.000000 0.604119
0.443497 1.000000 0.604808
0.576106 1.000000 0.605499
0.708714 1.000000 0.606189
0.841322 1.000000 0.606879
0.973931 1.000000 0.607570
1.000000 1.000000 0.608705
0.003029 0.000000 0.691450
0.129770 0.000000 0.692595
0.256510 0.000000 0.693739
0.383251 0.000000 0.694884
0.509991 0.000000 0.696030
0.636731 0.000000 0.697176
0.763472 0.000000 0.698321
0.890212 0.000000 0.699467
1.000000 0.000000 0.700623
0.000611 0.115056 0.695439
0.127342 0.115193 0.696575
0.254073 0.115330 0.697711
0.380804 0.115468 0.698847
0.507535 0.115605 0.699984
0.634266 0.115742 0.701121
0.760997 0.115880 0.702258
0.887728 0.116017 0.703395
1.000000 0.116161 0.704539
0.000000 0.243018 0.699261
0.124755 0.243155 0.700398
0.251486 0.243293 0.701535
0.378217 0.243430 0.702672
0.504948 0.243567 0.703809
0.631679 0.243705 0.704947
0.758410 0.243842 0.706085
0.885141 0.243979 0.707223
1.000000 0.244120 0.708364
0.000000 0.370980 0.703086
0.122168 0.371117 0.704223
0.248899 0.371255 0.705361
0.375630 0.371392 0.706499
0.502361 0.371529 0.707637
0.629092 0.371667 0.708776
0.757526 0.373093 0.710273
0.889837 0.377450 0.712587
1.000000 0.381644 0.714413
0.000000 0.498942 0.706913
0.119581 0.499079 0.708051
0.246312 0.499217 0.709190
0.376778 0.502179 0.711115
0.509088 0.506536 0.713430
0.641562 0.510433 0.714593
0.774110 0.514121 0.715237
0.906658 0.517809 0.715882
1.000000 0.521631 0.716660
0.000000 0.631265 0.711958
0.128352 0.635587 0.714184
0.260900 0.639275 0.714828
0.393448 0.642964 0.715472
0.525996 0.646652 0.716116
0.658544 0.650340 0.716761
0.791092 0.654029 0.717405
0.923640 0.657717 0.718050
1.000000 0.661619 0.718908
0.012786 0.771806 0.715707
0.145334 0.775495 0.716351
0.277882 0.779183 0.716995
0.410430 0.782871 0.717640
0.542978 0.786560 0.718284
0.675526 0.790248 0.718929
0.808074 0.793936 0.719574
0.940621 0.797625 0.720219
1.000000 0.801606 0.721156
0.029767 0.911714 0.717874
0.162315 0.915403 0.718519
0.294863 0.919091 0.719164
0.427411 0.922779 0.719809
0.559959 0.926467 0.720454
0.692507 0.930156 0.721099
0.825055 0.933844 0.721744
0.957603 0.937532 0.722389
1.000000 0.941593 0.723406
0.047421 1.000000 0.720715
0.180029 1.000000 0.721421
0.312638 1.000000 0.722126
0.445246 1.000000 0.722831
0.577854 1.000000 0.723537
0.710463 1.000000 0.724243
0.843071 1.000000 0.724948
0.975679 1.000000 0.725654
1.000000 1.000000 0.726812
0.002784 0.000000 0.810244
0.129525 0.000000 0.811397
0.256265 0.000000 0.812549
0.383005 0.000000 0.813702
0.509746 0.000000 0.814855
0.636486 0.000000 0.816008
0.763227 0.000000 0.817161
0.889967 0.000000 0.818313
1.000000 0.000000 0.819475
0.000363 0.115115 0.814256
0.127094 0.115253 0.815399
0.253825 0.115390 0.816543
0.380556 0.115527 0.817686
0.507287 0.115665 0.818829
0.634018 0.115802 0.819972
0.760749 0.115939 0.821115
0.887479 0.116077 0.822258
1.000000 0.116220 0.823407
0.000000 0.243077 0.818102
0.124507 0.243215 0.819245
0.251238 0.243352 0.820388
0.377969 0.243489 0.821531
0.504699 0.243627 0.822674
0.631430 0.243764 0.823817
0.758161 0.243901 0.824960
0.884892 0.244039 0.826103
1.000000 0.244179 0.827248
0.000000 0.371039 0.821947
0.121919 0.371177 0.823090
0.248650 0.371314 0.824233
0.375381 0.371451 0.825376
0.502112 0.371589 0.826519
0.628843 0.371726 0.827661
0.759173 0.374585 0.829564
0.891483 0.378942 0.831884
1.000000 0.382918 0.833154
0.000000 0.499001 0.825792
0.119332 0.499139 0.826935
0.246114 0.499314 0.828088
0.378424 0.503672 0.830408
0.510741 0.508010 0.832681
0.643289 0.511698 0.833327
0.775837 0.515386 0.833973
0.908385 0.519074 0.834619
1.000000 0.522905 0.835407
0.000000 0.632758 0.831253
0.130079 0.636852 0.832916
0.262627 0.640541 0.833562
0.395175 0.644229 0.834208
0.527723 0.647917 0.834854
0.660271 0.651606 0.835500
0.792819 0.655294 0.836146
0.925367 0.658982 0.836792
1.000000 0.662892 0.837659
0.014513 0.773072 0.834444
0.147061 0.776760 0.835090
0.279609 0.780448 0.835736
0.412157 0.784137 0.836381
0.544705 0.787825 0.837027
0.677253 0.791513 0.837673
0.809801 0.795202 0.838319
0.942349 0.798890 0.838964
1.000000 0.802879 0.839911
0.031494 0.912979 0.836617
0.164042 0.916668 0.837263
0.296590 0.920356 0.837908
0.429138 0.924044 0.838554
0.561686 0.927733 0.839199
0.694234 0.931421 0.839845
0.826782 0.935109 0.840491
0.959330 0.938798 0.841136
1.000000 0.942866 0.842161
0.049168 1.000000 0.839481
0.181777 1.000000 0.840187
0.314385 1.000000 0.840893
0.446993 1.000000 0.841599
0.579602 1.000000 0.842305
0.712210 1.000000 0.843010
0.844819 1.000000 0.843716
0.977427 1.000000 0.844421
1.000000 1.000000 0.845586
0.002539 0.000000 0.928914
0.129280 0.000000 0.930054
0.256020 0.000000 0.931195
0.382761 0.000000 0.932335
0.509501 0.000000 0.933475
0.636242 0.000000 0.934614
0.762982 0.000000 0.935753
0.889723 0.000000 0.936892
1.000000 0.000000 0.938039
0.000115 0.115175 0.932881
0.126846 0.115312 0.934011
0.253577 0.115450 0.935141
0.380308 0.115587 0.936270
0.507039 0.115724 0.937399
0.633770 0.115862 0.938528
0.760501 0.115999 0.939656
0.887231 0.116137 0.940785
1.000000 0.116279 0.941918
0.000000 0.243137 0.936681
0.124259 0.243274 0.937810
0.250990 0.243412 0.938939
0.377721 0.243549 0.940067
0.504452 0.243687 0.941195
0.631182 0.243824 0.942323
0.757913 0.243961 0.943450
0.884644 0.244099 0.944577
1.000000 0.244238 0.945706
0.000000 0.371099 0.940478
0.121672 0.371237 0.941606
0.248402 0.371374 0.942733
0.375133 0.371511 0.943860
0.501864 0.371649 0.944987
0.628595 0.371786 0.946113
0.760820 0.376078 0.948387
0.893135 0.380436 0.948191
1.000000 0.384197 0.947646
0.000000 0.499061 0.944270
0.119084 0.499199 0.945397
0.247761 0.500807 0.946930
0.380072 0.505166 0.948588
0.512473 0.509280 0.947967
0.645023 0.512970 0.947352
0.777573 0.516660 0.946736
0.910122 0.520350 0.946121
1.000000 0.524190 0.945655
0.000000 0.634253 0.948361
0.131812 0.638123 0.947743
0.264361 0.641813 0.947128
0.396911 0.645503 0.946512
0.529461 0.649194 0.945897
0.662011 0.652884 0.945281
0.794560 0.656574 0.944666
0.927110 0.660264 0.944050
1.000000 0.664183 0.943664
0.016250 0.774347 0.946288
0.148799 0.778037 0.945673
0.281349 0.781727 0.945057
0.413899 0.785417 0.944442
0.546449 0.789107 0.943826
0.678998 0.792797 0.943211
0.811548 0.796487 0.942595
0.944098 0.800178 0.941980
1.000000 0.804176 0.941673
0.033237 0.914261 0.944218
0.165787 0.917951 0.943602
0.298337 0.921641 0.942987
0.430887 0.925331 0.942371
0.563436 0.929021 0.941756
0.695986 0.932711 0.941140
0.828536 0.936401 0.940525
0.961086 0.940091 0.939909
1.000000 0.944170 0.939682
0.050938 1.000000 0.942860
0.183548 1.000000 0.942305
0.316158 1.000000 0.941750
0.448768 1.000000 0.941194
0.581378 1.000000 0.940639
0.713988 1.000000 0.940084
0.846599 1.000000 0.939529
0.979209 1.000000 0.938974
1.000000 1.000000 0.938887
