resources/luts/golden_memory.cube
TITLE "Golden Memory"
LUT_3D_SIZE 5
DOMAIN_MIN 0.000000 0.000000 0.000000
DOMAIN_MAX 1.000000 1.000000 1.000000
0.004397 0.000000 0.050909
0.257883 0.000000 0.049848
0.511368 0.000000 0.048787
0.764854 0.000000 0.047726
1.000000 0.000000 0.046676
0.000000 0.242574 0.047464
0.252894 0.242854 0.046384
0.506361 0.243133 0.045304
0.759827 0.243413 0.044224
1.000000 0.243697 0.043148
0.000000 0.498514 0.043830
0.247736 0.498794 0.042750
0.501202 0.499073 0.041670
0.763775 0.506240 0.041815
1.000000 0.513936 0.043544
0.002367 0.764159 0.042757
0.267464 0.771536 0.043859
0.532560 0.778912 0.044962
0.797656 0.786289 0.046063
1.000000 0.793911 0.047408
0.036880 1.000000 0.047012
0.302097 1.000000 0.048233
0.567315 1.000000 0.049453
0.832531 1.000000 0.050672
1.000000 1.000000 0.052294
0.003978 0.000000 0.238503
0.257459 0.000000 0.240523
0.510940 0.000000 0.242544
0.764422 0.000000 0.244564
1.000000 0.000000 0.246596
0.000000 0.242749 0.245418
0.252449 0.243024 0.247421
0.505912 0.243300 0.249424
0.759374 0.243575 0.251428
1.000000 0.243854 0.253437
0.000000 0.498675 0.252158
0.247276 0.498950 0.254162
0.502474 0.500538 0.256502
0.767174 0.509032 0.260148
1.000000 0.516510 0.261334
0.005849 0.766717 0.260543
0.270946 0.774094 0.261627
0.536042 0.781471 0.262713
0.801138 0.788848 0.263799
1.000000 0.796486 0.265146
0.040404 1.000000 0.264784
0.305621 1.000000 0.265991
0.570838 1.000000 0.267199
0.836055 1.000000 0.268407
1.000000 1.000000 0.270035
0.003512 0.000000 0.459296
0.256993 0.000000 0.461431
0.510474 0.000000 0.463570
0.763955 0.000000 0.465711
1.000000 0.000000 0.467865
0.000000 0.242892 0.466603
0.251976 0.243167 0.468729
0.505438 0.243442 0.470858
0.758900 0.243717 0.472990
1.000000 0.243995 0.475129
0.000000 0.498817 0.473767
0.246802 0.499092 0.475903
0.505789 0.503545 0.479155
0.770650 0.511584 0.481930
1.000000 0.519079 0.483237
0.009326 0.769270 0.482363
0.274422 0.776647 0.483553
0.539518 0.784024 0.484744
0.804614 0.791400 0.485937
1.000000 0.799054 0.487409
0.043920 1.000000 0.487003
0.309137 1.000000 0.488319
0.574354 1.000000 0.489637
0.839571 1.000000 0.490957
1.000000 1.000000 0.492714
0.003029 0.000000 0.691450
0.256510 0.000000 0.693739
0.509991 0.000000 0.696030
0.763472 0.000000 0.698321
1.000000 0.000000 0.700623
0.000000 0.243018 0.699261
0.251486 0.243293 0.701535
0.504948 0.243567 0.703809
0.758410 0.243842 0.706085
1.000000 0.244120 0.708364
0.000000 0.498942 0.706913
0.246312 0.499217 0.709190
0.509088 0.506536 0.713430
0.774110 0.514121 0.715237
1.000000 0.521631 0.716660
0.012786 0.771806 0.715707
0.277882 0.779183 0.716995
0.542978 0.786560 0.718284
0.808074 0.793936 0.719574
1.000000 0.801606 0.721156
0.047421 1.000000 0.720715
0.312638 1.000000 0.722126
0.577854 1.000000 0.723537
0.843071 1.000000 0.724948
1.000000 1.000000 0.726812
0.002539 0.000000 0.928914
0.256020 0.000000 0.931195
0.509501 0.000000 0.933475
0.762982 0.000000 0.935753
1.000000 0.000000 0.938039
0.000000 0.243137 0.936681
0.250990 0.243412 0.938939
0.504452 0.243687 0.941195
0.757913 0.243961 0.943450
1.000000 0.244238 0.945706
0.000000 0.499061 0.944270
0.247761 0.500807 0.946930
0.512473 0.509280 0.947967
0.777573 0.516660 0.946736
1.000000 0.524190 0.945655
0.016250 0.774347 0.946288
0.281349 0.781727 0.945057
0.546449 0.789107 0.943826
0.811548 0.796487 0.942595
1.000000 0.804176 0.941673
0.050938 1.000000 0.942860
0.316158 1.000000 0.941750
0.581378 1.000000 0.940639
0.846599 1.000000 0.939529
1.000000 1.000000 0.938887
