resources/luts/golden_memory.cube
TITLE "Golden Memory"
LUT_3D_SIZE 33
DOMAIN_MIN 0.000000 0.000000 0.000000
DOMAIN_MAX 1.000000 1.000000 1.000000
0.004397 0.000000 0.050909
0.036083 0.000000 0.050776
0.067768 0.000000 0.050644
0.099454 0.000000 0.050511
0.131140 0.000000 0.050379
0.162826 0.000000 0.050246
0.194511 0.000000 0.050113
0.226197 0.000000 0.049981
0.257883 0.000000 0.049848
0.289568 0.000000 0.049715
0.321254 0.000000 0.049583
0.352940 0.000000 0.049450
0.384626 0.000000 0.049317
0.416311 0.000000 0.049185
0.447997 0.000000 0.049052
0.479683 0.000000 0.048920
0.511368 0.000000 0.048787
0.543054 0.000000 0.048654
0.574740 0.000000 0.048522
0.606426 0.000000 0.048389
0.638111 0.000000 0.048256
0.669797 0.000000 0.048124
0.701483 0.000000 0.047991
0.733168 0.000000 0.047858
0.764854 0.000000 0.047726
0.796540 0.000000 0.047593
0.828225 0.000000 0.047460
0.859911 0.000000 0.047328
0.891597 0.000000 0.047195
0.923283 0.000000 0.047063
0.954968 0.000000 0.046930
0.986654 0.000000 0.046797
1.000000 0.000000 0.046676
0.003941 0.018626 0.050644
0.035624 0.018661 0.050509
0.067308 0.018696 0.050374
0.098991 0.018731 0.050239
0.130674 0.018766 0.050104
0.162358 0.018801 0.049969
0.194041 0.018836 0.049834
0.225724 0.018871 0.049699
0.257408 0.018906 0.049564
0.289091 0.018941 0.049428
0.320774 0.018976 0.049293
0.352458 0.019011 0.049158
0.384141 0.019046 0.049023
0.415824 0.019081 0.048888
0.447508 0.019116 0.048753
0.479191 0.019150 0.048618
0.510874 0.019185 0.048483
0.542558 0.019220 0.048348
0.574241 0.019255 0.048213
0.605924 0.019290 0.048078
0.637608 0.019325 0.047943
0.669291 0.019360 0.047808
0.700974 0.019395 0.047673
0.732658 0.019430 0.047538
0.764341 0.019465 0.047403
0.796024 0.019500 0.047268
0.827708 0.019535 0.047133
0.859391 0.019570 0.046998
0.891074 0.019605 0.046863
0.922758 0.019640 0.046728
0.954441 0.019674 0.046593
0.986124 0.019709 0.046458
1.000000 0.019755 0.046333
0.003296 0.050619 0.050189
0.034980 0.050654 0.050054
0.066663 0.050689 0.049919
0.098346 0.050724 0.049784
0.130030 0.050759 0.049649
0.161713 0.050794 0.049514
0.193396 0.050829 0.049379
0.225080 0.050864 0.049244
0.256763 0.050898 0.049109
0.288446 0.050933 0.048974
0.320130 0.050968 0.048839
0.351813 0.051003 0.048704
0.383496 0.051038 0.048569
0.415180 0.051073 0.048434
0.446863 0.051108 0.048299
0.478546 0.051143 0.048164
0.510229 0.051178 0.048029
0.541913 0.051213 0.047894
0.573596 0.051248 0.047759
0.605279 0.051283 0.047624
0.636963 0.051318 0.047489
0.668646 0.051353 0.047354
0.700329 0.051388 0.047219
0.732013 0.051422 0.047084
0.763696 0.051457 0.046949
0.795379 0.051492 0.046814
0.827063 0.051527 0.046679
0.858746 0.051562 0.046544
0.890429 0.051597 0.046409
0.922113 0.051632 0.046274
0.953796 0.051667 0.046139
0.985479 0.051702 0.046004
1.000000 0.051746 0.045878
0.002651 0.082611 0.049735
0.034335 0.082646 0.049600
0.066018 0.082681 0.049465
0.097701 0.082716 0.049330
0.129385 0.082751 0.049195
0.161068 0.082786 0.049060
0.192751 0.082821 0.048925
0.224435 0.082856 0.048790
0.256118 0.082891 0.048655
0.287801 0.082926 0.048520
0.319485 0.082961 0.048385
0.351168 0.082996 0.048250
0.382851 0.083031 0.048115
0.414535 0.083066 0.047980
0.446218 0.083101 0.047845
0.477901 0.083136 0.047710
0.509585 0.083170 0.047575
0.541268 0.083205 0.047440
0.572951 0.083240 0.047305
0.604635 0.083275 0.047170
0.636318 0.083310 0.047035
0.668001 0.083345 0.046900
0.699685 0.083380 0.046765
0.731368 0.083415 0.046630
0.763051 0.083450 0.046495
0.794735 0.083485 0.046360
0.826418 0.083520 0.046225
0.858101 0.083555 0.046090
0.889785 0.083590 0.045955
0.921468 0.083625 0.045820
0.953151 0.083660 0.045685
0.984835 0.083694 0.045550
1.000000 0.083738 0.045423
0.002007 0.114604 0.049281
0.033690 0.114639 0.049146
0.065373 0.114674 0.049011
0.097057 0.114709 0.048876
0.128740 0.114744 0.048741
0.160423 0.114779 0.048606
0.192107 0.114814 0.048471
0.223790 0.114849 0.048336
0.255473 0.114883 0.048201
0.287157 0.114918 0.048066
0.318840 0.114953 0.047931
0.350523 0.114988 0.047796
0.382207 0.115023 0.047661
0.413890 0.115058 0.047526
0.445573 0.115093 0.047391
0.477257 0.115128 0.047256
0.508940 0.115163 0.047121
0.540623 0.115198 0.046986
0.572307 0.115233 0.046851
0.603990 0.115268 0.046716
0.635673 0.115303 0.046581
0.667356 0.115338 0.046446
0.699040 0.115373 0.046311
0.730723 0.115408 0.046175
0.762406 0.115442 0.046040
0.794090 0.115477 0.045905
0.825773 0.115512 0.045770
0.857456 0.115547 0.045635
0.889140 0.115582 0.045500
0.920823 0.115617 0.045365
0.952506 0.115652 0.045230
0.984190 0.115687 0.045095
1.000000 0.115730 0.044968
0.001362 0.146597 0.048827
0.033045 0.146631 0.048692
0.064729 0.146666 0.048557
0.096412 0.146701 0.048422
0.128095 0.146736 0.048287
0.159778 0.146771 0.048152
0.191462 0.146806 0.048017
0.223145 0.146841 0.047882
0.254828 0.146876 0.047747
0.286512 0.146911 0.047612
0.318195 0.146946 0.047477
0.349878 0.146981 0.047342
0.381562 0.147016 0.047207
0.413245 0.147051 0.047072
0.444928 0.147086 0.046936
0.476612 0.147121 0.046801
0.508295 0.147155 0.046666
0.539978 0.147190 0.046531
0.571662 0.147225 0.046396
0.603345 0.147260 0.046261
0.635028 0.147295 0.046126
0.666712 0.147330 0.045991
0.698395 0.147365 0.045856
0.730078 0.147400 0.045721
0.761762 0.147435 0.045586
0.793445 0.147470 0.045451
0.825128 0.147505 0.045316
0.856812 0.147540 0.045181
0.888495 0.147575 0.045046
0.920178 0.147610 0.044911
0.951862 0.147645 0.044776
0.983545 0.147680 0.044641
1.000000 0.147722 0.044513
0.000717 0.178589 0.048373
0.032400 0.178624 0.048238
0.064084 0.178659 0.048103
0.095767 0.178694 0.047967
0.127450 0.178729 0.047832
0.159134 0.178764 0.047697
0.190817 0.178799 0.047562
0.222500 0.178834 0.047427
0.254184 0.178869 0.047292
0.285867 0.178903 0.047157
0.317550 0.178938 0.047022
0.349234 0.178973 0.046887
0.380917 0.179008 0.046752
0.412600 0.179043 0.046617
0.444284 0.179078 0.046482
0.475967 0.179113 0.046347
0.507650 0.179148 0.046212
0.539334 0.179183 0.046077
0.571017 0.179218 0.045942
0.602700 0.179253 0.045807
0.634384 0.179288 0.045672
0.666067 0.179323 0.045537
0.697750 0.179358 0.045402
0.729434 0.179393 0.045267
0.761117 0.179428 0.045132
0.792800 0.179462 0.044997
0.824483 0.179497 0.044862
0.856167 0.179532 0.044727
0.887850 0.179567 0.044592
0.919533 0.179602 0.044457
0.951217 0.179637 0.044322
0.982900 0.179672 0.044187
1.000000 0.179713 0.044058
0.000072 0.210582 0.047918
0.031756 0.210616 0.047783
0.063439 0.210651 0.047648
0.095122 0.210686 0.047513
0.126806 0.210721 0.047378
0.158489 0.210756 0.047243
0.190172 0.210791 0.047108
0.221856 0.210826 0.046973
0.253539 0.210861 0.046838
0.285222 0.210896 0.046703
0.316905 0.210931 0.046568
0.348589 0.210966 0.046433
0.380272 0.211001 0.046298
0.411955 0.211036 0.046163
0.443639 0.211071 0.046028
0.475322 0.211106 0.045893
0.507005 0.211141 0.045758
0.538689 0.211175 0.045623
0.570372 0.211210 0.045488
0.602055 0.211245 0.045353
0.633739 0.211280 0.045218
0.665422 0.211315 0.045083
0.697105 0.211350 0.044948
0.728789 0.211385 0.044813
0.760472 0.211420 0.044678
0.792155 0.211455 0.044543
0.823839 0.211490 0.044408
0.855522 0.211525 0.044273
0.887205 0.211560 0.044138
0.918889 0.211595 0.044003
0.950572 0.211630 0.043868
0.982255 0.211665 0.043733
1.000000 0.211705 0.043603
0.000000 0.242574 0.047464
0.031111 0.242609 0.047329
0.062794 0.242644 0.047194
0.094477 0.242679 0.047059
0.126161 0.242714 0.046924
0.157844 0.242749 0.046789
0.189527 0.242784 0.046654
0.221211 0.242819 0.046519
0.252894 0.242854 0.046384
0.284577 0.242889 0.046249
0.316261 0.242923 0.046114
0.347944 0.242958 0.045979
0.379627 0.242993 0.045844
0.411311 0.243028 0.045709
0.442994 0.243063 0.045574
0.474677 0.243098 0.045439
0.506361 0.243133 0.045304
0.538044 0.243168 0.045169
0.569727 0.243203 0.045034
0.601411 0.243238 0.044899
0.633094 0.243273 0.044764
0.664777 0.243308 0.044629
0.696461 0.243343 0.044494
0.728144 0.243378 0.044359
0.759827 0.243413 0.044224
0.791511 0.243447 0.044089
0.823194 0.243482 0.043954
0.854877 0.243517 0.043819
0.886560 0.243552 0.043683
0.918244 0.243587 0.043548
0.949927 0.243622 0.043413
0.981611 0.243657 0.043278
1.000000 0.243697 0.043148
0.000000 0.274567 0.047010
0.030466 0.274602 0.046875
0.062149 0.274637 0.046740
0.093833 0.274671 0.046605
0.125516 0.274706 0.046470
0.157199 0.274741 0.046335
0.188883 0.274776 0.046200
0.220566 0.274811 0.046065
0.252249 0.274846 0.045930
0.283933 0.274881 0.045795
0.315616 0.274916 0.045660
0.347299 0.274951 0.045525
0.378983 0.274986 0.045390
0.410666 0.275021 0.045255
0.442349 0.275056 0.045120
0.474033 0.275091 0.044985
0.505716 0.275126 0.044850
0.537399 0.275161 0.044715
0.569082 0.275195 0.044580
0.600766 0.275230 0.044445
0.632449 0.275265 0.044309
0.664132 0.275300 0.044174
0.695816 0.275335 0.044039
0.727499 0.275370 0.043904
0.759182 0.275405 0.043769
0.790866 0.275440 0.043634
0.822549 0.275475 0.043499
0.854232 0.275510 0.043364
0.885916 0.275545 0.043229
0.917599 0.275580 0.043094
0.949282 0.275615 0.042959
0.980966 0.275650 0.042824
1.000000 0.275689 0.042693
0.000000 0.306559 0.046556
0.029821 0.306594 0.046421
0.061504 0.306629 0.046286
0.093188 0.306664 0.046151
0.124871 0.306699 0.046016
0.156554 0.306734 0.045881
0.188238 0.306769 0.045746
0.219921 0.306804 0.045611
0.251604 0.306839 0.045475
0.283288 0.306874 0.045340
0.314971 0.306909 0.045205
0.346654 0.306943 0.045070
0.378338 0.306978 0.044935
0.410021 0.307013 0.044800
0.441704 0.307048 0.044665
0.473388 0.307083 0.044530
0.505071 0.307118 0.044395
0.536754 0.307153 0.044260
0.568438 0.307188 0.044125
0.600121 0.307223 0.043990
0.631804 0.307258 0.043855
0.663488 0.307293 0.043720
0.695171 0.307328 0.043585
0.726854 0.307363 0.043450
0.758538 0.307398 0.043315
0.790221 0.307433 0.043180
0.821904 0.307467 0.043045
0.853588 0.307502 0.042910
0.885271 0.307537 0.042775
0.916954 0.307572 0.042640
0.948638 0.307607 0.042505
0.980321 0.307642 0.042370
1.000000 0.307680 0.042238
0.000000 0.338552 0.046101
0.029176 0.338587 0.045966
0.060860 0.338622 0.045831
0.092543 0.338656 0.045696
0.124226 0.338691 0.045561
0.155910 0.338726 0.045426
0.187593 0.338761 0.045291
0.219276 0.338796 0.045156
0.250960 0.338831 0.045021
0.282643 0.338866 0.044886
0.314326 0.338901 0.044751
0.346010 0.338936 0.044616
0.377693 0.338971 0.044481
0.409376 0.339006 0.044346
0.441060 0.339041 0.044211
0.472743 0.339076 0.044076
0.504426 0.339111 0.043941
0.536110 0.339146 0.043806
0.567793 0.339181 0.043671
0.599476 0.339215 0.043536
0.631160 0.339250 0.043401
0.662843 0.339285 0.043266
0.694526 0.339320 0.043131
0.726210 0.339355 0.042996
0.757893 0.339390 0.042861
0.789576 0.339425 0.042726
0.821259 0.339460 0.042591
0.852943 0.339495 0.042456
0.884626 0.339530 0.042321
0.916309 0.339565 0.042186
0.947993 0.339600 0.042051
0.979676 0.339635 0.041916
1.000000 0.339672 0.041783
0.000000 0.370544 0.045647
0.028532 0.370579 0.045512
0.060215 0.370614 0.045377
0.091898 0.370649 0.045242
0.123582 0.370684 0.045107
0.155265 0.370719 0.044972
0.186948 0.370754 0.044837
0.218632 0.370789 0.044702
0.250315 0.370824 0.044567
0.281998 0.370859 0.044432
0.313681 0.370894 0.044297
0.345365 0.370928 0.044162
0.377048 0.370963 0.044027
0.408731 0.370998 0.043892
0.440415 0.371033 0.043757
0.472098 0.371068 0.043622
0.503781 0.371103 0.043487
0.535465 0.371138 0.043352
0.567148 0.371173 0.043217
0.598831 0.371208 0.043082
0.630515 0.371243 0.042947
0.662198 0.371278 0.042812
0.693881 0.371313 0.042677
0.725565 0.371348 0.042542
0.757248 0.371383 0.042407
0.788931 0.371418 0.042272
0.820615 0.371453 0.042137
0.852298 0.371487 0.042002
0.883981 0.371522 0.041867
0.915665 0.371557 0.041732
0.947348 0.371592 0.041597
0.979130 0.371702 0.041460
1.000000 0.372800 0.041312
0.000000 0.402537 0.045193
0.027887 0.402572 0.045058
0.059570 0.402607 0.044923
0.091253 0.402642 0.044788
0.122937 0.402676 0.044653
0.154620 0.402711 0.044518
0.186303 0.402746 0.044383
0.217987 0.402781 0.044248
0.249670 0.402816 0.044113
0.281353 0.402851 0.043978
0.313037 0.402886 0.043843
0.344720 0.402921 0.043708
0.376403 0.402956 0.043573
0.408087 0.402991 0.043438
0.439770 0.403026 0.043303
0.471453 0.403061 0.043168
0.503137 0.403096 0.043033
0.534820 0.403131 0.042898
0.566503 0.403166 0.042763
0.598187 0.403201 0.042628
0.629870 0.403235 0.042493
0.661553 0.403270 0.042358
0.693237 0.403305 0.042223
0.724920 0.403340 0.042087
0.756603 0.403375 0.041952
0.788287 0.403410 0.041817
0.819970 0.403445 0.041682
0.851653 0.403480 0.041547
0.883944 0.403974 0.041403
0.917022 0.405064 0.041247
0.950101 0.406155 0.041091
0.983180 0.407245 0.040935
1.000000 0.408363 0.040806
0.000000 0.434529 0.044739
0.027242 0.434564 0.044604
0.058925 0.434599 0.044469
0.090609 0.434634 0.044334
0.122292 0.434669 0.044199
0.153975 0.434704 0.044064
0.185659 0.434739 0.043929
0.217342 0.434774 0.043794
0.249025 0.434809 0.043659
0.280709 0.434844 0.043524
0.312392 0.434879 0.043389
0.344075 0.434914 0.043254
0.375758 0.434948 0.043119
0.407442 0.434983 0.042984
0.439125 0.435018 0.042848
0.470808 0.435053 0.042713
0.502492 0.435088 0.042578
0.534175 0.435123 0.042443
0.565858 0.435158 0.042308
0.597542 0.435193 0.042173
0.629225 0.435228 0.042038
0.660908 0.435263 0.041903
0.692592 0.435298 0.041768
0.724275 0.435333 0.041633
0.755958 0.435368 0.041498
0.788757 0.436246 0.041346
0.821835 0.437336 0.041190
0.854914 0.438427 0.041034
0.887993 0.439517 0.040878
0.921071 0.440607 0.040908
0.954149 0.441697 0.041433
0.987226 0.442786 0.041958
1.000000 0.443921 0.042529
0.000000 0.466522 0.044285
0.026597 0.466557 0.044150
0.058280 0.466592 0.044015
0.089964 0.466627 0.043880
0.121647 0.466662 0.043744
0.153330 0.466696 0.043609
0.185014 0.466731 0.043474
0.216697 0.466766 0.043339
0.248380 0.466801 0.043204
0.280064 0.466836 0.043069
0.311747 0.466871 0.042934
0.343430 0.466906 0.042799
0.375114 0.466941 0.042664
0.406797 0.466976 0.042529
0.438480 0.467011 0.042394
0.470164 0.467046 0.042259
0.501847 0.467081 0.042124
0.533530 0.467116 0.041989
0.565214 0.467151 0.041854
0.596897 0.467186 0.041719
0.628580 0.467220 0.041584
0.660491 0.467428 0.041446
0.693570 0.468518 0.041290
0.726649 0.469608 0.041134
0.759727 0.470699 0.040978
0.792806 0.471789 0.040822
0.825884 0.472879 0.041099
0.858962 0.473968 0.041624
0.892039 0.475058 0.042149
0.925131 0.476107 0.042581
0.958268 0.477029 0.042718
0.991405 0.477951 0.042856
1.000000 0.478939 0.043060
0.000000 0.498514 0.043830
0.025952 0.498549 0.043695
0.057636 0.498584 0.043560
0.089319 0.498619 0.043425
0.121002 0.498654 0.043290
0.152686 0.498689 0.043155
0.184369 0.498724 0.043020
0.216052 0.498759 0.042885
0.247736 0.498794 0.042750
0.279419 0.498829 0.042615
0.311102 0.498864 0.042480
0.342786 0.498899 0.042345
0.374469 0.498934 0.042210
0.406152 0.498968 0.042075
0.437836 0.499003 0.041940
0.469519 0.499038 0.041805
0.501202 0.499073 0.041670
0.532885 0.499108 0.041535
0.565305 0.499700 0.041389
0.598383 0.500790 0.041233
0.631462 0.501880 0.041077
0.664541 0.502971 0.040921
0.697619 0.504061 0.040765
0.730697 0.505150 0.041290
0.763775 0.506240 0.041815
0.796852 0.507329 0.042340
0.829966 0.508317 0.042631
0.863103 0.509239 0.042769
0.896240 0.510161 0.042907
0.929377 0.511084 0.043044
0.962514 0.512006 0.043182
0.995651 0.512928 0.043320
1.000000 0.513936 0.043544
0.000000 0.530507 0.043376
0.025308 0.530542 0.043241
0.056991 0.530577 0.043106
0.088674 0.530612 0.042971
0.120357 0.530647 0.042836
0.152041 0.530681 0.042701
0.183724 0.530716 0.042566
0.215407 0.530751 0.042431
0.247091 0.530786 0.042296
0.278774 0.530821 0.042161
0.310457 0.530856 0.042026
0.342141 0.530891 0.041891
0.373824 0.530926 0.041756
0.405507 0.530961 0.041621
0.437191 0.530996 0.041486
0.470118 0.531972 0.041332
0.503196 0.533062 0.041176
0.536275 0.534152 0.041020
0.569354 0.535243 0.040864
0.602432 0.536333 0.040956
0.635510 0.537422 0.041481
0.668587 0.538511 0.042006
0.701665 0.539601 0.042531
0.734800 0.540528 0.042681
0.767937 0.541450 0.042819
0.801074 0.542372 0.042957
0.834211 0.543294 0.043095
0.867348 0.544216 0.043233
0.900485 0.545138 0.043370
0.933622 0.546061 0.043508
0.966759 0.546983 0.043646
0.999897 0.547905 0.043784
1.000000 0.548933 0.044027
0.000000 0.562499 0.042922
0.024663 0.562534 0.042787
0.056346 0.562569 0.042652
0.088029 0.562604 0.042517
0.119713 0.562639 0.042382
0.151396 0.562674 0.042247
0.183079 0.562709 0.042112
0.214763 0.562744 0.041977
0.246446 0.562779 0.041842
0.278129 0.562814 0.041707
0.309813 0.562849 0.041572
0.341852 0.563153 0.041431
0.374931 0.564244 0.041275
0.408010 0.565334 0.041119
0.441088 0.566424 0.040963
0.474167 0.567515 0.040807
0.507245 0.568604 0.041147
0.540323 0.569694 0.041672
0.573400 0.570783 0.042197
0.606498 0.571817 0.042593
0.639635 0.572739 0.042731
0.672772 0.573661 0.042869
0.705909 0.574583 0.043007
0.739046 0.575505 0.043145
0.772183 0.576427 0.043283
0.805320 0.577349 0.043421
0.838457 0.578271 0.043558
0.871594 0.579193 0.043696
0.904731 0.580116 0.043834
0.937868 0.581038 0.043972
0.971005 0.581960 0.044110
1.000000 0.582882 0.044247
1.000000 0.583929 0.044511
0.000000 0.594492 0.042468
0.024018 0.594527 0.042333
0.055701 0.594562 0.042198
0.087385 0.594597 0.042063
0.119068 0.594632 0.041928
0.150751 0.594667 0.041793
0.182435 0.594702 0.041658
0.214118 0.594736 0.041523
0.246666 0.595425 0.041375
0.279744 0.596515 0.041218
0.312823 0.597606 0.041062
0.345901 0.598696 0.040906
0.378980 0.599786 0.040814
0.412058 0.600876 0.041339
0.445135 0.601965 0.041864
0.478213 0.603055 0.042388
0.511332 0.604027 0.042643
0.544469 0.604949 0.042781
0.577606 0.605871 0.042919
0.610743 0.606794 0.043057
0.643880 0.607716 0.043195
0.677017 0.608638 0.043333
0.710154 0.609560 0.043471
0.743291 0.610482 0.043609
0.776428 0.611404 0.043746
0.809565 0.612326 0.043884
0.842702 0.613248 0.044022
0.875839 0.614170 0.044160
0.908976 0.615093 0.044298
0.942114 0.616015 0.044435
0.975251 0.616937 0.044573
1.000000 0.617866 0.044717
1.000000 0.618926 0.044994
0.000000 0.626484 0.042013
0.023373 0.626519 0.041878
0.055056 0.626554 0.041743
0.086740 0.626589 0.041608
0.118423 0.626624 0.041473
0.151479 0.627697 0.041318
0.184557 0.628788 0.041162
0.217636 0.629878 0.041006
0.250715 0.630968 0.040850
0.283793 0.632058 0.041005
0.316871 0.633147 0.041530
0.349948 0.634237 0.042055
0.383030 0.635316 0.042556
0.416167 0.636238 0.042694
0.449304 0.637160 0.042832
0.482441 0.638082 0.042969
0.515578 0.639004 0.043107
0.548715 0.639926 0.043245
0.581852 0.640849 0.043383
0.614989 0.641771 0.043521
0.648126 0.642693 0.043659
0.681263 0.643615 0.043797
0.714400 0.644537 0.043934
0.747537 0.645459 0.044072
0.780674 0.646381 0.044210
0.813811 0.647303 0.044348
0.846948 0.648225 0.044485
0.880085 0.649148 0.044623
0.913222 0.650070 0.044761
0.946359 0.650992 0.044899
0.979496 0.651914 0.045036
1.000000 0.652862 0.045201
1.000000 0.653923 0.045477
0.000000 0.658477 0.041559
0.023213 0.658879 0.041417
0.056292 0.659969 0.041261
0.089371 0.661059 0.041105
0.122449 0.662150 0.040949
0.155528 0.663240 0.040793
0.188606 0.664330 0.041196
0.221683 0.665419 0.041721
0.254761 0.666508 0.042246
0.287864 0.667527 0.042606
0.321001 0.668449 0.042744
0.354138 0.669371 0.042882
0.387275 0.670293 0.043020
0.420412 0.671215 0.043158
0.453549 0.672137 0.043295
0.486686 0.673059 0.043433
0.519823 0.673981 0.043571
0.552960 0.674903 0.043709
0.586097 0.675826 0.043847
0.619234 0.676748 0.043985
0.652371 0.677670 0.044122
0.685508 0.678592 0.044260
0.718645 0.679514 0.044398
0.751782 0.680436 0.044536
0.784919 0.681358 0.044673
0.818056 0.682280 0.044811
0.851194 0.683202 0.044949
0.884331 0.684125 0.045087
0.917468 0.685047 0.045224
0.950605 0.685969 0.045362
0.983742 0.686891 0.045500
1.000000 0.687859 0.045683
1.000000 0.688920 0.045960
0.000000 0.693331 0.041048
0.027262 0.694422 0.040892
0.060341 0.695512 0.040862
0.093419 0.696601 0.041387
0.126496 0.697691 0.041912
0.159574 0.698780 0.042437
0.192699 0.699737 0.042656
0.225836 0.700659 0.042794
0.258973 0.701581 0.042932
0.292110 0.702504 0.043070
0.325247 0.703426 0.043208
0.358384 0.704348 0.043346
0.391521 0.705270 0.043483
0.424658 0.706192 0.043621
0.457795 0.707114 0.043759
0.490932 0.708036 0.043897
0.524069 0.708958 0.044035
0.557206 0.709880 0.044173
0.590343 0.710803 0.044310
0.623480 0.711725 0.044448
0.656617 0.712647 0.044586
0.689754 0.713569 0.044724
0.722891 0.714491 0.044861
0.756028 0.715413 0.044999
0.789165 0.716335 0.045137
0.822302 0.717257 0.045274
0.855439 0.718179 0.045412
0.888576 0.719102 0.045550
0.921713 0.720024 0.045687
0.954850 0.720946 0.045825
0.987987 0.721868 0.045963
1.000000 0.722856 0.046166
1.000000 0.723917 0.046443
0.000000 0.728873 0.041578
0.031309 0.729962 0.042103
0.064396 0.731026 0.042568
0.097533 0.731948 0.042706
0.130670 0.732870 0.042844
0.163807 0.733792 0.042982
0.196944 0.734714 0.043120
0.230081 0.735636 0.043258
0.263218 0.736559 0.043396
0.296355 0.737481 0.043534
0.329492 0.738403 0.043671
0.362629 0.739325 0.043809
0.395766 0.740247 0.043947
0.428903 0.741169 0.044085
0.462040 0.742091 0.044223
0.495177 0.743013 0.044360
0.528314 0.743935 0.044498
0.561451 0.744858 0.044636
0.594588 0.745780 0.044774
0.627725 0.746702 0.044911
0.660862 0.747624 0.045049
0.693999 0.748546 0.045187
0.727136 0.749468 0.045324
0.760274 0.750390 0.045462
0.793411 0.751312 0.045600
0.826548 0.752234 0.045737
0.859685 0.753157 0.045875
0.892822 0.754079 0.046013
0.925959 0.755001 0.046150
0.959096 0.755923 0.046288
0.992233 0.756845 0.046425
1.000000 0.757853 0.046649
1.000000 0.758914 0.046925
0.002367 0.764159 0.042757
0.035504 0.765081 0.042894
0.068641 0.766003 0.043032
0.101779 0.766925 0.043170
0.134916 0.767847 0.043308
0.168053 0.768769 0.043446
0.201190 0.769691 0.043584
0.234327 0.770613 0.043722
0.267464 0.771536 0.043859
0.300601 0.772458 0.043997
0.333738 0.773380 0.044135
0.366875 0.774302 0.044273
0.400012 0.775224 0.044411
0.433149 0.776146 0.044548
0.466286 0.777068 0.044686
0.499423 0.777990 0.044824
0.532560 0.778912 0.044962
0.565697 0.779835 0.045099
0.598834 0.780757 0.045237
0.631971 0.781679 0.045375
0.665108 0.782601 0.045512
0.698245 0.783523 0.045650
0.731382 0.784445 0.045788
0.764519 0.785367 0.045925
0.797656 0.786289 0.046063
0.830793 0.787211 0.046200
0.863930 0.788134 0.046338
0.897067 0.789056 0.046475
0.930204 0.789978 0.046613
0.963341 0.790900 0.046751
0.996478 0.791822 0.046888
1.000000 0.792850 0.047132
1.000000 0.793911 0.047408
0.006613 0.799136 0.043220
0.039750 0.800058 0.043358
0.072887 0.800980 0.043496
0.106024 0.801902 0.043634
0.139161 0.802824 0.043772
0.172298 0.803746 0.043910
0.205435 0.804668 0.044047
0.238572 0.805591 0.044185
0.271709 0.806513 0.044323
0.304846 0.807435 0.044461
0.337983 0.808357 0.044599
0.371120 0.809279 0.044736
0.404257 0.810201 0.044874
0.437394 0.811123 0.045012
0.470531 0.812045 0.045149
0.503668 0.812967 0.045287
0.536805 0.813890 0.045425
0.569942 0.814812 0.045562
0.603079 0.815734 0.045700
0.636216 0.816656 0.045838
0.669353 0.817578 0.045975
0.702491 0.818500 0.046113
0.735628 0.819422 0.046250
0.768765 0.820344 0.046388
0.801902 0.821266 0.046526
0.835039 0.822188 0.046663
0.868176 0.823111 0.046801
0.901313 0.824033 0.046938
0.934450 0.824955 0.047076
0.967587 0.825877 0.047213
1.000000 0.826799 0.047351
1.000000 0.827847 0.047614
1.000000 0.828908 0.047890
0.010859 0.834113 0.043684
0.043996 0.835035 0.043822
0.077133 0.835957 0.043960
0.110270 0.836879 0.044098
0.143407 0.837801 0.044235
0.176544 0.838723 0.044373
0.209681 0.839645 0.044511
0.242818 0.840568 0.044649
0.275955 0.841490 0.044786
0.309092 0.842412 0.044924
0.342229 0.843334 0.045062
0.375366 0.844256 0.045199
0.408503 0.845178 0.045337
0.441640 0.846100 0.045475
0.474777 0.847022 0.045612
0.507914 0.847944 0.045750
0.541051 0.848867 0.045888
0.574188 0.849789 0.046025
0.607325 0.850711 0.046163
0.640462 0.851633 0.046301
0.673599 0.852555 0.046438
0.706736 0.853477 0.046576
0.739873 0.854399 0.046713
0.773010 0.855321 0.046851
0.806147 0.856243 0.046988
0.839284 0.857166 0.047126
