resources/luts/mono_silver.cube
TITLE "Mono Silver"
LUT_3D_SIZE 5
DOMAIN_MIN 0.000000 0.000000 0.000000
DOMAIN_MAX 1.000000 1.000000 1.000000
0.000000 0.000000 0.004800
0.000000 0.000000 0.004800
0.032576 0.034814 0.040036
0.096744 0.098691 0.103234
0.160912 0.162568 0.166432
0.120105 0.121946 0.126242
0.184273 0.185823 0.189441
0.248441 0.249700 0.252639
0.312608 0.313577 0.315837
0.376776 0.377454 0.379036
0.335970 0.336832 0.338845
0.400137 0.400709 0.402044
0.464305 0.464586 0.465242
0.532623 0.532540 0.532290
0.601250 0.601070 0.600529
0.557608 0.557489 0.557133
0.626235 0.626019 0.625373
0.694862 0.694550 0.693613
0.763490 0.763080 0.761852
0.832117 0.831610 0.830091
0.788474 0.788030 0.786695
0.857102 0.856560 0.854935
0.925729 0.925090 0.923175
0.994356 0.993621 0.991414
1.000000 1.000000 1.000000
0.000000 0.000000 0.004800
0.000000 0.000000 0.004800
0.054368 0.056507 0.061498
0.118536 0.120384 0.124696
0.182703 0.184261 0.187895
0.141897 0.143639 0.147705
0.206065 0.207516 0.210903
0.270232 0.271393 0.274101
0.334400 0.335270 0.337300
0.398568 0.399147 0.400498
0.357761 0.358525 0.360308
0.421929 0.422402 0.423506
0.487059 0.487222 0.487589
0.555929 0.555813 0.555464
0.624556 0.624343 0.623704
0.580914 0.580762 0.580308
0.649541 0.649293 0.648547
0.718168 0.717823 0.716787
0.786796 0.786353 0.785026
0.855423 0.854884 0.853266
0.811780 0.811303 0.809870
0.880408 0.879833 0.878110
0.949035 0.948364 0.946349
1.000000 1.000000 1.000000
1.000000 1.000000 1.000000
0.000000 0.000000 0.004800
0.011992 0.014323 0.019762
0.076160 0.078200 0.082961
0.140327 0.142077 0.146159
0.204495 0.205954 0.209357
0.163689 0.165332 0.169167
0.227856 0.229209 0.232366
0.292024 0.293086 0.295564
0.356192 0.356963 0.358762
0.420360 0.420840 0.421960
0.379553 0.380218 0.381770
0.443721 0.444095 0.444969
0.510497 0.510528 0.510566
0.579235 0.579086 0.578639
0.647863 0.647617 0.646878
0.604220 0.604036 0.603482
0.672847 0.672566 0.671722
0.741475 0.741096 0.739961
0.810102 0.809627 0.808201
0.878729 0.878157 0.876440
0.835087 0.834576 0.833044
0.903714 0.903106 0.901284
0.972341 0.971637 0.969523
1.000000 1.000000 1.000000
1.000000 1.000000 1.000000
0.000000 0.000000 0.004800
0.033784 0.036016 0.041225
0.097951 0.099893 0.104423
0.162119 0.163770 0.167621
0.226287 0.227647 0.230820
0.185480 0.187025 0.190630
0.249648 0.250902 0.253828
0.313816 0.314779 0.317026
0.377984 0.378656 0.380225
0.442151 0.442533 0.443423
0.401345 0.401911 0.403233
0.465513 0.465788 0.466431
0.533914 0.533829 0.533574
0.602542 0.602359 0.601813
0.671169 0.670890 0.670053
0.627526 0.627309 0.626657
0.696153 0.695839 0.694896
0.764781 0.764370 0.763136
0.833408 0.832900 0.831375
0.902035 0.901430 0.899615
0.858393 0.857849 0.856219
0.927020 0.926380 0.924458
0.995647 0.994910 0.992698
1.000000 1.000000 1.000000
1.000000 1.000000 1.000000
0.000000 0.000000 0.004800
0.055575 0.057709 0.062687
0.119743 0.121586 0.125886
0.183911 0.185463 0.189084
0.248079 0.249340 0.252282
0.207272 0.208718 0.212092
0.271440 0.272595 0.275290
0.335607 0.336472 0.338489
0.399775 0.400349 0.401687
0.463943 0.464226 0.464885
0.423136 0.423604 0.424695
0.488357 0.488513 0.488862
0.557220 0.557102 0.556748
0.625848 0.625633 0.624988
0.694475 0.694163 0.693227
0.650832 0.650582 0.649831
0.719460 0.719112 0.718071
0.788087 0.787643 0.786310
0.856714 0.856173 0.854550
0.925341 0.924703 0.922789
0.881699 0.881123 0.879393
0.950326 0.949653 0.947633
1.000000 1.000000 1.000000
1.000000 1.000000 1.000000
1.000000 1.000000 1.000000
