resources/luts/mono_silver.cube
TITLE "Mono Silver"
LUT_3D_SIZE 33
DOMAIN_MIN 0.000000 0.000000 0.000000
DOMAIN_MAX 1.000000 1.000000 1.000000
0.000000 0.000000 0.004800
0.000000 0.000000 0.004800
0.000000 0.000000 0.004800
0.000000 0.000000 0.004800
0.000000 0.000000 0.004800
0.000000 0.000000 0.004800
0.000000 0.000000 0.004800
0.000000 0.000000 0.004800
0.000000 0.000000 0.004800
0.000000 0.000000 0.004800
0.000000 0.000000 0.004800
0.000000 0.000000 0.004800
0.000492 0.002876 0.008437
0.008513 0.010860 0.016336
0.016534 0.018845 0.024236
0.024555 0.026829 0.032136
0.032576 0.034814 0.040036
0.040597 0.042799 0.047935
0.048618 0.050783 0.055835
0.056639 0.058768 0.063735
0.064660 0.066753 0.071635
0.072681 0.074737 0.079535
0.080702 0.082722 0.087434
0.088723 0.090706 0.095334
0.096744 0.098691 0.103234
0.104765 0.106676 0.111134
0.112786 0.114660 0.119034
0.120807 0.122645 0.126933
0.128828 0.130629 0.134833
0.136849 0.138614 0.142733
0.144870 0.146599 0.150633
0.152891 0.154583 0.158533
0.160912 0.162568 0.166432
0.000000 0.000000 0.004800
0.000000 0.000000 0.004800
0.000000 0.000000 0.004800
0.000000 0.000000 0.004800
0.000000 0.000000 0.004800
0.000000 0.000000 0.004800
0.000000 0.000000 0.004800
0.000000 0.000000 0.004800
0.000000 0.000000 0.004800
0.003412 0.005782 0.011313
0.011433 0.013767 0.019212
0.019454 0.021752 0.027112
0.027475 0.029736 0.035012
0.035496 0.037721 0.042912
0.043517 0.045706 0.050811
0.051538 0.053690 0.058711
0.059559 0.061675 0.066611
0.067580 0.069659 0.074511
0.075601 0.077644 0.082411
0.083622 0.085629 0.090310
0.091643 0.093613 0.098210
0.099664 0.101598 0.106110
0.107685 0.109583 0.114010
0.115706 0.117567 0.121910
0.123727 0.125552 0.129809
0.131748 0.133536 0.137709
0.139769 0.141521 0.145609
0.147790 0.149506 0.153509
0.155811 0.157490 0.161409
0.163832 0.165475 0.169308
0.171853 0.173459 0.177208
0.179874 0.181444 0.185108
0.187895 0.189429 0.193008
0.000000 0.000000 0.004800
0.000000 0.000000 0.004800
0.000000 0.000000 0.004800
0.000000 0.000000 0.004800
0.000000 0.000000 0.004800
0.000000 0.000705 0.006289
0.006333 0.008689 0.014189
0.014354 0.016674 0.022088
0.022375 0.024659 0.029988
0.030396 0.032643 0.037888
0.038416 0.040628 0.045788
0.046437 0.048612 0.053688
0.054458 0.056597 0.061587
0.062479 0.064582 0.069487
0.070500 0.072566 0.077387
0.078521 0.080551 0.085287
0.086542 0.088536 0.093186
0.094563 0.096520 0.101086
0.102584 0.104505 0.108986
0.110605 0.112489 0.116886
0.118626 0.120474 0.124786
0.126647 0.128459 0.132685
0.134668 0.136443 0.140585
0.142689 0.144428 0.148485
0.150710 0.152413 0.156385
0.158731 0.160397 0.164285
0.166752 0.168382 0.172184
0.174773 0.176366 0.180084
0.182794 0.184351 0.187984
0.190815 0.192336 0.195884
0.198836 0.200320 0.203784
0.206857 0.208305 0.211683
0.214878 0.216289 0.219583
0.000000 0.000000 0.004800
0.000000 0.000000 0.004800
0.001232 0.003612 0.009165
0.009253 0.011596 0.017065
0.017274 0.019581 0.024964
0.025295 0.027566 0.032864
0.033316 0.035550 0.040764
0.041337 0.043535 0.048664
0.049358 0.051519 0.056564
0.057379 0.059504 0.064463
0.065400 0.067489 0.072363
0.073421 0.075473 0.080263
0.081441 0.083458 0.088163
0.089462 0.091442 0.096063
0.097483 0.099427 0.103962
0.105504 0.107412 0.111862
0.113525 0.115396 0.119762
0.121546 0.123381 0.127662
0.129567 0.131366 0.135561
0.137588 0.139350 0.143461
0.145609 0.147335 0.151361
0.153630 0.155319 0.159261
0.161651 0.163304 0.167161
0.169672 0.171289 0.175060
0.177693 0.179273 0.182960
0.185714 0.187258 0.190860
0.193735 0.195242 0.198760
0.201756 0.203227 0.206660
0.209777 0.211212 0.214559
0.217798 0.219196 0.222459
0.225819 0.227181 0.230359
0.233840 0.235166 0.238259
0.241861 0.243150 0.246159
0.012173 0.014503 0.019941
0.020194 0.022488 0.027840
0.028215 0.030472 0.035740
0.036236 0.038457 0.043640
0.044257 0.046442 0.051540
0.052278 0.054426 0.059440
0.060299 0.062411 0.067339
0.068320 0.070396 0.075239
0.076341 0.078380 0.083139
0.084362 0.086365 0.091039
0.092383 0.094349 0.098939
0.100404 0.102334 0.106838
0.108425 0.110319 0.114738
0.116446 0.118303 0.122638
0.124467 0.126288 0.130538
0.132487 0.134272 0.138437
0.140508 0.142257 0.146337
0.148529 0.150242 0.154237
0.156550 0.158226 0.162137
0.164571 0.166211 0.170037
0.172592 0.174196 0.177936
0.180613 0.182180 0.185836
0.188634 0.190165 0.193736
0.196655 0.198149 0.201636
0.204676 0.206134 0.209536
0.212697 0.214119 0.217435
0.220718 0.222103 0.225335
0.228739 0.230088 0.233235
0.236760 0.238072 0.241135
0.244781 0.246057 0.249035
0.252802 0.254042 0.256934
0.260823 0.262026 0.264834
0.268844 0.270011 0.272734
0.039156 0.041364 0.046516
0.047177 0.049349 0.054416
0.055198 0.057333 0.062316
0.063219 0.065318 0.070215
0.071240 0.073302 0.078115
0.079261 0.081287 0.086015
0.087282 0.089272 0.093915
0.095303 0.097256 0.101815
0.103324 0.105241 0.109714
0.111345 0.113226 0.117614
0.119366 0.121210 0.125514
0.127387 0.129195 0.133414
0.135408 0.137179 0.141314
0.143429 0.145164 0.149213
0.151450 0.153149 0.157113
0.159471 0.161133 0.165013
0.167492 0.169118 0.172913
0.175512 0.177102 0.180812
0.183533 0.185087 0.188712
0.191554 0.193072 0.196612
0.199575 0.201056 0.204512
0.207596 0.209041 0.212412
0.215617 0.217026 0.220311
0.223638 0.225010 0.228211
0.231659 0.232995 0.236111
0.239680 0.240979 0.244011
0.247701 0.248964 0.251911
0.255722 0.256949 0.259810
0.263743 0.264933 0.267710
0.271764 0.272918 0.275610
0.279785 0.280903 0.283510
0.287806 0.288887 0.291410
0.295827 0.296872 0.299309
0.066139 0.068225 0.073091
0.074160 0.076209 0.080991
0.082181 0.084194 0.088891
0.090202 0.092179 0.096791
0.098223 0.100163 0.104691
0.106244 0.108148 0.112590
0.114265 0.116132 0.120490
0.122286 0.124117 0.128390
0.130307 0.132102 0.136290
0.138328 0.140086 0.144190
0.146349 0.148071 0.152089
0.154370 0.156056 0.159989
0.162391 0.164040 0.167889
0.170412 0.172025 0.175789
0.178433 0.180009 0.183689
0.186454 0.187994 0.191588
0.194475 0.195979 0.199488
0.202496 0.203963 0.207388
0.210517 0.211948 0.215288
0.218538 0.219933 0.223187
0.226558 0.227917 0.231087
0.234579 0.235902 0.238987
0.242600 0.243886 0.246887
0.250621 0.251871 0.254787
0.258642 0.259856 0.262686
0.266663 0.267840 0.270586
0.274684 0.275825 0.278486
0.282705 0.283809 0.286386
0.290726 0.291794 0.294286
0.298747 0.299779 0.302185
0.306768 0.307763 0.310085
0.314789 0.315748 0.317985
0.322810 0.323733 0.325885
0.093122 0.095086 0.099667
0.101143 0.103070 0.107567
0.109164 0.111055 0.115466
0.117185 0.119039 0.123366
0.125206 0.127024 0.131266
0.133227 0.135009 0.139166
0.141248 0.142993 0.147066
0.149269 0.150978 0.154965
0.157290 0.158962 0.162865
0.165311 0.166947 0.170765
0.173332 0.174932 0.178665
0.181353 0.182916 0.186565
0.189374 0.190901 0.194464
0.197395 0.198886 0.202364
0.205416 0.206870 0.210264
0.213437 0.214855 0.218164
0.221458 0.222839 0.226064
0.229479 0.230824 0.233963
0.237500 0.238809 0.241863
0.245521 0.246793 0.249763
0.253542 0.254778 0.257663
0.261563 0.262762 0.265562
0.269583 0.270747 0.273462
0.277604 0.278732 0.281362
0.285625 0.286716 0.289262
0.293646 0.294701 0.297162
0.301667 0.302686 0.305061
0.309688 0.310670 0.312961
0.317709 0.318655 0.320861
0.325730 0.326639 0.328761
0.333751 0.334624 0.336661
0.341772 0.342609 0.344560
0.349793 0.350593 0.352460
0.120105 0.121946 0.126242
0.128126 0.129931 0.134142
0.136147 0.137916 0.142042
0.144168 0.145900 0.149942
0.152189 0.153885 0.157841
0.160210 0.161869 0.165741
0.168231 0.169854 0.173641
0.176252 0.177839 0.181541
0.184273 0.185823 0.189441
0.192294 0.193808 0.197340
0.200315 0.201792 0.205240
0.208336 0.209777 0.213140
0.216357 0.217762 0.221040
0.224378 0.225746 0.228940
0.232399 0.233731 0.236839
0.240420 0.241716 0.244739
0.248441 0.249700 0.252639
0.256462 0.257685 0.260539
0.264483 0.265669 0.268438
0.272504 0.273654 0.276338
0.280525 0.281639 0.284238
0.288546 0.289623 0.292138
0.296567 0.297608 0.300038
0.304588 0.305593 0.307937
0.312608 0.313577 0.315837
0.320629 0.321562 0.323737
0.328650 0.329546 0.331637
0.336671 0.337531 0.339537
0.344692 0.345516 0.347436
0.352713 0.353500 0.355336
0.360734 0.361485 0.363236
0.368755 0.369469 0.371136
0.376776 0.377454 0.379036
0.147088 0.148807 0.152818
0.155109 0.156792 0.160717
0.163130 0.164776 0.168617
0.171151 0.172761 0.176517
0.179172 0.180745 0.184417
0.187193 0.188730 0.192317
0.195214 0.196715 0.200216
0.203235 0.204699 0.208116
0.211256 0.212684 0.216016
0.219277 0.220669 0.223916
0.227298 0.228653 0.231816
0.235319 0.236638 0.239715
0.243340 0.244622 0.247615
0.251361 0.252607 0.255515
0.259382 0.260592 0.263415
0.267403 0.268576 0.271315
0.275424 0.276561 0.279214
0.283445 0.284546 0.287114
0.291466 0.292530 0.295014
0.299487 0.300515 0.302914
0.307508 0.308499 0.310813
0.315529 0.316484 0.318713
0.323550 0.324469 0.326613
0.331571 0.332453 0.334513
0.339592 0.340438 0.342413
0.347613 0.348422 0.350312
0.355633 0.356407 0.358212
0.363654 0.364392 0.366112
0.371675 0.372376 0.374012
0.379696 0.380361 0.381912
0.387717 0.388346 0.389811
0.395738 0.396330 0.397711
0.403759 0.404315 0.405611
0.174071 0.175668 0.179393
0.182092 0.183652 0.187293
0.190113 0.191637 0.195193
0.198134 0.199622 0.203092
0.206155 0.207606 0.210992
0.214176 0.215591 0.218892
0.222197 0.223576 0.226792
0.230218 0.231560 0.234692
0.238239 0.239545 0.242591
0.246260 0.247529 0.250491
0.254281 0.255514 0.258391
0.262302 0.263499 0.266291
0.270323 0.271483 0.274191
0.278344 0.279468 0.282090
0.286365 0.287452 0.289990
0.294386 0.295437 0.297890
0.302407 0.303422 0.305790
0.310428 0.311406 0.313690
0.318449 0.319391 0.321589
0.326470 0.327376 0.329489
0.334491 0.335360 0.337389
0.342512 0.343345 0.345289
0.350533 0.351329 0.353188
0.358554 0.359314 0.361088
0.366575 0.367299 0.368988
0.374596 0.375283 0.376888
0.382617 0.383268 0.384788
0.390638 0.391253 0.392687
0.398659 0.399237 0.400587
0.406679 0.407222 0.408487
0.414700 0.415206 0.416387
0.422721 0.423191 0.424287
0.430742 0.431176 0.432186
0.201054 0.202529 0.205968
0.209075 0.210513 0.213868
0.217096 0.218498 0.221768
0.225117 0.226482 0.229668
0.233138 0.234467 0.237568
0.241159 0.242452 0.245467
0.249180 0.250436 0.253367
0.257201 0.258421 0.261267
0.265222 0.266406 0.269167
0.273243 0.274390 0.277067
0.281264 0.282375 0.284966
0.289285 0.290359 0.292866
0.297306 0.298344 0.300766
0.305327 0.306329 0.308666
0.313348 0.314313 0.316566
0.321369 0.322298 0.324465
0.329390 0.330282 0.332365
0.337411 0.338267 0.340265
0.345432 0.346252 0.348165
0.353453 0.354236 0.356064
0.361474 0.362221 0.363964
0.369495 0.370206 0.371864
0.377516 0.378190 0.379764
0.385537 0.386175 0.387664
0.393558 0.394159 0.395563
0.401579 0.402144 0.403463
0.409600 0.410129 0.411363
0.417621 0.418113 0.419263
0.425642 0.426098 0.427163
0.433663 0.434083 0.435062
0.441684 0.442067 0.442962
0.449705 0.450052 0.450862
0.457725 0.458036 0.458762
0.228037 0.229389 0.232544
0.236058 0.237374 0.240444
0.244079 0.245359 0.248343
0.252100 0.253343 0.256243
0.260121 0.261328 0.264143
0.268142 0.269312 0.272043
0.276163 0.277297 0.279943
0.284184 0.285282 0.287842
0.292205 0.293266 0.295742
0.300226 0.301251 0.303642
0.308247 0.309236 0.311542
0.316268 0.317220 0.319442
0.324289 0.325205 0.327341
0.332310 0.333189 0.335241
0.340331 0.341174 0.343141
0.348352 0.349159 0.351041
0.356373 0.357143 0.358941
0.364394 0.365128 0.366840
0.372415 0.373112 0.374740
0.380436 0.381097 0.382640
0.388457 0.389082 0.390540
0.396478 0.397066 0.398439
0.404499 0.405051 0.406339
0.412520 0.413036 0.414239
0.420541 0.421020 0.422139
0.428562 0.429005 0.430039
0.436583 0.436989 0.437938
0.444604 0.444974 0.445838
0.452625 0.452959 0.453738
0.460646 0.460943 0.461638
0.468667 0.468928 0.469538
0.476939 0.477159 0.477668
0.485566 0.485737 0.486126
0.255020 0.256250 0.259119
0.263041 0.264235 0.267019
0.271062 0.272219 0.274919
0.279083 0.280204 0.282819
0.287104 0.288189 0.290718
0.295125 0.296173 0.298618
0.303146 0.304158 0.306518
0.311167 0.312142 0.314418
0.319188 0.320127 0.322318
0.327209 0.328112 0.330217
0.335230 0.336096 0.338117
0.343251 0.344081 0.346017
0.351272 0.352066 0.353917
0.359293 0.360050 0.361817
0.367314 0.368035 0.369716
0.375335 0.376019 0.377616
0.383356 0.384004 0.385516
0.391377 0.391989 0.393416
0.399398 0.399973 0.401315
0.407419 0.407958 0.409215
0.415440 0.415942 0.417115
0.423461 0.423927 0.425015
0.431482 0.431912 0.432915
0.439503 0.439896 0.440814
0.447524 0.447881 0.448714
0.455545 0.455866 0.456614
0.463566 0.463850 0.464514
0.471587 0.471835 0.472414
0.480079 0.480282 0.480747
0.488706 0.488860 0.489204
0.497333 0.497438 0.497662
0.505960 0.506017 0.506119
0.514587 0.514595 0.514576
0.282004 0.283111 0.285695
0.290025 0.291095 0.293594
0.298045 0.299080 0.301494
0.306066 0.307065 0.309394
0.314087 0.315049 0.317294
0.322108 0.323034 0.325194
0.330129 0.331019 0.333093
0.338150 0.339003 0.340993
0.346171 0.346988 0.348893
0.354192 0.354972 0.356793
0.362213 0.362957 0.364693
0.370234 0.370942 0.372592
0.378255 0.378926 0.380492
0.386276 0.386911 0.388392
0.394297 0.394896 0.396292
0.402318 0.402880 0.404192
0.410339 0.410865 0.412091
0.418360 0.418849 0.419991
0.426381 0.426834 0.427891
0.434402 0.434819 0.435791
0.442423 0.442803 0.443690
0.450444 0.450788 0.451590
0.458465 0.458773 0.459490
0.466486 0.466757 0.467390
0.474593 0.474826 0.475369
0.483220 0.483405 0.483826
0.491847 0.491983 0.492283
0.500474 0.500562 0.500741
0.509101 0.509140 0.509198
0.517728 0.517718 0.517655
0.526355 0.526297 0.526112
0.534955 0.534869 0.534609
0.543534 0.543435 0.543139
0.308987 0.309972 0.312270
0.317008 0.317956 0.320170
0.325029 0.325941 0.328070
0.333050 0.333925 0.335969
0.341070 0.341910 0.343869
0.349091 0.349895 0.351769
0.357112 0.357879 0.359669
0.365133 0.365864 0.367569
0.373154 0.373849 0.375468
0.381175 0.381833 0.383368
0.389196 0.389818 0.391268
0.397217 0.397802 0.399168
0.405238 0.405787 0.407068
0.413259 0.413772 0.414967
0.421280 0.421756 0.422867
0.429301 0.429741 0.430767
0.437322 0.437726 0.438667
0.445343 0.445710 0.446566
0.453364 0.453695 0.454466
0.461385 0.461679 0.462366
0.469406 0.469664 0.470266
0.477734 0.477949 0.478448
0.486361 0.486528 0.486905
0.494988 0.495106 0.495362
0.503615 0.503685 0.503820
0.512241 0.512263 0.512277
0.520868 0.520841 0.520734
0.529495 0.529420 0.529191
0.538078 0.537987 0.537714
0.546657 0.546553 0.546244
0.555235 0.555120 0.554774
0.563814 0.563686 0.563304
0.572392 0.572253 0.571834
0.335970 0.336832 0.338845
0.343991 0.344817 0.346745
0.352012 0.352802 0.354645
0.360033 0.360786 0.362545
0.368054 0.368771 0.370445
0.376075 0.376756 0.378344
0.384096 0.384740 0.386244
0.392116 0.392725 0.394144
0.400137 0.400709 0.402044
0.408158 0.408694 0.409944
0.416179 0.416679 0.417843
0.424200 0.424663 0.425743
0.432221 0.432648 0.433643
0.440242 0.440632 0.441543
0.448263 0.448617 0.449443
0.456284 0.456602 0.457342
0.464305 0.464586 0.465242
0.472326 0.472571 0.473142
0.480875 0.481073 0.481527
0.489502 0.489651 0.489984
0.498128 0.498229 0.498441
0.506755 0.506808 0.506899
0.515382 0.515386 0.515356
0.524009 0.523965 0.523813
0.532623 0.532540 0.532290
0.541201 0.541106 0.540820
0.549780 0.549672 0.549350
0.558358 0.558239 0.557880
0.566937 0.566805 0.566410
0.575515 0.575371 0.574940
0.584093 0.583937 0.583470
0.592672 0.592504 0.591999
0.601250 0.601070 0.600529
0.362953 0.363693 0.365421
0.370974 0.371678 0.373321
0.378995 0.379662 0.381220
0.387016 0.387647 0.389120
0.395037 0.395632 0.397020
0.403058 0.403616 0.404920
0.411079 0.411601 0.412820
0.419100 0.419586 0.420719
0.427121 0.427570 0.428619
0.435142 0.435555 0.436519
0.443163 0.443539 0.444419
0.451183 0.451524 0.452319
0.459204 0.459509 0.460218
0.467225 0.467493 0.468118
0.475389 0.475617 0.476149
0.484015 0.484196 0.484606
0.492642 0.492774 0.493063
0.501269 0.501352 0.501520
0.509896 0.509931 0.509978
0.518523 0.518509 0.518435
0.527150 0.527088 0.526892
0.535746 0.535658 0.535395
0.544324 0.544225 0.543925
0.552903 0.552791 0.552455
0.561481 0.561357 0.560985
0.570060 0.569924 0.569515
0.578638 0.578490 0.578045
0.587217 0.587056 0.586575
0.595795 0.595622 0.595105
0.604373 0.604189 0.603635
0.612952 0.612755 0.612165
0.621530 0.621321 0.620695
0.630109 0.629888 0.629225
0.389936 0.390554 0.391996
0.397957 0.398539 0.399896
0.405978 0.406523 0.407796
0.413999 0.414508 0.415696
0.422020 0.422492 0.423595
0.430041 0.430477 0.431495
0.438062 0.438462 0.439395
0.446083 0.446446 0.447295
0.454104 0.454431 0.455195
0.462125 0.462416 0.463094
0.470146 0.470400 0.470994
0.478529 0.478740 0.479228
0.487156 0.487319 0.487685
0.495783 0.495897 0.496142
0.504410 0.504475 0.504599
0.513037 0.513054 0.513057
0.521664 0.521632 0.521514
0.530291 0.530211 0.529971
0.538869 0.538777 0.538501
0.547448 0.547343 0.547031
0.556026 0.555910 0.555561
0.564604 0.564476 0.564091
0.573183 0.573042 0.572621
0.581761 0.581609 0.581151
0.590340 0.590175 0.589680
0.598918 0.598741 0.598210
0.607496 0.607307 0.606740
0.616075 0.615874 0.615270
0.624653 0.624440 0.623800
0.633232 0.633006 0.632330
0.641810 0.641573 0.640860
0.650388 0.650139 0.649390
0.658967 0.658705 0.657920
0.416919 0.417415 0.418572
0.424940 0.425399 0.426471
0.432961 0.433384 0.434371
0.440982 0.441369 0.442271
0.449003 0.449353 0.450171
0.457024 0.457338 0.458071
0.465045 0.465322 0.465970
0.473066 0.473307 0.473870
0.481670 0.481863 0.482307
0.490297 0.490442 0.490764
0.498924 0.499020 0.499221
0.507551 0.507599 0.507678
0.516178 0.516177 0.516136
0.524804 0.524755 0.524593
0.533414 0.533329 0.533076
0.541992 0.541896 0.541606
0.550571 0.550462 0.550136
0.559149 0.559028 0.558666
0.567727 0.567595 0.567196
0.576306 0.576161 0.575726
0.584884 0.584727 0.584256
0.593463 0.593294 0.592786
0.602041 0.601860 0.601316
0.610619 0.610426 0.609846
0.619198 0.618992 0.618376
0.627776 0.627559 0.626906
0.636355 0.636125 0.635436
0.644933 0.644691 0.643966
0.653512 0.653258 0.652495
0.662090 0.661824 0.661025
0.670668 0.670390 0.669555
0.679247 0.678957 0.678085
0.687825 0.687523 0.686615
0.443902 0.444275 0.445147
0.451923 0.452260 0.453047
0.459944 0.460245 0.460947
0.467965 0.468229 0.468846
0.476184 0.476408 0.476928
0.484811 0.484986 0.485386
0.493438 0.493565 0.493843
0.502065 0.502143 0.502300
0.510691 0.510722 0.510757
0.519318 0.519300 0.519215
0.527945 0.527878 0.527672
0.536537 0.536448 0.536182
0.545115 0.545014 0.544712
0.553694 0.553581 0.553242
0.562272 0.562147 0.561772
0.570851 0.570713 0.570301
0.579429 0.579280 0.578831
0.588007 0.587846 0.587361
0.596586 0.596412 0.595891
0.605164 0.604978 0.604421
0.613743 0.613545 0.612951
0.622321 0.622111 0.621481
0.630899 0.630677 0.630011
0.639478 0.639244 0.638541
0.648056 0.647810 0.647071
0.656635 0.656376 0.655601
0.665213 0.664943 0.664131
0.673792 0.673509 0.672661
0.682370 0.682075 0.681191
0.690948 0.690641 0.689721
0.699527 0.699208 0.698251
0.708105 0.707774 0.706780
0.716684 0.716340 0.715311
0.470885 0.471136 0.471722
0.479325 0.479531 0.480007
0.487952 0.488110 0.488465
0.496578 0.496688 0.496922
0.505205 0.505266 0.505379
0.513832 0.513845 0.513836
0.522459 0.522423 0.522294
0.531082 0.531000 0.530757
0.539660 0.539567 0.539287
0.548238 0.548133 0.547817
0.556817 0.556699 0.556347
0.565395 0.565266 0.564877
0.573974 0.573832 0.573407
0.582552 0.582398 0.581937
0.591130 0.590965 0.590467
0.599709 0.599531 0.598997
0.608287 0.608097 0.607527
0.616866 0.616663 0.616057
0.625444 0.625230 0.624587
0.634023 0.633796 0.633117
0.642601 0.642362 0.641646
0.651179 0.650928 0.650176
0.659758 0.659495 0.658706
0.668336 0.668061 0.667236
0.676915 0.676628 0.675766
0.685493 0.685194 0.684296
0.694071 0.693760 0.692826
0.702650 0.702326 0.701356
0.711228 0.710893 0.709886
0.719807 0.719459 0.718416
0.728385 0.728025 0.726946
0.736963 0.736592 0.735476
0.745542 0.745158 0.744006
0.499719 0.499811 0.500001
0.508346 0.508389 0.508458
0.516973 0.516968 0.516915
0.525600 0.525546 0.525373
0.534205 0.534119 0.533863
0.542783 0.542685 0.542393
0.551362 0.551252 0.550923
0.559940 0.559818 0.559453
0.568518 0.568384 0.567982
0.577097 0.576951 0.576512
0.585675 0.585517 0.585042
0.594254 0.594083 0.593572
0.602832 0.602649 0.602102
0.611410 0.611216 0.610632
0.619989 0.619782 0.619162
0.628567 0.628348 0.627692
0.637146 0.636915 0.636222
0.645724 0.645481 0.644752
0.654302 0.654047 0.653282
0.662881 0.662614 0.661812
0.671459 0.671180 0.670342
0.680038 0.679746 0.678872
0.688616 0.688312 0.687402
0.697194 0.696879 0.695931
0.705773 0.705445 0.704461
0.714351 0.714011 0.712991
0.722930 0.722578 0.721521
0.731508 0.731144 0.730051
0.740086 0.739710 0.738581
0.748665 0.748276 0.747111
0.757243 0.756843 0.755641
0.765822 0.765409 0.764171
0.774400 0.773975 0.772701
0.528741 0.528669 0.528452
0.537328 0.537238 0.536968
0.545906 0.545804 0.545498
0.554485 0.554370 0.554028
0.563063 0.562937 0.562558
0.571641 0.571503 0.571088
0.580220 0.580069 0.579618
0.588798 0.588636 0.588148
0.597377 0.597202 0.596678
0.605955 0.605768 0.605208
0.614533 0.614334 0.613738
0.623112 0.622901 0.622268
0.631690 0.631467 0.630797
0.640269 0.640033 0.639327
0.648847 0.648600 0.647857
0.657425 0.657166 0.656387
0.666004 0.665732 0.664917
0.674582 0.674299 0.673447
0.683161 0.682865 0.681977
0.691739 0.691431 0.690507
0.700318 0.699997 0.699037
0.708896 0.708564 0.707567
0.717474 0.717130 0.716097
0.726053 0.725696 0.724627
0.734631 0.734263 0.733157
0.743210 0.742829 0.741687
0.751788 0.751395 0.750217
0.760366 0.759961 0.758747
0.768945 0.768528 0.767276
0.777523 0.777094 0.775806
0.786102 0.785660 0.784336
0.794680 0.794227 0.792866
0.803258 0.802793 0.801396
0.557608 0.557489 0.557133
0.566186 0.566055 0.565663
0.574764 0.574622 0.574193
0.583343 0.583188 0.582723
0.591921 0.591754 0.591253
0.600500 0.600321 0.599783
0.609078 0.608887 0.608313
0.617657 0.617453 0.616843
0.626235 0.626019 0.625373
0.634813 0.634586 0.633903
0.643392 0.643152 0.642433
0.651970 0.651718 0.650963
0.660549 0.660285 0.659493
0.669127 0.668851 0.668023
0.677705 0.677417 0.676553
0.686284 0.685984 0.685083
0.694862 0.694550 0.693613
0.703441 0.703116 0.702142
0.712019 0.711682 0.710672
0.720598 0.720249 0.719202
0.729176 0.728815 0.727732
0.737754 0.737381 0.736262
0.746333 0.745948 0.744792
0.754911 0.754514 0.753322
0.763490 0.763080 0.761852
0.772068 0.771646 0.770382
0.780646 0.780213 0.778912
0.789225 0.788779 0.787442
0.797803 0.797345 0.795972
0.806382 0.805912 0.804502
0.814960 0.814478 0.813032
0.823538 0.823044 0.821562
0.832117 0.831610 0.830091
0.586466 0.586307 0.585829
0.595044 0.594873 0.594359
0.603623 0.603439 0.602889
0.612201 0.612006 0.611419
0.620780 0.620572 0.619949
0.629358 0.629138 0.628478
0.637936 0.637704 0.637008
0.646515 0.646271 0.645538
0.655093 0.654837 0.654068
0.663672 0.663403 0.662598
0.672250 0.671970 0.671128
0.680829 0.680536 0.679658
0.689407 0.689102 0.688188
0.697985 0.697669 0.696718
0.706564 0.706235 0.705248
0.715142 0.714801 0.713778
0.723721 0.723367 0.722308
0.732299 0.731934 0.730838
0.740877 0.740500 0.739368
0.749456 0.749066 0.747898
0.758034 0.757632 0.756427
0.766613 0.766199 0.764957
0.775191 0.774765 0.773487
0.783770 0.783332 0.782017
0.792348 0.791898 0.790547
0.800926 0.800464 0.799077
0.809505 0.809030 0.807607
0.818083 0.817597 0.816137
0.826662 0.826163 0.824667
0.835240 0.834729 0.833197
0.843818 0.843296 0.841727
0.852397 0.851862 0.850257
0.860975 0.860428 0.858787
0.615324 0.615124 0.614524
0.623903 0.623691 0.623054
0.632481 0.632257 0.631584
0.641060 0.640823 0.640114
0.649638 0.649389 0.648644
0.658216 0.657956 0.657174
0.666795 0.666522 0.665704
0.675373 0.675088 0.674233
0.683952 0.683655 0.682763
0.692530 0.692221 0.691293
0.701108 0.700787 0.699823
0.709687 0.709353 0.708353
0.718265 0.717920 0.716883
0.726844 0.726486 0.725413
0.735422 0.735052 0.733943
0.744000 0.743619 0.742473
0.752579 0.752185 0.751003
0.761157 0.760751 0.759533
0.769736 0.769317 0.768063
0.778314 0.777884 0.776593
0.786892 0.786450 0.785123
0.795471 0.795016 0.793653
0.804049 0.803583 0.802183
0.812628 0.812149 0.810713
0.821206 0.820715 0.819242
0.829785 0.829281 0.827772
