resources/luts/mono_silver.cube
TITLE "Mono Silver"
LUT_3D_SIZE 9
DOMAIN_MIN 0.000000 0.000000 0.000000
DOMAIN_MAX 1.000000 1.000000 1.000000
0.000000 0.000000 0.004800
0.000000 0.000000 0.004800
0.000000 0.000000 0.004800
0.000492 0.002876 0.008437
0.032576 0.034814 0.040036
0.064660 0.066753 0.071635
0.096744 0.098691 0.103234
0.128828 0.130629 0.134833
0.160912 0.162568 0.166432
0.012173 0.014503 0.019941
0.044257 0.046442 0.051540
0.076341 0.078380 0.083139
0.108425 0.110319 0.114738
0.140508 0.142257 0.146337
0.172592 0.174196 0.177936
0.204676 0.206134 0.209536
0.236760 0.238072 0.241135
0.268844 0.270011 0.272734
0.120105 0.121946 0.126242
0.152189 0.153885 0.157841
0.184273 0.185823 0.189441
0.216357 0.217762 0.221040
0.248441 0.249700 0.252639
0.280525 0.281639 0.284238
0.312608 0.313577 0.315837
0.344692 0.345516 0.347436
0.376776 0.377454 0.379036
0.228037 0.229389 0.232544
0.260121 0.261328 0.264143
0.292205 0.293266 0.295742
0.324289 0.325205 0.327341
0.356373 0.357143 0.358941
0.388457 0.389082 0.390540
0.420541 0.421020 0.422139
0.452625 0.452959 0.453738
0.485566 0.485737 0.486126
0.335970 0.336832 0.338845
0.368054 0.368771 0.370445
0.400137 0.400709 0.402044
0.432221 0.432648 0.433643
0.464305 0.464586 0.465242
0.498128 0.498229 0.498441
0.532623 0.532540 0.532290
0.566937 0.566805 0.566410
0.601250 0.601070 0.600529
0.443902 0.444275 0.445147
0.476184 0.476408 0.476928
0.510691 0.510722 0.510757
0.545115 0.545014 0.544712
0.579429 0.579280 0.578831
0.613743 0.613545 0.612951
0.648056 0.647810 0.647071
0.682370 0.682075 0.681191
0.716684 0.716340 0.715311
0.557608 0.557489 0.557133
0.591921 0.591754 0.591253
0.626235 0.626019 0.625373
0.660549 0.660285 0.659493
0.694862 0.694550 0.693613
0.729176 0.728815 0.727732
0.763490 0.763080 0.761852
0.797803 0.797345 0.795972
0.832117 0.831610 0.830091
0.673041 0.672759 0.671915
0.707355 0.707025 0.706034
0.741668 0.741290 0.740154
0.775982 0.775555 0.774274
0.810296 0.809820 0.808393
0.844609 0.844085 0.842513
0.878923 0.878350 0.876633
0.913236 0.912616 0.910753
0.947550 0.946881 0.944872
0.788474 0.788030 0.786695
0.822788 0.822295 0.820815
0.857102 0.856560 0.854935
0.891415 0.890825 0.889055
0.925729 0.925090 0.923175
0.960042 0.959355 0.957294
0.994356 0.993621 0.991414
1.000000 1.000000 1.000000
1.000000 1.000000 1.000000
0.000000 0.000000 0.004800
0.000000 0.000000 0.004800
0.000000 0.000000 0.004800
0.011388 0.013722 0.019168
0.043472 0.045661 0.050767
0.075556 0.077599 0.082366
0.107640 0.109537 0.113965
0.139724 0.141476 0.145564
0.171808 0.173414 0.177164
0.023069 0.025350 0.030672
0.055153 0.057288 0.062271
0.087237 0.089227 0.093870
0.119320 0.121165 0.125469
0.151404 0.153104 0.157069
0.183488 0.185042 0.188668
0.215572 0.216981 0.220267
0.247656 0.248919 0.251866
0.279740 0.280857 0.283465
0.131001 0.132793 0.136973
0.163085 0.164731 0.168573
0.195169 0.196670 0.200172
0.227253 0.228608 0.231771
0.259337 0.260547 0.263370
0.291420 0.292485 0.294969
0.323504 0.324424 0.326568
0.355588 0.356362 0.358168
0.387672 0.388301 0.389767
0.238933 0.240236 0.243275
0.271017 0.272174 0.274874
0.303101 0.304113 0.306473
0.335185 0.336051 0.338073
0.367269 0.367990 0.369672
0.399353 0.399928 0.401271
0.431437 0.431867 0.432870
0.463521 0.463805 0.464469
0.497284 0.497390 0.497614
0.346866 0.347679 0.349577
0.378949 0.379617 0.381176
0.411033 0.411556 0.412775
0.443117 0.443494 0.444374
0.475340 0.475569 0.476101
0.509847 0.509882 0.509930
0.544276 0.544176 0.543877
0.578590 0.578441 0.577997
0.612903 0.612707 0.612117
0.454798 0.455122 0.455878
0.487903 0.488061 0.488417
0.522410 0.522375 0.522246
0.556768 0.556651 0.556299
0.591082 0.590916 0.590419
0.625396 0.625181 0.624538
0.659709 0.659446 0.658658
0.694023 0.693712 0.692778
0.728337 0.727977 0.726898
0.569261 0.569126 0.568721
0.603574 0.603391 0.602840
0.637888 0.637656 0.636960
0.672202 0.671921 0.671080
0.706515 0.706186 0.705200
0.740829 0.740452 0.739320
0.775143 0.774717 0.773439
0.809456 0.808982 0.807559
0.843770 0.843247 0.841679
0.684694 0.684396 0.683502
0.719008 0.718661 0.717621
0.753321 0.752926 0.751741
0.787635 0.787191 0.785861
0.821949 0.821457 0.819981
0.856262 0.855722 0.854100
0.890576 0.889987 0.888220
0.924890 0.924252 0.922340
0.959203 0.958517 0.956460
0.800127 0.799666 0.798283
0.834441 0.833931 0.832403
0.868755 0.868196 0.866522
0.903068 0.902462 0.900642
0.937382 0.936727 0.934762
0.971696 0.970992 0.968882
1.000000 1.000000 1.000000
1.000000 1.000000 1.000000
1.000000 1.000000 1.000000
0.000000 0.000000 0.004800
0.000000 0.000000 0.004800
0.000000 0.000000 0.004800
0.022284 0.024569 0.029899
0.054368 0.056507 0.061498
0.086452 0.088445 0.093097
0.118536 0.120384 0.124696
0.150620 0.152322 0.156296
0.182703 0.184261 0.187895
0.033965 0.036196 0.041403
0.066048 0.068135 0.073002
0.098132 0.100073 0.104601
0.130216 0.132012 0.136201
0.162300 0.163950 0.167800
0.194384 0.195888 0.199399
0.226468 0.227827 0.230998
0.258552 0.259765 0.262597
0.290636 0.291704 0.294196
0.141897 0.143639 0.147705
0.173981 0.175578 0.179304
0.206065 0.207516 0.210903
0.238149 0.239455 0.242502
0.270232 0.271393 0.274101
0.302316 0.303332 0.305701
0.334400 0.335270 0.337300
0.366484 0.367209 0.368899
0.398568 0.399147 0.400498
0.249829 0.251082 0.254006
0.281913 0.283021 0.285605
0.313997 0.314959 0.317205
0.346081 0.346898 0.348804
0.378165 0.378836 0.380403
0.410249 0.410775 0.412002
0.442332 0.442713 0.443601
0.474496 0.474730 0.475274
0.509003 0.509043 0.509103
0.357761 0.358525 0.360308
0.389845 0.390464 0.391907
0.421929 0.422402 0.423506
0.454013 0.454341 0.455105
0.487059 0.487222 0.487589
0.521566 0.521536 0.521418
0.555929 0.555813 0.555464
0.590243 0.590078 0.589584
0.624556 0.624343 0.623704
0.465694 0.465968 0.466610
0.499622 0.499714 0.499905
0.534108 0.534022 0.533766
0.568421 0.568288 0.567886
0.602735 0.602553 0.602006
0.637049 0.636818 0.636126
0.671362 0.671083 0.670245
0.705676 0.705348 0.704365
0.739990 0.739614 0.738485
0.580914 0.580762 0.580308
0.615228 0.615028 0.614428
0.649541 0.649293 0.648547
0.683855 0.683558 0.682667
0.718168 0.717823 0.716787
0.752482 0.752088 0.750907
0.786796 0.786353 0.785026
0.821109 0.820619 0.819146
0.855423 0.854884 0.853266
0.696347 0.696033 0.695089
0.730661 0.730298 0.729209
0.764974 0.764563 0.763328
0.799288 0.798828 0.797448
0.833602 0.833093 0.831568
0.867915 0.867358 0.865688
0.902229 0.901624 0.899808
0.936543 0.935889 0.933927
0.970856 0.970154 0.968047
0.811780 0.811303 0.809870
0.846094 0.845568 0.843990
0.880408 0.879833 0.878110
0.914721 0.914098 0.912229
0.949035 0.948364 0.946349
0.983349 0.982629 0.980469
1.000000 1.000000 1.000000
1.000000 1.000000 1.000000
1.000000 1.000000 1.000000
0.000000 0.000000 0.004800
0.000000 0.000000 0.004800
0.001096 0.003476 0.009031
0.033180 0.035415 0.040630
0.065264 0.067353 0.072229
0.097348 0.099292 0.103829
0.129432 0.131230 0.135428
0.161515 0.163169 0.167027
0.193599 0.195107 0.198626
0.044860 0.047043 0.052134
0.076944 0.078981 0.083733
0.109028 0.110920 0.115333
0.141112 0.142858 0.146932
0.173196 0.174796 0.178531
0.205280 0.206735 0.210130
0.237364 0.238673 0.241729
0.269448 0.270612 0.273328
0.301532 0.302550 0.304928
0.152793 0.154486 0.158436
0.184877 0.186424 0.190035
0.216960 0.218363 0.221634
0.249044 0.250301 0.253233
0.281128 0.282240 0.284833
0.313212 0.314178 0.316432
0.345296 0.346116 0.348031
0.377380 0.378055 0.379630
0.409464 0.409993 0.411229
0.260725 0.261929 0.264738
0.292809 0.293867 0.296337
0.324893 0.325806 0.327936
0.356977 0.357744 0.359535
0.389061 0.389683 0.391134
0.421144 0.421621 0.422733
0.453228 0.453560 0.454333
0.486215 0.486383 0.486762
0.520722 0.520696 0.520591
0.368657 0.369372 0.371039
0.400741 0.401310 0.402638
0.432825 0.433249 0.434237
0.464909 0.465187 0.465837
0.498778 0.498875 0.499078
0.533269 0.533184 0.532932
0.567582 0.567450 0.567052
0.601896 0.601715 0.601171
0.636209 0.635980 0.635291
0.476833 0.477054 0.477565
0.511341 0.511367 0.511394
0.545761 0.545659 0.545354
0.580075 0.579924 0.579473
0.614388 0.614189 0.613593
0.648702 0.648455 0.647713
0.683015 0.682720 0.681833
0.717329 0.716985 0.715952
0.751643 0.751250 0.750072
0.592567 0.592399 0.591895
0.626881 0.626664 0.626015
0.661194 0.660929 0.660135
0.695508 0.695194 0.694254
0.729822 0.729460 0.728374
0.764135 0.763725 0.762494
0.798449 0.797990 0.796614
0.832762 0.832255 0.830733
0.867076 0.866520 0.864853
0.708000 0.707669 0.706676
0.742314 0.741934 0.740796
0.776627 0.776200 0.774916
0.810941 0.810465 0.809035
0.845255 0.844730 0.843155
0.879568 0.878995 0.877275
0.913882 0.913260 0.911395
0.948196 0.947525 0.945515
0.982509 0.981791 0.979634
0.823434 0.822939 0.821457
0.857747 0.857205 0.855577
0.892061 0.891470 0.889697
0.926374 0.925735 0.923816
0.960688 0.960000 0.957936
0.995002 0.994265 0.992056
1.000000 1.000000 1.000000
1.000000 1.000000 1.000000
1.000000 1.000000 1.000000
0.000000 0.000000 0.004800
0.000000 0.000000 0.004800
0.011992 0.014323 0.019762
0.044076 0.046261 0.051361
0.076160 0.078200 0.082961
0.108243 0.110138 0.114560
0.140327 0.142077 0.146159
0.172411 0.174015 0.177758
0.204495 0.205954 0.209357
0.055756 0.057889 0.062866
0.087840 0.089828 0.094465
0.119924 0.121766 0.126064
0.152008 0.153704 0.157663
0.184092 0.185643 0.189262
0.216176 0.217581 0.220861
0.248260 0.249520 0.252461
0.280344 0.281458 0.284060
0.312427 0.313397 0.315659
0.163689 0.165332 0.169167
0.195772 0.197271 0.200766
0.227856 0.229209 0.232366
0.259940 0.261148 0.263965
0.292024 0.293086 0.295564
0.324108 0.325025 0.327163
0.356192 0.356963 0.358762
0.388276 0.388901 0.390361
0.420360 0.420840 0.421960
0.271621 0.272775 0.275469
0.303705 0.304714 0.307068
0.335789 0.336652 0.338667
0.367872 0.368591 0.370266
0.399956 0.400529 0.401865
0.432040 0.432468 0.433465
0.464124 0.464406 0.465064
0.497934 0.498036 0.498251
0.532429 0.532346 0.532097
0.379553 0.380218 0.381770
0.411637 0.412157 0.413370
0.443721 0.444095 0.444969
0.475989 0.476214 0.476737
0.510497 0.510528 0.510566
0.544922 0.544821 0.544519
0.579235 0.579086 0.578639
0.613549 0.613351 0.612759
0.647863 0.647617 0.646878
0.488552 0.488707 0.489053
0.523060 0.523020 0.522882
0.557414 0.557296 0.556941
0.591728 0.591561 0.591061
0.626041 0.625826 0.625180
0.660355 0.660091 0.659300
0.694669 0.694356 0.693420
0.728982 0.728621 0.727540
0.763296 0.762887 0.761659
0.604220 0.604036 0.603482
0.638534 0.638301 0.637602
0.672847 0.672566 0.671722
0.707161 0.706831 0.705842
0.741475 0.741096 0.739961
0.775788 0.775362 0.774081
0.810102 0.809627 0.808201
0.844415 0.843892 0.842321
0.878729 0.878157 0.876440
0.719653 0.719306 0.718263
0.753967 0.753571 0.752383
0.788281 0.787836 0.786503
0.822594 0.822101 0.820623
0.856908 0.856367 0.854742
0.891222 0.890632 0.888862
0.925535 0.924897 0.922982
0.959849 0.959162 0.957102
0.994162 0.993427 0.991221
0.835087 0.834576 0.833044
0.869400 0.868841 0.867164
0.903714 0.903106 0.901284
0.938028 0.937372 0.935404
0.972341 0.971637 0.969523
1.000000 1.000000 1.000000
1.000000 1.000000 1.000000
1.000000 1.000000 1.000000
1.000000 1.000000 1.000000
0.000000 0.000000 0.004800
0.000000 0.000000 0.004800
0.022888 0.025169 0.030494
0.054972 0.057108 0.062093
0.087055 0.089046 0.093692
0.119139 0.120985 0.125291
0.151223 0.152923 0.156890
0.183307 0.184862 0.188489
0.215391 0.216800 0.220088
0.066652 0.068736 0.073597
0.098736 0.100674 0.105196
0.130820 0.132612 0.136795
0.162904 0.164551 0.168394
0.194988 0.196489 0.199993
0.227072 0.228428 0.231593
0.259155 0.260366 0.263192
0.291239 0.292305 0.294791
0.323323 0.324243 0.326390
0.174584 0.176179 0.179898
0.206668 0.208117 0.211498
0.238752 0.240056 0.243097
0.270836 0.271994 0.274696
0.302920 0.303932 0.306295
0.335004 0.335871 0.337894
0.367088 0.367809 0.369493
0.399172 0.399748 0.401093
0.431256 0.431686 0.432692
0.282517 0.283622 0.286200
0.314601 0.315560 0.317799
0.346684 0.347499 0.349398
0.378768 0.379437 0.380998
0.410852 0.411376 0.412597
0.442936 0.443314 0.444196
0.475145 0.475375 0.475910
0.509653 0.509689 0.509739
0.544082 0.543983 0.543685
0.390449 0.391065 0.392502
0.422533 0.423003 0.424101
0.454617 0.454942 0.455700
0.487708 0.487867 0.488226
0.522216 0.522181 0.522055
0.556575 0.556458 0.556106
0.590888 0.590723 0.590226
0.625202 0.624988 0.624346
0.659516 0.659253 0.658466
0.500271 0.500360 0.500542
0.534753 0.534667 0.534408
0.569067 0.568932 0.568528
0.603381 0.603198 0.602648
0.637694 0.637463 0.636768
0.672008 0.671728 0.670887
0.706322 0.705993 0.705007
0.740635 0.740258 0.739127
0.774949 0.774523 0.773247
0.615873 0.615672 0.615070
0.650187 0.649938 0.649189
0.684500 0.684203 0.683309
0.718814 0.718468 0.717429
0.753128 0.752733 0.751549
0.787441 0.786998 0.785668
0.821755 0.821263 0.819788
0.856068 0.855528 0.853908
0.890382 0.889794 0.888028
0.731306 0.730942 0.729851
0.765620 0.765208 0.763970
0.799934 0.799473 0.798090
0.834247 0.833738 0.832210
0.868561 0.868003 0.866330
0.902875 0.902268 0.900449
0.937188 0.936534 0.934569
0.971502 0.970799 0.968689
1.000000 1.000000 1.000000
0.846740 0.846213 0.844632
0.881053 0.880478 0.878752
0.915367 0.914743 0.912871
0.949681 0.949008 0.946991
0.983994 0.983273 0.981111
1.000000 1.000000 1.000000
1.000000 1.000000 1.000000
1.000000 1.000000 1.000000
1.000000 1.000000 1.000000
0.000000 0.000000 0.004800
0.001700 0.004077 0.009626
0.033784 0.036016 0.041225
0.065867 0.067954 0.072824
0.097951 0.099893 0.104423
0.130035 0.131831 0.136022
0.162119 0.163770 0.167621
0.194203 0.195708 0.199221
0.226287 0.227647 0.230820
0.077548 0.079582 0.084328
0.109632 0.111520 0.115927
0.141716 0.143459 0.147526
0.173800 0.175397 0.179125
0.205884 0.207336 0.210725
0.237967 0.239274 0.242324
0.270051 0.271213 0.273923
0.302135 0.303151 0.305522
0.334219 0.335090 0.337121
0.185480 0.187025 0.190630
0.217564 0.218964 0.222229
0.249648 0.250902 0.253828
0.281732 0.282840 0.285427
0.313816 0.314779 0.317026
0.345900 0.346717 0.348625
0.377984 0.378656 0.380225
0.410067 0.410594 0.411824
0.442151 0.442533 0.443423
0.293413 0.294468 0.296931
0.325496 0.326407 0.328530
0.357580 0.358345 0.360130
0.389664 0.390284 0.391729
0.421748 0.422222 0.423328
0.453832 0.454160 0.454927
0.486864 0.487028 0.487399
0.521372 0.521342 0.521227
0.555735 0.555620 0.555272
0.401345 0.401911 0.403233
0.433429 0.433850 0.434832
0.465513 0.465788 0.466431
0.499427 0.499521 0.499714
0.533914 0.533829 0.533574
0.568228 0.568094 0.567694
0.602542 0.602359 0.601813
0.636855 0.636625 0.635933
0.671169 0.670890 0.670053
0.511990 0.512013 0.512030
0.546406 0.546304 0.545996
0.580720 0.580569 0.580115
0.615034 0.614834 0.614235
0.649347 0.649099 0.648355
0.683661 0.683364 0.682475
0.717975 0.717630 0.716594
0.752288 0.751895 0.750714
0.786602 0.786160 0.784834
0.627526 0.627309 0.626657
0.661840 0.661574 0.660777
0.696153 0.695839 0.694896
0.730467 0.730104 0.729016
0.764781 0.764370 0.763136
0.799094 0.798635 0.797256
0.833408 0.832900 0.831375
0.867722 0.867165 0.865495
0.902035 0.901430 0.899615
0.742959 0.742579 0.741438
0.777273 0.776844 0.775558
0.811587 0.811109 0.809677
0.845900 0.845375 0.843797
0.880214 0.879640 0.877917
0.914528 0.913905 0.912037
0.948841 0.948170 0.946156
0.983155 0.982435 0.980276
1.000000 1.000000 1.000000
0.858393 0.857849 0.856219
0.892706 0.892115 0.890339
0.927020 0.926380 0.924458
0.961334 0.960645 0.958578
0.995647 0.994910 0.992698
1.000000 1.000000 1.000000
1.000000 1.000000 1.000000
1.000000 1.000000 1.000000
1.000000 1.000000 1.000000
0.000000 0.000000 0.004800
0.012595 0.014924 0.020357
0.044679 0.046862 0.051956
0.076763 0.078801 0.083555
0.108847 0.110739 0.115154
0.140931 0.142678 0.146753
0.173015 0.174616 0.178353
0.205099 0.206555 0.209952
0.237183 0.238493 0.241551
0.088444 0.090428 0.095059
0.120528 0.122367 0.126658
0.152612 0.154305 0.158258
0.184695 0.186244 0.189857
0.216779 0.218182 0.221456
0.248863 0.250121 0.253055
0.280947 0.282059 0.284654
0.313031 0.313998 0.316253
0.345115 0.345936 0.347853
0.196376 0.197872 0.201361
0.228460 0.229810 0.232960
0.260544 0.261748 0.264559
0.292628 0.293687 0.296158
0.324712 0.325625 0.327757
0.356796 0.357564 0.359357
0.388879 0.389502 0.390956
0.420963 0.421441 0.422555
0.453047 0.453379 0.454154
0.304308 0.305315 0.307662
0.336392 0.337253 0.339262
0.368476 0.369192 0.370861
0.400560 0.401130 0.402460
0.432644 0.433068 0.434059
0.464728 0.465007 0.465658
0.498583 0.498681 0.498887
0.533075 0.532991 0.532739
0.567388 0.567256 0.566859
0.412241 0.412758 0.413964
0.444324 0.444696 0.445563
0.476638 0.476860 0.477374
0.511146 0.511174 0.511203
0.545567 0.545466 0.545161
0.579881 0.579731 0.579281
0.614195 0.613996 0.613401
0.648508 0.648261 0.647520
0.682822 0.682526 0.681640
0.523709 0.523666 0.523519
0.558060 0.557940 0.557583
0.592373 0.592206 0.591703
0.626687 0.626471 0.625822
0.661001 0.660736 0.659942
0.695314 0.695001 0.694062
0.729628 0.729266 0.728182
0.763941 0.763531 0.762301
0.798255 0.797797 0.796421
0.639179 0.638946 0.638244
0.673493 0.673211 0.672364
0.707807 0.707476 0.706484
0.742120 0.741741 0.740603
0.776434 0.776006 0.774723
0.810748 0.810271 0.808843
0.845061 0.844536 0.842963
0.879375 0.878802 0.877082
0.913688 0.913067 0.911202
0.754613 0.754216 0.753025
0.788926 0.788481 0.787145
0.823240 0.822746 0.821265
0.857553 0.857011 0.855384
0.891867 0.891276 0.889504
0.926181 0.925542 0.923624
0.960494 0.959807 0.957744
0.994808 0.994072 0.991863
1.000000 1.000000 1.000000
0.870046 0.869486 0.867806
0.904360 0.903751 0.901926
0.938673 0.938016 0.936046
0.972987 0.972281 0.970165
1.000000 1.000000 1.000000
1.000000 1.000000 1.000000
1.000000 1.000000 1.000000
1.000000 1.000000 1.000000
1.000000 1.000000 1.000000
0.000000 0.000000 0.004800
0.023491 0.025770 0.031088
0.055575 0.057709 0.062687
0.087659 0.089647 0.094286
0.119743 0.121586 0.125886
0.151827 0.153524 0.157485
0.183911 0.185463 0.189084
0.215995 0.217401 0.220683
0.248079 0.249340 0.252282
0.099340 0.101275 0.105790
0.131424 0.133213 0.137390
0.163507 0.165152 0.168989
0.195591 0.197090 0.200588
0.227675 0.229029 0.232187
0.259759 0.260967 0.263786
0.291843 0.292906 0.295385
0.323927 0.324844 0.326985
0.356011 0.356783 0.358584
0.207272 0.208718 0.212092
0.239356 0.240656 0.243691
0.271440 0.272595 0.275290
0.303524 0.304533 0.306890
0.335607 0.336472 0.338489
0.367691 0.368410 0.370088
0.399775 0.400349 0.401687
0.431859 0.432287 0.433286
0.463943 0.464226 0.464885
0.315204 0.316161 0.318394
0.347288 0.348100 0.349993
0.379372 0.380038 0.381592
0.411456 0.411976 0.413191
0.443540 0.443915 0.444790
0.475794 0.476021 0.476547
0.510302 0.510334 0.510375
0.544728 0.544628 0.544326
0.579042 0.578893 0.578446
0.423136 0.423604 0.424695
0.455220 0.455543 0.456294
0.488357 0.488513 0.488862
0.522865 0.522827 0.522691
0.557220 0.557102 0.556748
0.591534 0.591367 0.590868
0.625848 0.625633 0.624988
0.660161 0.659898 0.659108
0.694475 0.694163 0.693227
0.535399 0.535312 0.535050
0.569713 0.569577 0.569170
0.604026 0.603842 0.603290
0.638340 0.638107 0.637410
0.672654 0.672373 0.671529
0.706967 0.706638 0.705649
0.741281 0.740903 0.739769
0.775594 0.775168 0.773889
0.809908 0.809433 0.808008
0.650832 0.650582 0.649831
0.685146 0.684847 0.683951
0.719460 0.719112 0.718071
0.753773 0.753377 0.752191
0.788087 0.787643 0.786310
0.822401 0.821908 0.820430
0.856714 0.856173 0.854550
0.891028 0.890438 0.888670
0.925341 0.924703 0.922789
0.766266 0.765852 0.764612
0.800579 0.800117 0.798732
0.834893 0.834383 0.832852
0.869207 0.868648 0.866972
0.903520 0.902913 0.901091
0.937834 0.937178 0.935211
0.972147 0.971443 0.969331
1.000000 1.000000 1.000000
1.000000 1.000000 1.000000
0.881699 0.881123 0.879393
0.916013 0.915388 0.913513
0.950326 0.949653 0.947633
0.984640 0.983918 0.981753
1.000000 1.000000 1.000000
1.000000 1.000000 1.000000
1.000000 1.000000 1.000000
1.000000 1.000000 1.000000
1.000000 1.000000 1.000000
