resources/luts/neon_night.cube
TITLE "Neon Night"
LUT_3D_SIZE 9
DOMAIN_MIN 0.000000 0.000000 0.000000
DOMAIN_MAX 1.000000 1.000000 1.000000
0.000000 0.000000 0.000000
0.000000 0.000000 0.000000
0.164750 0.000000 0.000000
0.351449 0.000000 0.000000
0.538147 0.000000 0.000000
0.724846 0.000000 0.000000
0.911544 0.000000 0.000000
1.000000 0.000000 0.000000
1.000000 0.000000 0.000000
0.000000 0.010191 0.000000
0.000000 0.013385 0.000000
0.178605 0.009360 0.000000
0.364830 0.005111 0.000000
0.551056 0.000861 0.000000
0.737282 0.000000 0.000000
0.923507 0.000000 0.000000
1.000000 0.000000 0.000000
1.000000 0.000000 0.000000
0.000000 0.185646 0.000000
0.000000 0.188414 0.000000
0.168935 0.184165 0.000000
0.355161 0.179916 0.000000
0.541386 0.175666 0.000000
0.727612 0.171417 0.000000
0.913838 0.167168 0.000000
1.000000 0.162918 0.000000
1.000000 0.164423 0.000000
0.000000 0.361101 0.000000
0.000000 0.363219 0.000000
0.159266 0.358970 0.000000
0.345491 0.354721 0.000000
0.531717 0.350471 0.000000
0.717942 0.346222 0.000000
0.904168 0.341973 0.000000
1.000000 0.337723 0.000000
1.000000 0.339771 0.000000
0.000000 0.536557 0.000000
0.000000 0.538024 0.000000
0.149596 0.533775 0.000000
0.335822 0.529526 0.000000
0.522047 0.525276 0.000000
0.714158 0.520542 0.000000
0.909698 0.515524 0.000000
1.000000 0.509009 0.000000
1.000000 0.508610 0.000000
0.000000 0.712012 0.000000
0.000000 0.712829 0.000000
0.149203 0.707815 0.000000
0.344676 0.702751 0.000000
0.535841 0.694734 0.000000
0.727006 0.686716 0.000000
0.918171 0.678698 0.000000
1.000000 0.672378 0.000000
1.000000 0.671979 0.000000
0.000000 0.885313 0.000000
0.000000 0.880915 0.000000
0.160457 0.872897 0.000000
0.351622 0.864879 0.000000
0.542787 0.856861 0.000000
0.733952 0.848843 0.000000
0.925117 0.840825 0.000000
1.000000 0.835747 0.000000
1.000000 0.835347 0.000000
0.000000 1.000000 0.000000
0.000000 1.000000 0.000000
0.167404 1.000000 0.000000
0.358569 1.000000 0.000000
0.549734 1.000000 0.000000
0.740899 1.000000 0.000000
0.932064 1.000000 0.000000
1.000000 0.999115 0.000000
1.000000 0.998716 0.000000
0.000000 1.000000 0.000000
0.005247 1.000000 0.000000
0.196353 1.000000 0.000000
0.387459 1.000000 0.000000
0.578565 1.000000 0.000000
0.769671 1.000000 0.000000
0.960681 1.000000 0.000000
1.000000 1.000000 0.000000
1.000000 1.000000 0.000000
0.000000 0.000000 0.167898
0.000000 0.000000 0.162922
0.164313 0.000000 0.151313
0.351077 0.000000 0.138894
0.537841 0.000000 0.126475
0.724605 0.000000 0.114057
0.911369 0.000000 0.101638
1.000000 0.000000 0.089219
1.000000 0.000000 0.081320
0.000000 0.009281 0.149490
0.000000 0.012541 0.144041
0.178228 0.008516 0.131309
0.364519 0.004333 0.118417
0.550810 0.000149 0.105525
0.737102 0.000000 0.092634
0.923393 0.000000 0.079742
1.000000 0.000000 0.066851
1.000000 0.000000 0.059128
0.000000 0.184958 0.106772
0.000000 0.187726 0.100832
0.168779 0.183542 0.087940
0.355070 0.179358 0.075049
0.541362 0.175175 0.062157
0.727653 0.170991 0.049266
0.913944 0.166807 0.036374
1.000000 0.162624 0.023482
1.000000 0.164260 0.016410
0.000000 0.360634 0.064054
0.000000 0.362752 0.057464
0.159330 0.358568 0.044572
0.345622 0.354384 0.031681
0.531913 0.350201 0.018789
0.718204 0.346017 0.005897
0.904495 0.341833 0.000000
1.000000 0.337649 0.000000
1.000000 0.339628 0.000000
0.000000 0.536310 0.021336
0.000000 0.537777 0.014096
0.149881 0.533594 0.001204
0.336173 0.529410 0.000000
0.522464 0.525226 0.000000
0.717699 0.520192 0.000000
0.913198 0.515133 0.000000
1.000000 0.507617 0.000000
1.000000 0.507111 0.000000
0.000000 0.711986 0.000000
0.000000 0.712509 0.000000
0.152729 0.707450 0.000000
0.346651 0.701302 0.000000
0.537708 0.693177 0.000000
0.728766 0.685052 0.000000
0.919824 0.676927 0.000000
1.000000 0.670625 0.000000
1.000000 0.670118 0.000000
0.000000 0.883950 0.000000
0.000000 0.879319 0.000000
0.162179 0.871194 0.000000
0.353236 0.863069 0.000000
0.544294 0.854943 0.000000
0.735351 0.846818 0.000000
0.926409 0.838693 0.000000
1.000000 0.833632 0.000000
1.000000 0.833126 0.000000
0.000000 1.000000 0.000000
0.000000 1.000000 0.000000
0.168764 1.000000 0.000000
0.359822 1.000000 0.000000
0.550879 1.000000 0.000000
0.741937 1.000000 0.000000
0.932994 1.000000 0.000000
1.000000 0.996639 0.000000
1.000000 0.996133 0.000000
0.000000 1.000000 0.000000
0.006333 1.000000 0.000000
0.197332 1.000000 0.000000
0.388330 1.000000 0.000000
0.579329 1.000000 0.000000
0.770327 1.000000 0.000000
0.961325 1.000000 0.000000
1.000000 1.000000 0.000684
1.000000 1.000000 0.008826
0.000000 0.000000 0.352846
0.000000 0.000000 0.347870
0.163520 0.000000 0.336195
0.350284 0.000000 0.323777
0.537048 0.000000 0.311358
0.723812 0.000000 0.298939
0.910576 0.000000 0.286520
1.000000 0.000000 0.274102
1.000000 0.000000 0.266268
0.000000 0.007926 0.334277
0.000000 0.011186 0.328828
0.177274 0.007095 0.316030
0.363565 0.002912 0.303139
0.549857 0.000000 0.290247
0.736148 0.000000 0.277356
0.922439 0.000000 0.264464
1.000000 0.000000 0.251573
1.000000 0.000000 0.243916
0.000000 0.183602 0.291559
0.000000 0.186305 0.285554
0.167825 0.182121 0.272662
0.354116 0.177938 0.259771
0.540408 0.173754 0.246879
0.726699 0.169570 0.233988
0.912990 0.165387 0.221096
1.000000 0.161203 0.208204
1.000000 0.162904 0.201198
0.000000 0.359278 0.248841
0.000000 0.361331 0.242186
0.158376 0.357147 0.229294
0.344668 0.352963 0.216403
0.530959 0.348780 0.203511
0.717250 0.344596 0.190619
0.903541 0.340412 0.177728
1.000000 0.336229 0.164836
1.000000 0.338101 0.166247
0.000000 0.534954 0.206123
0.000000 0.536357 0.198818
0.148928 0.532173 0.185926
0.335219 0.527989 0.173035
0.524374 0.523533 0.162579
0.719872 0.518474 0.157520
0.913903 0.512401 0.154325
1.000000 0.504983 0.155615
1.000000 0.504477 0.163817
0.000000 0.710630 0.163406
0.000000 0.710791 0.160737
0.154902 0.705732 0.155678
0.347316 0.698543 0.154538
0.538373 0.690418 0.155120
0.729431 0.682293 0.155703
0.920488 0.674167 0.156286
1.000000 0.667991 0.158817
1.000000 0.667484 0.167018
0.000000 0.881316 0.151381
0.000000 0.876560 0.155332
0.162844 0.868434 0.155915
0.353901 0.860309 0.156498
0.544959 0.852184 0.157080
0.736016 0.844059 0.157663
0.927074 0.835933 0.158246
1.000000 0.830998 0.162018
1.000000 0.830491 0.170219
0.000000 1.000000 0.154582
0.000000 1.000000 0.157292
0.169429 1.000000 0.157875
0.360487 1.000000 0.158458
0.551544 1.000000 0.159040
0.742602 1.000000 0.159623
0.933659 0.997700 0.160206
1.000000 0.994005 0.165219
1.000000 0.993499 0.173421
0.000000 1.000000 0.179864
0.006978 1.000000 0.181274
0.197976 1.000000 0.181797
0.388975 1.000000 0.182321
0.579973 1.000000 0.182844
0.770972 1.000000 0.183368
0.961970 1.000000 0.183891
1.000000 1.000000 0.190087
1.000000 1.000000 0.198229
0.000000 0.000000 0.537794
0.000000 0.000000 0.532818
0.162726 0.000000 0.521078
0.349491 0.000000 0.508659
0.536255 0.000000 0.496240
0.723019 0.000000 0.483822
0.909783 0.000000 0.471403
1.000000 0.000000 0.458984
1.000000 0.000000 0.451216
0.000000 0.006571 0.519065
0.000000 0.009830 0.513616
0.176320 0.005675 0.500752
0.362612 0.001491 0.487861
0.548903 0.000000 0.474969
0.735194 0.000000 0.462078
0.921485 0.000000 0.449186
1.000000 0.000000 0.436295
1.000000 0.000000 0.428704
0.000000 0.182247 0.476347
0.000000 0.184884 0.470276
0.166871 0.180700 0.457384
0.353163 0.176517 0.444493
0.539454 0.172333 0.431601
0.725745 0.168149 0.418710
0.912036 0.163966 0.405818
1.000000 0.159782 0.392926
1.000000 0.161549 0.385986
0.000000 0.357923 0.433629
0.000000 0.359910 0.426908
0.157423 0.355726 0.414016
0.343714 0.351543 0.401125
0.530005 0.347359 0.388233
0.716296 0.343175 0.375341
0.902588 0.338992 0.362450
1.000000 0.334557 0.351803
1.000000 0.336573 0.353819
0.000000 0.533599 0.390911
0.000000 0.534936 0.383540
0.147974 0.530752 0.370648
0.334265 0.526568 0.357757
0.526547 0.521815 0.349961
0.722045 0.516756 0.344902
0.914568 0.509642 0.343623
1.000000 0.502349 0.345039
1.000000 0.501842 0.353240
0.000000 0.709268 0.348314
0.000000 0.709073 0.348119
0.156923 0.703909 0.343253
0.347980 0.695784 0.343835
0.539038 0.687658 0.344418
0.730096 0.679533 0.345001
0.921153 0.671408 0.345583
1.000000 0.665356 0.348240
1.000000 0.664850 0.356441
0.000000 0.878682 0.340804
0.000000 0.873800 0.344630
0.163508 0.865675 0.345213
0.354566 0.857550 0.345795
0.545623 0.849425 0.346378
0.736681 0.841299 0.346961
0.927739 0.833174 0.347543
1.000000 0.828364 0.351441
1.000000 0.827857 0.359642
0.000000 1.000000 0.344005
0.000000 1.000000 0.346590
0.170094 1.000000 0.347173
0.361151 1.000000 0.347756
0.552209 1.000000 0.348338
0.743266 1.000000 0.348921
0.934324 0.994940 0.349503
1.000000 0.991371 0.354643
1.000000 0.990865 0.362844
0.000000 1.000000 0.369267
0.007623 1.000000 0.370551
0.198621 1.000000 0.371075
0.389619 1.000000 0.371598
0.580618 1.000000 0.372122
0.771617 1.000000 0.372645
0.962615 1.000000 0.373169
1.000000 1.000000 0.379490
1.000000 1.000000 0.387632
0.000000 0.000000 0.722742
0.000000 0.000000 0.717767
0.161933 0.000000 0.705961
0.348697 0.000000 0.693542
0.535461 0.000000 0.681123
0.722226 0.000000 0.668704
0.908990 0.000000 0.656286
1.000000 0.000000 0.643867
1.000000 0.000000 0.636164
0.000000 0.005216 0.703852
0.000000 0.008437 0.698366
0.175366 0.004254 0.685474
0.361658 0.000070 0.672583
0.547949 0.000000 0.659691
0.734240 0.000000 0.646800
0.920531 0.000000 0.633908
1.000000 0.000000 0.621016
1.000000 0.000000 0.613491
0.000000 0.180892 0.661134
0.000000 0.183463 0.654998
0.165918 0.179280 0.642106
0.352209 0.175096 0.629215
0.538500 0.170912 0.616323
0.724791 0.166729 0.603431
0.911083 0.162545 0.590540
1.000000 0.158361 0.577648
1.000000 0.160194 0.570773
0.000000 0.356568 0.618417
0.000000 0.358489 0.611630
0.156469 0.354306 0.598738
0.342760 0.350122 0.585847
0.529051 0.345938 0.572955
0.715343 0.341754 0.560063
0.901634 0.337571 0.547172
1.000000 0.332839 0.539185
1.000000 0.335046 0.541392
0.000000 0.532244 0.575699
0.000000 0.533515 0.568262
0.147020 0.529331 0.555370
0.333311 0.525148 0.542478
0.528720 0.520097 0.537343
0.724175 0.515008 0.532339
0.915233 0.506882 0.532921
1.000000 0.499715 0.534462
1.000000 0.499208 0.542663
0.000000 0.707740 0.535887
0.000000 0.707355 0.535501
0.157588 0.701150 0.532551
0.348645 0.693024 0.533133
0.539703 0.684899 0.533716
0.730760 0.676774 0.534299
0.921818 0.668649 0.534881
1.000000 0.662722 0.537663
1.000000 0.662216 0.545864
0.000000 0.876048 0.530227
0.000000 0.871041 0.533928
0.164173 0.862916 0.534511
0.355231 0.854790 0.535093
0.546288 0.846665 0.535676
0.737346 0.838540 0.536259
0.928403 0.830415 0.536841
1.000000 0.825730 0.540864
1.000000 0.825223 0.549066
0.000000 1.000000 0.533429
0.000000 1.000000 0.535888
0.170759 1.000000 0.536471
0.361816 1.000000 0.537053
0.552874 1.000000 0.537636
0.743931 1.000000 0.538219
0.934989 0.992181 0.538801
1.000000 0.988737 0.544066
1.000000 0.988231 0.552267
0.000000 1.000000 0.558670
0.008267 1.000000 0.559829
0.199266 1.000000 0.560353
0.390264 1.000000 0.560876
0.581263 1.000000 0.561400
0.772261 1.000000 0.561923
0.963260 1.000000 0.562447
1.000000 1.000000 0.568893
1.000000 1.000000 0.577035
0.000000 0.000000 0.907691
0.000000 0.000000 0.902715
0.161140 0.000000 0.890843
0.347904 0.000000 0.878424
0.534668 0.000000 0.866006
0.721432 0.000000 0.853587
0.908196 0.000000 0.841168
1.000000 0.000000 0.828749
1.000000 0.000000 0.821112
0.000000 0.003861 0.888640
0.000000 0.007017 0.883088
0.174413 0.002833 0.870196
0.360704 0.000000 0.857305
0.546995 0.000000 0.844413
0.733286 0.000000 0.831522
0.919577 0.000000 0.818630
1.000000 0.000000 0.805738
1.000000 0.000000 0.798279
0.000000 0.179537 0.845922
0.000000 0.182043 0.839720
0.164964 0.177859 0.826828
0.351255 0.173675 0.813937
0.537546 0.169491 0.801045
0.723837 0.165308 0.788154
0.910129 0.161124 0.775262
1.000000 0.156940 0.762370
1.000000 0.158839 0.755561
0.000000 0.355213 0.803204
0.000000 0.357068 0.796352
0.155515 0.352885 0.783460
0.341806 0.348701 0.770568
0.528097 0.344517 0.757677
0.714389 0.340334 0.744785
0.900680 0.336150 0.731894
1.000000 0.331121 0.726566
1.000000 0.333519 0.728965
0.000000 0.530889 0.760486
0.000000 0.532094 0.752984
0.146066 0.527911 0.740092
0.335394 0.523438 0.729784
0.530893 0.518379 0.724725
0.724840 0.512248 0.721636
0.915897 0.504123 0.722219
1.000000 0.497081 0.723885
1.000000 0.496574 0.732086
0.000000 0.706213 0.723459
0.000000 0.705637 0.722883
0.158252 0.698390 0.721848
0.349310 0.690265 0.722431
0.540368 0.682140 0.723014
0.731425 0.674014 0.723596
0.922483 0.665889 0.724179
1.000000 0.660088 0.727086
1.000000 0.659582 0.735288
0.000000 0.873414 0.719651
0.000000 0.868282 0.723226
0.164838 0.860156 0.723809
0.355895 0.852031 0.724391
0.546953 0.843906 0.724974
0.738011 0.835781 0.725557
0.929068 0.827655 0.726139
1.000000 0.823096 0.730288
1.000000 0.822589 0.738489
0.000000 1.000000 0.722852
0.000000 1.000000 0.725186
0.171423 1.000000 0.725769
0.362481 1.000000 0.726351
0.553538 1.000000 0.726934
0.744596 0.997547 0.727517
0.935654 0.989421 0.728099
1.000000 0.986103 0.733489
1.000000 0.985597 0.741690
0.000000 1.000000 0.748073
0.008912 1.000000 0.749107
0.199910 1.000000 0.749631
0.390909 1.000000 0.750154
0.581907 1.000000 0.750678
0.772906 1.000000 0.751201
0.963904 1.000000 0.751725
1.000000 1.000000 0.758296
1.000000 1.000000 0.766439
0.000000 0.000000 1.000000
0.000000 0.000000 1.000000
0.160347 0.000000 1.000000
0.347111 0.000000 1.000000
0.533875 0.000000 1.000000
0.720639 0.000000 1.000000
0.907403 0.000000 1.000000
1.000000 0.000000 1.000000
1.000000 0.000000 1.000000
0.000000 0.002506 1.000000
0.000000 0.005596 1.000000
0.173459 0.001412 1.000000
0.359750 0.000000 1.000000
0.546041 0.000000 1.000000
0.732332 0.000000 1.000000
0.918624 0.000000 1.000000
1.000000 0.000000 0.990460
1.000000 0.000000 0.983066
0.000000 0.178182 1.000000
0.000000 0.180622 1.000000
0.164010 0.176438 1.000000
0.350301 0.172254 0.998659
0.536592 0.168071 0.985767
0.722884 0.163887 0.972876
0.909175 0.159703 0.959984
1.000000 0.155520 0.947092
1.000000 0.157484 0.940349
0.000000 0.353858 0.987992
0.000000 0.355648 0.981074
0.154561 0.351464 0.968182
0.340852 0.347280 0.955291
0.527144 0.343097 0.942399
0.713435 0.338913 0.929507
0.902538 0.334462 0.919008
1.000000 0.329402 0.913948
1.000000 0.330933 0.918308
0.000000 0.529534 0.945274
0.000000 0.530673 0.937706
0.145112 0.526490 0.924814
0.337567 0.521720 0.917166
0.533066 0.516661 0.912107
0.725505 0.509489 0.910934
0.916562 0.501364 0.911517
1.000000 0.494447 0.913308
1.000000 0.493940 0.921509
0.000000 0.704686 0.911032
0.000000 0.703756 0.910564
0.158917 0.695631 0.911146
0.349975 0.687506 0.911729
0.541032 0.679380 0.912312
0.732090 0.671255 0.912894
0.923148 0.663130 0.913477
1.000000 0.657454 0.916509
1.000000 0.656948 0.924711
0.000000 0.870780 0.909074
0.000000 0.865522 0.912524
0.165503 0.857397 0.913107
0.356560 0.849272 0.913689
0.547618 0.841147 0.914272
0.738675 0.833021 0.914854
0.929733 0.824896 0.915437
1.000000 0.820462 0.919711
1.000000 0.819955 0.927912
0.000000 1.000000 0.912275
0.000000 1.000000 0.914484
0.172088 1.000000 0.915067
0.363146 1.000000 0.915649
0.554203 1.000000 0.916232
0.745261 0.994787 0.916814
0.936318 0.986662 0.917397
1.000000 0.983469 0.922912
1.000000 0.982963 0.931113
0.000000 1.000000 0.937476
0.009557 1.000000 0.938385
0.200555 1.000000 0.938908
0.391554 1.000000 0.939432
0.582552 1.000000 0.939955
0.773551 1.000000 0.940479
0.964549 1.000000 0.941002
1.000000 1.000000 0.947700
1.000000 1.000000 0.955842
0.000000 0.000000 1.000000
0.000000 0.000000 1.000000
0.160391 0.000000 1.000000
0.347090 0.000000 1.000000
0.533788 0.000000 1.000000
0.720487 0.000000 1.000000
0.907185 0.000000 1.000000
1.000000 0.000000 1.000000
1.000000 0.000000 1.000000
0.000000 0.001899 1.000000
0.000000 0.004858 1.000000
0.173122 0.000609 1.000000
0.359347 0.000000 1.000000
0.545573 0.000000 1.000000
0.731799 0.000000 1.000000
0.918024 0.000000 1.000000
1.000000 0.000000 1.000000
1.000000 0.000000 1.000000
0.000000 0.177354 1.000000
0.000000 0.179663 1.000000
0.163452 0.175414 1.000000
0.349678 0.171164 1.000000
0.535903 0.166915 1.000000
0.722129 0.162666 1.000000
0.908355 0.158416 1.000000
1.000000 0.154167 1.000000
1.000000 0.156131 1.000000
0.000000 0.352809 1.000000
0.000000 0.354468 1.000000
0.153783 0.350219 1.000000
0.340008 0.345969 1.000000
0.526234 0.341720 1.000000
0.712481 0.337492 1.000000
0.904711 0.332744 1.000000
1.000000 0.327736 1.000000
1.000000 0.328408 1.000000
0.000000 0.528265 1.000000
0.000000 0.529273 1.000000
0.144242 0.525061 1.000000
0.339740 0.520002 1.000000
0.535153 0.514896 1.000000
0.726318 0.506878 1.000000
0.917483 0.498860 1.000000
1.000000 0.492176 1.000000
1.000000 0.491777 1.000000
0.000000 0.703172 1.000000
0.000000 0.701077 1.000000
0.159770 0.693059 1.000000
0.350935 0.685041 1.000000
0.542100 0.677023 1.000000
0.733265 0.669006 1.000000
0.924430 0.660988 1.000000
1.000000 0.655545 1.000000
1.000000 0.655146 1.000000
0.000000 0.868480 1.000000
0.000000 0.863204 1.000000
0.166716 0.855187 1.000000
0.357881 0.847169 1.000000
0.549046 0.839151 1.000000
0.740211 0.831133 1.000000
0.931376 0.823115 1.000000
1.000000 0.818914 1.000000
1.000000 0.818514 1.000000
0.000000 1.000000 1.000000
0.000000 1.000000 1.000000
0.173663 1.000000 1.000000
0.364828 1.000000 1.000000
0.555993 1.000000 1.000000
0.747158 0.993261 1.000000
0.938323 0.985243 1.000000
1.000000 0.982282 1.000000
1.000000 0.981883 1.000000
0.000000 1.000000 1.000000
0.011366 1.000000 1.000000
0.202471 1.000000 1.000000
0.393577 1.000000 1.000000
0.584683 1.000000 1.000000
0.775789 1.000000 1.000000
0.966895 1.000000 1.000000
1.000000 1.000000 1.000000
1.000000 1.000000 1.000000
0.000000 0.000000 1.000000
0.000000 0.000000 1.000000
0.162038 0.000000 1.000000
0.348736 0.000000 1.000000
0.535435 0.000000 1.000000
0.722133 0.000000 1.000000
0.908832 0.000000 1.000000
1.000000 0.000000 1.000000
1.000000 0.000000 1.000000
0.000000 0.002983 1.000000
0.000000 0.005877 1.000000
0.174608 0.001627 1.000000
0.360833 0.000000 1.000000
0.547059 0.000000 1.000000
0.733285 0.000000 1.000000
0.919510 0.000000 1.000000
1.000000 0.000000 1.000000
1.000000 0.000000 1.000000
0.000000 0.178439 1.000000
0.000000 0.180682 1.000000
0.164938 0.176432 1.000000
0.351164 0.172183 1.000000
0.537389 0.167934 1.000000
0.723615 0.163685 1.000000
0.909841 0.159435 1.000000
1.000000 0.155186 1.000000
1.000000 0.157216 1.000000
0.000000 0.353894 1.000000
0.000000 0.355487 1.000000
0.155268 0.351238 1.000000
0.341494 0.346988 1.000000
0.527720 0.342739 1.000000
0.713945 0.338490 1.000000
0.909342 0.333484 1.000000
1.000000 0.328672 1.000000
1.000000 0.328273 1.000000
0.000000 0.529349 1.000000
0.000000 0.530292 1.000000
0.148847 0.525775 1.000000
0.344387 0.520757 1.000000
0.538316 0.514635 1.000000
0.729481 0.506617 1.000000
0.920646 0.498599 1.000000
1.000000 0.492041 1.000000
1.000000 0.491641 1.000000
0.000000 0.704121 1.000000
0.000000 0.700816 1.000000
0.162933 0.692798 1.000000
0.354098 0.684780 1.000000
0.545263 0.676762 1.000000
0.736428 0.668745 1.000000
0.927593 0.660727 1.000000
1.000000 0.655409 1.000000
1.000000 0.655010 1.000000
0.000000 0.868344 1.000000
0.000000 0.862943 1.000000
0.169880 0.854926 1.000000
0.361045 0.846908 1.000000
0.552210 0.838890 1.000000
0.743375 0.830872 1.000000
0.934540 0.822854 1.000000
1.000000 0.818778 1.000000
1.000000 0.818379 1.000000
0.000000 1.000000 1.000000
0.000000 1.000000 1.000000
0.176826 1.000000 1.000000
0.367991 1.000000 1.000000
0.559156 1.000000 1.000000
0.750321 0.993000 1.000000
0.941486 0.984982 1.000000
1.000000 0.982147 1.000000
1.000000 0.981748 1.000000
0.000000 1.000000 1.000000
0.014509 1.000000 1.000000
0.205615 1.000000 1.000000
0.396721 1.000000 1.000000
0.587826 1.000000 1.000000
0.778932 1.000000 1.000000
0.970038 1.000000 1.000000
1.000000 1.000000 1.000000
1.000000 1.000000 1.000000
