resources/luts/neon_night.cube
TITLE "Neon Night"
LUT_3D_SIZE 33
DOMAIN_MIN 0.000000 0.000000 0.000000
DOMAIN_MAX 1.000000 1.000000 1.000000
0.000000 0.000000 0.000000
0.000000 0.000000 0.000000
0.000000 0.000000 0.000000
0.000000 0.000000 0.000000
0.000000 0.000000 0.000000
0.024726 0.000000 0.000000
0.071401 0.000000 0.000000
0.118075 0.000000 0.000000
0.164750 0.000000 0.000000
0.211425 0.000000 0.000000
0.258099 0.000000 0.000000
0.304774 0.000000 0.000000
0.351449 0.000000 0.000000
0.398123 0.000000 0.000000
0.444798 0.000000 0.000000
0.491472 0.000000 0.000000
0.538147 0.000000 0.000000
0.584822 0.000000 0.000000
0.631496 0.000000 0.000000
0.678171 0.000000 0.000000
0.724846 0.000000 0.000000
0.771520 0.000000 0.000000
0.818195 0.000000 0.000000
0.864869 0.000000 0.000000
0.911544 0.000000 0.000000
0.958219 0.000000 0.000000
1.000000 0.000000 0.000000
1.000000 0.000000 0.000000
1.000000 0.000000 0.000000
1.000000 0.000000 0.000000
1.000000 0.000000 0.000000
1.000000 0.000000 0.000000
1.000000 0.000000 0.000000
0.000000 0.000000 0.000000
0.000000 0.000000 0.000000
0.000000 0.000000 0.000000
0.000000 0.000000 0.000000
0.000000 0.000000 0.000000
0.028804 0.000000 0.000000
0.075478 0.000000 0.000000
0.122153 0.000000 0.000000
0.168827 0.000000 0.000000
0.215502 0.000000 0.000000
0.262177 0.000000 0.000000
0.308851 0.000000 0.000000
0.355526 0.000000 0.000000
0.402201 0.000000 0.000000
0.448875 0.000000 0.000000
0.495550 0.000000 0.000000
0.542224 0.000000 0.000000
0.588899 0.000000 0.000000
0.635574 0.000000 0.000000
0.682248 0.000000 0.000000
0.728923 0.000000 0.000000
0.775597 0.000000 0.000000
0.822272 0.000000 0.000000
0.868947 0.000000 0.000000
0.915621 0.000000 0.000000
0.962296 0.000000 0.000000
1.000000 0.000000 0.000000
1.000000 0.000000 0.000000
1.000000 0.000000 0.000000
1.000000 0.000000 0.000000
1.000000 0.000000 0.000000
1.000000 0.000000 0.000000
1.000000 0.000000 0.000000
0.000000 0.000000 0.000000
0.000000 0.000000 0.000000
0.000000 0.000000 0.000000
0.000000 0.000000 0.000000
0.000000 0.000000 0.000000
0.032881 0.000000 0.000000
0.079556 0.000000 0.000000
0.126230 0.000000 0.000000
0.172905 0.000000 0.000000
0.219579 0.000000 0.000000
0.266254 0.000000 0.000000
0.312929 0.000000 0.000000
0.359603 0.000000 0.000000
0.406278 0.000000 0.000000
0.452953 0.000000 0.000000
0.499627 0.000000 0.000000
0.546302 0.000000 0.000000
0.592976 0.000000 0.000000
0.639651 0.000000 0.000000
0.686326 0.000000 0.000000
0.733000 0.000000 0.000000
0.779675 0.000000 0.000000
0.826349 0.000000 0.000000
0.873024 0.000000 0.000000
0.919699 0.000000 0.000000
0.966373 0.000000 0.000000
1.000000 0.000000 0.000000
1.000000 0.000000 0.000000
1.000000 0.000000 0.000000
1.000000 0.000000 0.000000
1.000000 0.000000 0.000000
1.000000 0.000000 0.000000
1.000000 0.000000 0.000000
0.000000 0.000000 0.000000
0.000000 0.000000 0.000000
0.000000 0.000000 0.000000
0.000000 0.000000 0.000000
0.000000 0.000000 0.000000
0.036958 0.000000 0.000000
0.083633 0.000000 0.000000
0.130308 0.000000 0.000000
0.176982 0.000000 0.000000
0.223657 0.000000 0.000000
0.270331 0.000000 0.000000
0.317006 0.000000 0.000000
0.363681 0.000000 0.000000
0.410355 0.000000 0.000000
0.457030 0.000000 0.000000
0.503704 0.000000 0.000000
0.550379 0.000000 0.000000
0.597054 0.000000 0.000000
0.643728 0.000000 0.000000
0.690403 0.000000 0.000000
0.737078 0.000000 0.000000
0.783752 0.000000 0.000000
0.830427 0.000000 0.000000
0.877101 0.000000 0.000000
0.923776 0.000000 0.000000
0.970451 0.000000 0.000000
1.000000 0.000000 0.000000
1.000000 0.000000 0.000000
1.000000 0.000000 0.000000
1.000000 0.000000 0.000000
1.000000 0.000000 0.000000
1.000000 0.000000 0.000000
1.000000 0.000000 0.000000
0.000000 0.010191 0.000000
0.000000 0.010989 0.000000
0.000000 0.011788 0.000000
0.000000 0.012586 0.000000
0.000000 0.013385 0.000000
0.038936 0.012547 0.000000
0.085492 0.011485 0.000000
0.132048 0.010422 0.000000
0.178605 0.009360 0.000000
0.225161 0.008298 0.000000
0.271718 0.007235 0.000000
0.318274 0.006173 0.000000
0.364830 0.005111 0.000000
0.411387 0.004048 0.000000
0.457943 0.002986 0.000000
0.504500 0.001924 0.000000
0.551056 0.000861 0.000000
0.597613 0.000000 0.000000
0.644169 0.000000 0.000000
0.690725 0.000000 0.000000
0.737282 0.000000 0.000000
0.783838 0.000000 0.000000
0.830395 0.000000 0.000000
0.876951 0.000000 0.000000
0.923507 0.000000 0.000000
0.970064 0.000000 0.000000
1.000000 0.000000 0.000000
1.000000 0.000000 0.000000
1.000000 0.000000 0.000000
1.000000 0.000000 0.000000
1.000000 0.000000 0.000000
1.000000 0.000000 0.000000
1.000000 0.000000 0.000000
0.000000 0.054055 0.000000
0.000000 0.054853 0.000000
0.000000 0.055652 0.000000
0.000000 0.056450 0.000000
0.000000 0.057248 0.000000
0.036518 0.056248 0.000000
0.083075 0.055186 0.000000
0.129631 0.054124 0.000000
0.176187 0.053061 0.000000
0.222744 0.051999 0.000000
0.269300 0.050937 0.000000
0.315857 0.049874 0.000000
0.362413 0.048812 0.000000
0.408969 0.047750 0.000000
0.455526 0.046687 0.000000
0.502082 0.045625 0.000000
0.548639 0.044563 0.000000
0.595195 0.043500 0.000000
0.641751 0.042438 0.000000
0.688308 0.041376 0.000000
0.734864 0.040313 0.000000
0.781421 0.039251 0.000000
0.827977 0.038189 0.000000
0.874534 0.037126 0.000000
0.921090 0.036064 0.000000
0.967646 0.035002 0.000000
1.000000 0.033939 0.000000
1.000000 0.032877 0.000000
1.000000 0.031815 0.000000
1.000000 0.030752 0.000000
1.000000 0.031235 0.000000
1.000000 0.032033 0.000000
1.000000 0.032832 0.000000
0.000000 0.097919 0.000000
0.000000 0.098717 0.000000
0.000000 0.099515 0.000000
0.000000 0.100314 0.000000
0.000000 0.101012 0.000000
0.034101 0.099950 0.000000
0.080657 0.098887 0.000000
0.127214 0.097825 0.000000
0.173770 0.096763 0.000000
0.220326 0.095700 0.000000
0.266883 0.094638 0.000000
0.313439 0.093576 0.000000
0.359996 0.092513 0.000000
0.406552 0.091451 0.000000
0.453108 0.090389 0.000000
0.499665 0.089326 0.000000
0.546221 0.088264 0.000000
0.592778 0.087202 0.000000
0.639334 0.086139 0.000000
0.685890 0.085077 0.000000
0.732447 0.084015 0.000000
0.779003 0.082952 0.000000
0.825560 0.081890 0.000000
0.872116 0.080828 0.000000
0.918673 0.079765 0.000000
0.965229 0.078703 0.000000
1.000000 0.077641 0.000000
1.000000 0.076578 0.000000
1.000000 0.075516 0.000000
1.000000 0.074454 0.000000
1.000000 0.075099 0.000000
1.000000 0.075897 0.000000
1.000000 0.076695 0.000000
0.000000 0.141782 0.000000
0.000000 0.142581 0.000000
0.000000 0.143379 0.000000
0.000000 0.144178 0.000000
0.000000 0.144713 0.000000
0.031683 0.143651 0.000000
0.078240 0.142588 0.000000
0.124796 0.141526 0.000000
0.171353 0.140464 0.000000
0.217909 0.139401 0.000000
0.264465 0.138339 0.000000
0.311022 0.137277 0.000000
0.357578 0.136214 0.000000
0.404135 0.135152 0.000000
0.450691 0.134090 0.000000
0.497247 0.133027 0.000000
0.543804 0.131965 0.000000
0.590360 0.130903 0.000000
0.636917 0.129840 0.000000
0.683473 0.128778 0.000000
0.730030 0.127716 0.000000
0.776586 0.126653 0.000000
0.823142 0.125591 0.000000
0.869699 0.124529 0.000000
0.916255 0.123466 0.000000
0.962812 0.122404 0.000000
1.000000 0.121342 0.000000
1.000000 0.120279 0.000000
1.000000 0.119217 0.000000
1.000000 0.118164 0.000000
1.000000 0.118962 0.000000
1.000000 0.119761 0.000000
1.000000 0.120559 0.000000
0.000000 0.185646 0.000000
0.000000 0.186445 0.000000
0.000000 0.187243 0.000000
0.000000 0.188041 0.000000
0.000000 0.188414 0.000000
0.029266 0.187352 0.000000
0.075822 0.186290 0.000000
0.122379 0.185227 0.000000
0.168935 0.184165 0.000000
0.215492 0.183103 0.000000
0.262048 0.182040 0.000000
0.308604 0.180978 0.000000
0.355161 0.179916 0.000000
0.401717 0.178853 0.000000
0.448274 0.177791 0.000000
0.494830 0.176729 0.000000
0.541386 0.175666 0.000000
0.587943 0.174604 0.000000
0.634499 0.173542 0.000000
0.681056 0.172479 0.000000
0.727612 0.171417 0.000000
0.774168 0.170355 0.000000
0.820725 0.169292 0.000000
0.867281 0.168230 0.000000
0.913838 0.167168 0.000000
0.960394 0.166105 0.000000
1.000000 0.165043 0.000000
1.000000 0.163981 0.000000
1.000000 0.162918 0.000000
1.000000 0.162028 0.000000
1.000000 0.162826 0.000000
1.000000 0.163625 0.000000
1.000000 0.164423 0.000000
0.000000 0.229510 0.000000
0.000000 0.230308 0.000000
0.000000 0.231107 0.000000
0.000000 0.231905 0.000000
0.000000 0.232116 0.000000
0.026849 0.231053 0.000000
0.073405 0.229991 0.000000
0.119961 0.228929 0.000000
0.166518 0.227866 0.000000
0.213074 0.226804 0.000000
0.259631 0.225742 0.000000
0.306187 0.224679 0.000000
0.352743 0.223617 0.000000
0.399300 0.222555 0.000000
0.445856 0.221492 0.000000
0.492413 0.220430 0.000000
0.538969 0.219368 0.000000
0.585526 0.218305 0.000000
0.632082 0.217243 0.000000
0.678638 0.216181 0.000000
0.725195 0.215118 0.000000
0.771751 0.214056 0.000000
0.818307 0.212994 0.000000
0.864864 0.211931 0.000000
0.911420 0.210869 0.000000
0.957977 0.209807 0.000000
1.000000 0.208744 0.000000
1.000000 0.207682 0.000000
1.000000 0.206620 0.000000
1.000000 0.205892 0.000000
1.000000 0.206690 0.000000
1.000000 0.207488 0.000000
1.000000 0.208287 0.000000
0.000000 0.273374 0.000000
0.000000 0.274172 0.000000
0.000000 0.274971 0.000000
0.000000 0.275769 0.000000
0.000000 0.275817 0.000000
0.024431 0.274755 0.000000
0.070988 0.273692 0.000000
0.117544 0.272630 0.000000
0.164100 0.271568 0.000000
0.210657 0.270505 0.000000
0.257213 0.269443 0.000000
0.303770 0.268381 0.000000
0.350326 0.267318 0.000000
0.396882 0.266256 0.000000
0.443439 0.265194 0.000000
0.489995 0.264131 0.000000
0.536552 0.263069 0.000000
0.583108 0.262007 0.000000
0.629664 0.260944 0.000000
0.676221 0.259882 0.000000
0.722777 0.258820 0.000000
0.769334 0.257757 0.000000
0.815890 0.256695 0.000000
0.862446 0.255633 0.000000
0.909003 0.254570 0.000000
0.955559 0.253508 0.000000
1.000000 0.252446 0.000000
1.000000 0.251383 0.000000
1.000000 0.250321 0.000000
1.000000 0.249755 0.000000
1.000000 0.250554 0.000000
1.000000 0.251352 0.000000
1.000000 0.252151 0.000000
0.000000 0.317238 0.000000
0.000000 0.318036 0.000000
0.000000 0.318834 0.000000
0.000000 0.319633 0.000000
0.000000 0.319518 0.000000
0.022014 0.318456 0.000000
0.068570 0.317393 0.000000
0.115127 0.316331 0.000000
0.161683 0.315269 0.000000
0.208239 0.314206 0.000000
0.254796 0.313144 0.000000
0.301352 0.312082 0.000000
0.347909 0.311019 0.000000
0.394465 0.309957 0.000000
0.441021 0.308895 0.000000
0.487578 0.307832 0.000000
0.534134 0.306770 0.000000
0.580691 0.305708 0.000000
0.627247 0.304646 0.000000
0.673804 0.303583 0.000000
0.720360 0.302521 0.000000
0.766916 0.301459 0.000000
0.813473 0.300396 0.000000
0.860029 0.299334 0.000000
0.906585 0.298272 0.000000
0.953142 0.297209 0.000000
0.999698 0.296147 0.000000
1.000000 0.295085 0.000000
1.000000 0.294022 0.000000
1.000000 0.293619 0.000000
1.000000 0.294418 0.000000
1.000000 0.295216 0.000000
1.000000 0.296014 0.000000
0.000000 0.361101 0.000000
0.000000 0.361900 0.000000
0.000000 0.362698 0.000000
0.000000 0.363497 0.000000
0.000000 0.363219 0.000000
0.019596 0.362157 0.000000
0.066153 0.361095 0.000000
0.112709 0.360032 0.000000
0.159266 0.358970 0.000000
0.205822 0.357908 0.000000
0.252378 0.356845 0.000000
0.298935 0.355783 0.000000
0.345491 0.354721 0.000000
0.392048 0.353658 0.000000
0.438604 0.352596 0.000000
0.485160 0.351534 0.000000
0.531717 0.350471 0.000000
0.578273 0.349409 0.000000
0.624830 0.348347 0.000000
0.671386 0.347284 0.000000
0.717942 0.346222 0.000000
0.764499 0.345160 0.000000
0.811055 0.344097 0.000000
0.857612 0.343035 0.000000
0.904168 0.341973 0.000000
0.950724 0.340910 0.000000
0.997281 0.339848 0.000000
1.000000 0.338786 0.000000
1.000000 0.337723 0.000000
1.000000 0.337483 0.000000
1.000000 0.338281 0.000000
1.000000 0.339073 0.000000
1.000000 0.339771 0.000000
0.000000 0.404965 0.000000
0.000000 0.405764 0.000000
0.000000 0.406562 0.000000
0.000000 0.407360 0.000000
0.000000 0.406921 0.000000
0.017179 0.405858 0.000000
0.063735 0.404796 0.000000
0.110292 0.403734 0.000000
0.156848 0.402671 0.000000
0.203405 0.401609 0.000000
0.249961 0.400547 0.000000
0.296517 0.399484 0.000000
0.343074 0.398422 0.000000
0.389630 0.397360 0.000000
0.436187 0.396297 0.000000
0.482743 0.395235 0.000000
0.529299 0.394173 0.000000
0.575856 0.393110 0.000000
0.622412 0.392048 0.000000
0.668969 0.390986 0.000000
0.715525 0.389923 0.000000
0.762081 0.388861 0.000000
0.808638 0.387799 0.000000
0.855194 0.386736 0.000000
0.901751 0.385674 0.000000
0.948307 0.384612 0.000000
0.994863 0.383549 0.000000
1.000000 0.382487 0.000000
1.000000 0.381341 0.000000
1.000000 0.381204 0.000000
1.000000 0.381902 0.000000
1.000000 0.382601 0.000000
1.000000 0.383299 0.000000
0.000000 0.448829 0.000000
0.000000 0.449627 0.000000
0.000000 0.450426 0.000000
0.000000 0.451224 0.000000
0.000000 0.450622 0.000000
0.014762 0.449560 0.000000
0.061318 0.448497 0.000000
0.107874 0.447435 0.000000
0.154431 0.446373 0.000000
0.200987 0.445310 0.000000
0.247544 0.444248 0.000000
0.294100 0.443186 0.000000
0.340656 0.442123 0.000000
0.387213 0.441061 0.000000
0.433769 0.439999 0.000000
0.480326 0.438936 0.000000
0.526882 0.437874 0.000000
0.573438 0.436812 0.000000
0.619995 0.435749 0.000000
0.666551 0.434687 0.000000
0.713108 0.433625 0.000000
0.759664 0.432562 0.000000
0.806220 0.431500 0.000000
0.852777 0.430438 0.000000
0.899333 0.429375 0.000000
0.947751 0.428159 0.000000
0.996636 0.426905 0.000000
1.000000 0.425651 0.000000
1.000000 0.424396 0.000000
1.000000 0.424732 0.000000
1.000000 0.425430 0.000000
1.000000 0.426129 0.000000
1.000000 0.426828 0.000000
0.000000 0.492693 0.000000
0.000000 0.493491 0.000000
0.000000 0.494290 0.000000
0.000000 0.495088 0.000000
0.000000 0.494323 0.000000
0.012344 0.493261 0.000000
0.058901 0.492198 0.000000
0.105457 0.491136 0.000000
0.152013 0.490074 0.000000
0.198570 0.489011 0.000000
0.245126 0.487949 0.000000
0.291683 0.486887 0.000000
0.338239 0.485824 0.000000
0.384795 0.484762 0.000000
0.431352 0.483700 0.000000
0.477908 0.482638 0.000000
0.524465 0.481575 0.000000
0.571021 0.480513 0.000000
0.617577 0.479451 0.000000
0.664134 0.478388 0.000000
0.710690 0.477326 0.000000
0.757627 0.476232 0.000000
0.806512 0.474978 0.000000
0.855397 0.473723 0.000000
0.904282 0.472469 0.000000
0.953167 0.471215 0.000000
1.000000 0.469960 0.000000
1.000000 0.468706 0.000000
1.000000 0.467561 0.000000
1.000000 0.468067 0.000000
1.000000 0.467967 0.000000
1.000000 0.467867 0.000000
1.000000 0.467768 0.000000
0.000000 0.536557 0.000000
0.000000 0.537355 0.000000
0.000000 0.538153 0.000000
0.000000 0.538952 0.000000
0.000000 0.538024 0.000000
0.009927 0.536962 0.000000
0.056483 0.535900 0.000000
0.103040 0.534837 0.000000
0.149596 0.533775 0.000000
0.196152 0.532713 0.000000
0.242709 0.531650 0.000000
0.289265 0.530588 0.000000
0.335822 0.529526 0.000000
0.382378 0.528463 0.000000
0.428934 0.527401 0.000000
0.475491 0.526339 0.000000
0.522047 0.525276 0.000000
0.568604 0.524214 0.000000
0.616388 0.523050 0.000000
0.665273 0.521796 0.000000
0.714158 0.520542 0.000000
0.763043 0.519287 0.000000
0.811928 0.518033 0.000000
0.860813 0.516779 0.000000
0.909698 0.515524 0.000000
0.958583 0.514270 0.000000
1.000000 0.512561 0.000000
1.000000 0.510557 0.000000
1.000000 0.509009 0.000000
1.000000 0.508909 0.000000
1.000000 0.508810 0.000000
1.000000 0.508710 0.000000
1.000000 0.508610 0.000000
0.000000 0.580420 0.000000
0.000000 0.581219 0.000000
0.000000 0.582017 0.000000
0.000000 0.582788 0.000000
0.000000 0.581726 0.000000
0.007509 0.580663 0.000000
0.054066 0.579601 0.000000
0.100622 0.578539 0.000000
0.147179 0.577476 0.000000
0.193735 0.576414 0.000000
0.240291 0.575352 0.000000
0.286848 0.574289 0.000000
0.333404 0.573227 0.000000
0.379961 0.572165 0.000000
0.426517 0.571102 0.000000
0.475149 0.569869 0.000000
0.524034 0.568614 0.000000
0.572919 0.567360 0.000000
0.621804 0.566106 0.000000
0.670689 0.564851 0.000000
0.719574 0.563597 0.000000
0.768459 0.562343 0.000000
0.817344 0.561088 0.000000
0.865169 0.559107 0.000000
0.912960 0.557102 0.000000
0.960752 0.555098 0.000000
1.000000 0.553093 0.000000
1.000000 0.551089 0.000000
1.000000 0.549851 0.000000
1.000000 0.549752 0.000000
1.000000 0.549652 0.000000
1.000000 0.549552 0.000000
1.000000 0.549452 0.000000
0.000000 0.624284 0.000000
0.000000 0.625083 0.000000
0.000000 0.625881 0.000000
0.000000 0.626489 0.000000
0.000000 0.625427 0.000000
0.005092 0.624365 0.000000
0.051648 0.623302 0.000000
0.098205 0.622240 0.000000
0.144761 0.621178 0.000000
0.191317 0.620115 0.000000
0.237874 0.619053 0.000000
0.285025 0.617941 0.000000
0.333910 0.616687 0.000000
0.382795 0.615433 0.000000
0.431680 0.614178 0.000000
0.480565 0.612924 0.000000
0.529451 0.611670 0.000000
0.578336 0.610415 0.000000
0.627221 0.609161 0.000000
0.675741 0.607656 0.000000
0.723532 0.605652 0.000000
0.771323 0.603648 0.000000
0.819115 0.601643 0.000000
0.866906 0.599639 0.000000
0.914697 0.597634 0.000000
0.962488 0.595630 0.000000
1.000000 0.593625 0.000000
1.000000 0.591621 0.000000
1.000000 0.590693 0.000000
1.000000 0.590594 0.000000
1.000000 0.590494 0.000000
1.000000 0.590394 0.000000
1.000000 0.590294 0.000000
0.000000 0.668148 0.000000
0.000000 0.668946 0.000000
0.000000 0.669745 0.000000
0.000000 0.670190 0.000000
0.000000 0.669128 0.000000
0.002674 0.668066 0.000000
0.049231 0.667004 0.000000
0.095787 0.665941 0.000000
0.143786 0.664760 0.000000
0.192671 0.663505 0.000000
0.241556 0.662251 0.000000
0.290442 0.660997 0.000000
0.339327 0.659742 0.000000
0.388212 0.658488 0.000000
0.437097 0.657234 0.000000
0.485982 0.655979 0.000000
0.534104 0.654202 0.000000
0.581895 0.652197 0.000000
0.629686 0.650193 0.000000
0.677478 0.648188 0.000000
0.725269 0.646184 0.000000
0.773060 0.644179 0.000000
0.820851 0.642175 0.000000
0.868643 0.640170 0.000000
0.916434 0.638166 0.000000
0.964225 0.636161 0.000000
1.000000 0.634157 0.000000
1.000000 0.632153 0.000000
1.000000 0.631536 0.000000
1.000000 0.631436 0.000000
1.000000 0.631336 0.000000
1.000000 0.631236 0.000000
1.000000 0.631136 0.000000
0.000000 0.712012 0.000000
0.000000 0.712810 0.000000
0.000000 0.713609 0.000000
0.000000 0.713892 0.000000
0.000000 0.712829 0.000000
0.002547 0.711578 0.000000
0.051432 0.710324 0.000000
0.100318 0.709069 0.000000
0.149203 0.707815 0.000000
0.198088 0.706561 0.000000
0.246973 0.705306 0.000000
0.295858 0.704052 0.000000
0.344676 0.702751 0.000000
0.392467 0.700747 0.000000
0.440258 0.698742 0.000000
0.488049 0.696738 0.000000
0.535841 0.694734 0.000000
0.583632 0.692729 0.000000
0.631423 0.690725 0.000000
0.679214 0.688720 0.000000
0.727006 0.686716 0.000000
0.774797 0.684711 0.000000
0.822588 0.682707 0.000000
0.870379 0.680702 0.000000
0.918171 0.678698 0.000000
0.965962 0.676693 0.000000
1.000000 0.674689 0.000000
1.000000 0.672684 0.000000
1.000000 0.672378 0.000000
1.000000 0.672278 0.000000
1.000000 0.672178 0.000000
1.000000 0.672078 0.000000
1.000000 0.671979 0.000000
0.000000 0.755876 0.000000
0.000000 0.756639 0.000000
0.000000 0.757338 0.000000
0.000000 0.757142 0.000000
0.000000 0.755888 0.000000
0.007964 0.754633 0.000000
0.056849 0.753379 0.000000
0.105734 0.752125 0.000000
0.154619 0.750870 0.000000
0.203039 0.749297 0.000000
0.250830 0.747292 0.000000
0.298621 0.745288 0.000000
0.346412 0.743283 0.000000
0.394203 0.741279 0.000000
0.441995 0.739274 0.000000
0.489786 0.737270 0.000000
0.537577 0.735265 0.000000
0.585368 0.733261 0.000000
0.633160 0.731257 0.000000
0.680951 0.729252 0.000000
0.728742 0.727248 0.000000
0.776533 0.725243 0.000000
0.824325 0.723239 0.000000
0.872116 0.721234 0.000000
0.919907 0.719230 0.000000
0.967698 0.717225 0.000000
1.000000 0.715221 0.000000
1.000000 0.713320 0.000000
1.000000 0.713220 0.000000
1.000000 0.713120 0.000000
1.000000 0.713020 0.000000
1.000000 0.712921 0.000000
1.000000 0.712821 0.000000
0.000000 0.799469 0.000000
0.000000 0.800167 0.000000
0.000000 0.800866 0.000000
0.000000 0.800197 0.000000
0.000000 0.798943 0.000000
0.013380 0.797689 0.000000
0.061401 0.795842 0.000000
0.109193 0.793837 0.000000
0.156984 0.791833 0.000000
0.204775 0.789828 0.000000
0.252566 0.787824 0.000000
0.300358 0.785820 0.000000
0.348149 0.783815 0.000000
0.395940 0.781811 0.000000
0.443731 0.779806 0.000000
0.491523 0.777802 0.000000
0.539314 0.775797 0.000000
0.587105 0.773793 0.000000
0.634896 0.771788 0.000000
0.682688 0.769784 0.000000
0.730479 0.767779 0.000000
0.778270 0.765775 0.000000
0.826061 0.763770 0.000000
0.873853 0.761766 0.000000
0.921644 0.759762 0.000000
0.969435 0.757757 0.000000
1.000000 0.755753 0.000000
1.000000 0.754162 0.000000
1.000000 0.754062 0.000000
1.000000 0.753962 0.000000
1.000000 0.753863 0.000000
1.000000 0.753763 0.000000
1.000000 0.753663 0.000000
0.000000 0.842997 0.000000
0.000000 0.843695 0.000000
0.000000 0.844271 0.000000
0.000000 0.842387 0.000000
0.000000 0.840383 0.000000
0.015347 0.838378 0.000000
0.063138 0.836374 0.000000
0.110929 0.834369 0.000000
0.158721 0.832365 0.000000
0.206512 0.830360 0.000000
0.254303 0.828356 0.000000
0.302094 0.826351 0.000000
0.349886 0.824347 0.000000
0.397677 0.822342 0.000000
0.445468 0.820338 0.000000
0.493259 0.818334 0.000000
0.541051 0.816329 0.000000
0.588842 0.814325 0.000000
0.636633 0.812320 0.000000
0.684424 0.810316 0.000000
0.732216 0.808311 0.000000
0.780007 0.806307 0.000000
0.827798 0.804302 0.000000
0.875589 0.802298 0.000000
0.923381 0.800293 0.000000
0.971172 0.798289 0.000000
1.000000 0.796284 0.000000
1.000000 0.795004 0.000000
1.000000 0.794904 0.000000
1.000000 0.794805 0.000000
1.000000 0.794705 0.000000
1.000000 0.794605 0.000000
1.000000 0.794505 0.000000
0.000000 0.885313 0.000000
0.000000 0.885213 0.000000
0.000000 0.884923 0.000000
0.000000 0.882919 0.000000
0.000000 0.880915 0.000000
0.017084 0.878910 0.000000
0.064875 0.876906 0.000000
0.112666 0.874901 0.000000
0.160457 0.872897 0.000000
0.208249 0.870892 0.000000
0.256040 0.868888 0.000000
0.303831 0.866883 0.000000
0.351622 0.864879 0.000000
0.399414 0.862874 0.000000
0.447205 0.860870 0.000000
0.494996 0.858865 0.000000
0.542787 0.856861 0.000000
0.590579 0.854856 0.000000
0.638370 0.852852 0.000000
0.686161 0.850848 0.000000
0.733952 0.848843 0.000000
0.781743 0.846839 0.000000
0.829535 0.844834 0.000000
0.877326 0.842830 0.000000
0.925117 0.840825 0.000000
0.972908 0.838821 0.000000
1.000000 0.836816 0.000000
1.000000 0.835846 0.000000
1.000000 0.835747 0.000000
1.000000 0.835647 0.000000
1.000000 0.835547 0.000000
1.000000 0.835447 0.000000
1.000000 0.835347 0.000000
0.000000 0.926155 0.000000
0.000000 0.926055 0.000000
0.000000 0.925455 0.000000
0.000000 0.923451 0.000000
0.000000 0.921446 0.000000
0.018820 0.919442 0.000000
0.066612 0.917437 0.000000
0.114403 0.915433 0.000000
0.162194 0.913429 0.000000
0.209985 0.911424 0.000000
0.257777 0.909420 0.000000
0.305568 0.907415 0.000000
0.353359 0.905411 0.000000
0.401150 0.903406 0.000000
0.448941 0.901402 0.000000
0.496733 0.899397 0.000000
0.544524 0.897393 0.000000
0.592315 0.895388 0.000000
0.640106 0.893384 0.000000
0.687898 0.891379 0.000000
0.735689 0.889375 0.000000
0.783480 0.887371 0.000000
0.831271 0.885366 0.000000
0.879063 0.883362 0.000000
0.926854 0.881357 0.000000
0.974645 0.879353 0.000000
1.000000 0.877348 0.000000
1.000000 0.876689 0.000000
1.000000 0.876589 0.000000
1.000000 0.876489 0.000000
1.000000 0.876389 0.000000
1.000000 0.876289 0.000000
1.000000 0.876190 0.000000
0.000000 0.966997 0.000000
0.000000 0.966898 0.000000
0.000000 0.965987 0.000000
0.000000 0.963983 0.000000
0.000000 0.961978 0.000000
0.020557 0.959974 0.000000
0.068348 0.957969 0.000000
0.116139 0.955965 0.000000
0.163931 0.953960 0.000000
0.211722 0.951956 0.000000
0.259513 0.949952 0.000000
0.307304 0.947947 0.000000
0.355096 0.945943 0.000000
0.402887 0.943938 0.000000
0.450678 0.941934 0.000000
0.498469 0.939929 0.000000
0.546261 0.937925 0.000000
0.594052 0.935920 0.000000
0.641843 0.933916 0.000000
0.689634 0.931911 0.000000
0.737426 0.929907 0.000000
0.785217 0.927902 0.000000
0.833008 0.925898 0.000000
0.880799 0.923894 0.000000
0.928591 0.921889 0.000000
0.976382 0.919885 0.000000
