resources/luts/neon_night.cube
TITLE "Neon Night"
LUT_3D_SIZE 5
DOMAIN_MIN 0.000000 0.000000 0.000000
DOMAIN_MAX 1.000000 1.000000 1.000000
0.000000 0.000000 0.000000
0.164750 0.000000 0.000000
0.538147 0.000000 0.000000
0.911544 0.000000 0.000000
1.000000 0.000000 0.000000
0.000000 0.185646 0.000000
0.168935 0.184165 0.000000
0.541386 0.175666 0.000000
0.913838 0.167168 0.000000
1.000000 0.164423 0.000000
0.000000 0.536557 0.000000
0.149596 0.533775 0.000000
0.522047 0.525276 0.000000
0.909698 0.515524 0.000000
1.000000 0.508610 0.000000
0.000000 0.885313 0.000000
0.160457 0.872897 0.000000
0.542787 0.856861 0.000000
0.925117 0.840825 0.000000
1.000000 0.835347 0.000000
0.000000 1.000000 0.000000
0.196353 1.000000 0.000000
0.578565 1.000000 0.000000
0.960681 1.000000 0.000000
1.000000 1.000000 0.000000
0.000000 0.000000 0.352846
0.163520 0.000000 0.336195
0.537048 0.000000 0.311358
0.910576 0.000000 0.286520
1.000000 0.000000 0.266268
0.000000 0.183602 0.291559
0.167825 0.182121 0.272662
0.540408 0.173754 0.246879
0.912990 0.165387 0.221096
1.000000 0.162904 0.201198
0.000000 0.534954 0.206123
0.148928 0.532173 0.185926
0.524374 0.523533 0.162579
0.913903 0.512401 0.154325
1.000000 0.504477 0.163817
0.000000 0.881316 0.151381
0.162844 0.868434 0.155915
0.544959 0.852184 0.157080
0.927074 0.835933 0.158246
1.000000 0.830491 0.170219
0.000000 1.000000 0.179864
0.197976 1.000000 0.181797
0.579973 1.000000 0.182844
0.961970 1.000000 0.183891
1.000000 1.000000 0.198229
0.000000 0.000000 0.722742
0.161933 0.000000 0.705961
0.535461 0.000000 0.681123
0.908990 0.000000 0.656286
1.000000 0.000000 0.636164
0.000000 0.180892 0.661134
0.165918 0.179280 0.642106
0.538500 0.170912 0.616323
0.911083 0.162545 0.590540
1.000000 0.160194 0.570773
0.000000 0.532244 0.575699
0.147020 0.529331 0.555370
0.528720 0.520097 0.537343
0.915233 0.506882 0.532921
1.000000 0.499208 0.542663
0.000000 0.876048 0.530227
0.164173 0.862916 0.534511
0.546288 0.846665 0.535676
0.928403 0.830415 0.536841
1.000000 0.825223 0.549066
0.000000 1.000000 0.558670
0.199266 1.000000 0.560353
0.581263 1.000000 0.561400
0.963260 1.000000 0.562447
1.000000 1.000000 0.577035
0.000000 0.000000 1.000000
0.160347 0.000000 1.000000
0.533875 0.000000 1.000000
0.907403 0.000000 1.000000
1.000000 0.000000 1.000000
0.000000 0.178182 1.000000
0.164010 0.176438 1.000000
0.536592 0.168071 0.985767
0.909175 0.159703 0.959984
1.000000 0.157484 0.940349
0.000000 0.529534 0.945274
0.145112 0.526490 0.924814
0.533066 0.516661 0.912107
0.916562 0.501364 0.911517
1.000000 0.493940 0.921509
0.000000 0.870780 0.909074
0.165503 0.857397 0.913107
0.547618 0.841147 0.914272
0.929733 0.824896 0.915437
1.000000 0.819955 0.927912
0.000000 1.000000 0.937476
0.200555 1.000000 0.938908
0.582552 1.000000 0.939955
0.964549 1.000000 0.941002
1.000000 1.000000 0.955842
0.000000 0.000000 1.000000
0.162038 0.000000 1.000000
0.535435 0.000000 1.000000
0.908832 0.000000 1.000000
1.000000 0.000000 1.000000
0.000000 0.178439 1.000000
0.164938 0.176432 1.000000
0.537389 0.167934 1.000000
0.909841 0.159435 1.000000
1.000000 0.157216 1.000000
0.000000 0.529349 1.000000
0.148847 0.525775 1.000000
0.538316 0.514635 1.000000
0.920646 0.498599 1.000000
1.000000 0.491641 1.000000
0.000000 0.868344 1.000000
0.169880 0.854926 1.000000
0.552210 0.838890 1.000000
0.934540 0.822854 1.000000
1.000000 0.818379 1.000000
0.000000 1.000000 1.000000
0.205615 1.000000 1.000000
0.587826 1.000000 1.000000
0.970038 1.000000 1.000000
1.000000 1.000000 1.000000
