resources/luts/teal_amber.cube
TITLE "Teal & Amber"
LUT_3D_SIZE 9
DOMAIN_MIN 0.000000 0.000000 0.000000
DOMAIN_MAX 1.000000 1.000000 1.000000
0.000000 0.000000 0.000000
0.016469 0.000000 0.000000
0.171509 0.000000 0.000000
0.326549 0.000000 0.000000
0.481589 0.000000 0.000000
0.636629 0.000000 0.000000
0.791668 0.000000 0.000000
0.946708 0.000000 0.000000
1.000000 0.000000 0.000000
0.000000 0.086980 0.000000
0.023562 0.085874 0.000000
0.178634 0.083211 0.000000
0.333707 0.080548 0.000000
0.488780 0.077885 0.000000
0.643852 0.075223 0.000000
0.798925 0.072560 0.000000
0.953997 0.069897 0.000000
1.000000 0.068028 0.000000
0.000000 0.231852 0.000000
0.028179 0.230616 0.000000
0.183252 0.227953 0.000000
0.338325 0.225290 0.000000
0.493397 0.222627 0.000000
0.648470 0.219964 0.000000
0.803542 0.217301 0.000000
0.958615 0.214639 0.000000
1.000000 0.212901 0.000000
0.000000 0.376725 0.000000
0.032797 0.375358 0.000000
0.187870 0.372695 0.000000
0.342942 0.370032 0.000000
0.498015 0.367369 0.000000
0.653087 0.364706 0.000000
0.808160 0.362043 0.000000
0.963233 0.359380 0.000000
1.000000 0.358935 0.000000
0.000000 0.521597 0.000000
0.037415 0.520100 0.000000
0.192487 0.517437 0.000000
0.347560 0.514774 0.000000
0.502633 0.512111 0.000000
0.662628 0.512127 0.000000
0.825492 0.513704 0.000000
0.986256 0.515810 0.000000
1.000000 0.519675 0.000000
0.000000 0.666470 0.000000
0.042032 0.664841 0.000000
0.204864 0.666401 0.000000
0.367678 0.667990 0.000000
0.527319 0.670380 0.000000
0.686961 0.672770 0.000000
0.846602 0.675160 0.000000
1.000000 0.677550 0.000000
1.000000 0.681743 0.000000
0.000000 0.821871 0.000000
0.068383 0.824950 0.000000
0.228024 0.827340 0.000000
0.387665 0.829731 0.000000
0.547307 0.832121 0.000000
0.706948 0.834511 0.000000
0.866589 0.836901 0.000000
1.000000 0.839473 0.000000
1.000000 0.843810 0.000000
0.000000 0.983938 0.000000
0.088370 0.986691 0.000000
0.248011 0.989081 0.000000
0.407653 0.991471 0.000000
0.567294 0.993861 0.000000
0.726935 0.996251 0.000000
0.886577 0.998641 0.000000
1.000000 1.000000 0.000000
1.000000 1.000000 0.000000
0.000000 1.000000 0.000000
0.113979 1.000000 0.000000
0.273804 1.000000 0.000000
0.433628 1.000000 0.000000
0.593452 1.000000 0.000000
0.753277 1.000000 0.000000
0.913101 1.000000 0.000000
1.000000 1.000000 0.000000
1.000000 1.000000 0.000000
0.000000 0.000000 0.133391
0.017016 0.000000 0.130284
0.172068 0.000000 0.125501
0.327120 0.000000 0.120719
0.482172 0.000000 0.115937
0.637224 0.000000 0.111155
0.792276 0.000000 0.106373
0.947327 0.000000 0.101590
1.000000 0.000000 0.097485
0.000000 0.086209 0.119998
0.024160 0.085102 0.116792
0.179245 0.082451 0.112043
0.334329 0.079800 0.107293
0.489414 0.077149 0.102544
0.644498 0.074498 0.097794
0.799583 0.071847 0.093045
0.954667 0.069196 0.088295
1.000000 0.067353 0.084353
0.000000 0.231122 0.104151
0.028818 0.229884 0.100815
0.183902 0.227233 0.096065
0.338987 0.224582 0.091315
0.494072 0.221931 0.086566
0.649156 0.219280 0.081816
0.804241 0.216629 0.077067
0.959325 0.213978 0.072317
1.000000 0.212265 0.068506
0.000000 0.376034 0.088304
0.033476 0.374666 0.084837
0.188560 0.372015 0.080087
0.343645 0.369364 0.075338
0.498729 0.366713 0.070588
0.653814 0.364062 0.065839
0.808898 0.361411 0.061089
0.963983 0.358760 0.056340
1.000000 0.359813 0.052158
0.000000 0.520947 0.072457
0.038133 0.519448 0.068859
0.193218 0.516797 0.064110
0.348302 0.514146 0.059360
0.503387 0.511495 0.054611
0.666042 0.512965 0.048964
0.828920 0.514556 0.043292
0.988594 0.516941 0.040493
1.000000 0.520842 0.039228
0.000000 0.665859 0.056610
0.045406 0.665653 0.052572
0.208284 0.667244 0.046899
0.370014 0.669120 0.042256
0.529658 0.671513 0.039483
0.689302 0.673905 0.036710
0.848946 0.676298 0.033938
1.000000 0.678691 0.031165
1.000000 0.682919 0.030227
0.000000 0.823035 0.040590
0.070722 0.826084 0.038474
0.230366 0.828476 0.035701
0.390010 0.830869 0.032928
0.549654 0.833262 0.030155
0.709298 0.835655 0.027382
0.868942 0.838047 0.024610
1.000000 0.840655 0.022052
1.000000 0.844995 0.021226
0.000000 0.985111 0.031589
0.090718 0.987833 0.029146
0.250362 0.990226 0.026373
0.410006 0.992619 0.023600
0.569650 0.995011 0.020827
0.729294 0.997404 0.018055
0.888938 0.999797 0.015282
1.000000 1.000000 0.013051
1.000000 1.000000 0.012352
0.000000 1.000000 0.028089
0.116398 1.000000 0.025502
0.276226 1.000000 0.022913
0.436053 1.000000 0.020323
0.595879 1.000000 0.017733
0.755706 1.000000 0.015143
0.915533 1.000000 0.012553
1.000000 1.000000 0.010832
1.000000 1.000000 0.010189
0.000000 0.000000 0.285480
0.017475 0.000000 0.282360
0.172527 0.000000 0.277577
0.327579 0.000000 0.272795
0.482631 0.000000 0.268013
0.637683 0.000000 0.263231
0.792735 0.000000 0.258449
0.947786 0.000000 0.253666
1.000000 0.000000 0.249574
0.000000 0.085322 0.272098
0.024631 0.084202 0.268879
0.179715 0.081551 0.264130
0.334800 0.078900 0.259380
0.489884 0.076249 0.254631
0.644969 0.073598 0.249881
0.800053 0.070947 0.245132
0.955138 0.068296 0.240382
1.000000 0.066466 0.236454
0.000000 0.230235 0.256251
0.029288 0.228984 0.252902
0.184373 0.226333 0.248152
0.339457 0.223682 0.243403
0.494542 0.221031 0.238653
0.649626 0.218380 0.233903
0.804711 0.215729 0.229154
0.959795 0.213078 0.224404
1.000000 0.211378 0.220607
0.000000 0.375147 0.240404
0.033946 0.373766 0.236924
0.189030 0.371115 0.232174
0.344115 0.368463 0.227425
0.499199 0.365812 0.222675
0.654284 0.363161 0.217926
0.809368 0.360510 0.213176
0.964453 0.357859 0.208427
1.000000 0.360400 0.203977
0.000000 0.520060 0.224557
0.038603 0.518547 0.220946
0.193688 0.515896 0.216197
0.348772 0.513245 0.211447
0.506281 0.511914 0.206410
0.669159 0.513505 0.200738
0.830968 0.515361 0.196024
0.990613 0.517754 0.193251
1.000000 0.521688 0.192019
0.000000 0.664972 0.208710
0.048523 0.666193 0.204345
0.211401 0.667784 0.198673
0.372032 0.669932 0.195014
0.531677 0.672325 0.192241
0.691321 0.674718 0.189469
0.850965 0.677111 0.186696
1.000000 0.679503 0.183923
1.000000 0.683764 0.183018
0.000000 0.823880 0.193381
0.072741 0.826896 0.191232
0.232385 0.829289 0.188459
0.392029 0.831682 0.185686
0.551673 0.834075 0.182914
0.711317 0.836467 0.180141
0.870961 0.838860 0.177368
1.000000 0.841501 0.174843
1.000000 0.845840 0.174017
0.000000 0.985956 0.184380
0.092737 0.988646 0.181904
0.252381 0.991038 0.179131
0.412025 0.993431 0.176359
0.571669 0.995824 0.173586
0.731313 0.998217 0.170813
0.890957 1.000000 0.168040
1.000000 1.000000 0.165849
1.000000 1.000000 0.165206
0.000000 1.000000 0.180912
0.118479 1.000000 0.178323
0.278306 1.000000 0.175733
0.438133 1.000000 0.173143
0.597960 1.000000 0.170553
0.757787 1.000000 0.167964
0.917614 1.000000 0.165374
1.000000 1.000000 0.163685
1.000000 1.000000 0.163042
0.000000 0.000000 0.437569
0.017935 0.000000 0.434435
0.172986 0.000000 0.429653
0.328038 0.000000 0.424871
0.483090 0.000000 0.420089
0.638142 0.000000 0.415307
0.793194 0.000000 0.410524
0.948246 0.000000 0.405742
1.000000 0.000000 0.401664
0.000000 0.084435 0.424198
0.025101 0.083302 0.420966
0.180185 0.080651 0.416217
0.335270 0.078000 0.411467
0.490354 0.075349 0.406718
0.645439 0.072698 0.401968
0.800523 0.070047 0.397219
0.955608 0.067396 0.392469
1.000000 0.065579 0.388554
0.000000 0.229348 0.408351
0.029758 0.228083 0.404989
0.184843 0.225432 0.400239
0.339927 0.222781 0.395490
0.495012 0.220130 0.390740
0.650096 0.217479 0.385991
0.805181 0.214828 0.381241
0.960266 0.212177 0.376491
1.000000 0.210491 0.372707
0.000000 0.374260 0.392504
0.034416 0.372865 0.389011
0.189501 0.370214 0.384261
0.344585 0.367563 0.379512
0.499670 0.364912 0.374762
0.654754 0.362261 0.370013
0.809839 0.359610 0.365263
0.967157 0.358175 0.360249
1.000000 0.360987 0.355797
0.000000 0.519173 0.376657
0.039074 0.517647 0.373033
0.194158 0.514996 0.368284
0.349243 0.512345 0.363534
0.509398 0.512454 0.358184
0.672276 0.514045 0.352511
0.832987 0.516174 0.348782
0.992631 0.518567 0.346009
1.000000 0.522534 0.344811
0.000000 0.664149 0.360798
0.051640 0.666734 0.356119
0.214407 0.668352 0.350545
0.374051 0.670745 0.347772
0.533695 0.673138 0.345000
0.693339 0.675530 0.342227
0.852983 0.677923 0.339454
1.000000 0.680316 0.336681
1.000000 0.684610 0.335810
0.000000 0.824726 0.346173
0.074759 0.827709 0.343990
0.234403 0.830102 0.341217
0.394047 0.832494 0.338445
0.553691 0.834887 0.335672
0.713335 0.837280 0.332899
0.872979 0.839673 0.330126
1.000000 0.842346 0.327635
1.000000 0.846686 0.326809
0.000000 0.986802 0.337172
0.094755 0.989458 0.334662
0.254399 0.991851 0.331890
0.414043 0.994244 0.329117
0.573687 0.996636 0.326344
0.733331 0.999029 0.323571
0.892975 1.000000 0.320799
1.000000 1.000000 0.318702
1.000000 1.000000 0.318059
0.000000 1.000000 0.333733
0.120560 1.000000 0.331143
0.280387 1.000000 0.328553
0.440214 1.000000 0.325964
0.600041 1.000000 0.323374
0.759868 1.000000 0.320784
0.919695 1.000000 0.318194
1.000000 1.000000 0.316539
1.000000 1.000000 0.315896
0.000000 0.000000 0.589659
0.018394 0.000000 0.586511
0.173445 0.000000 0.581729
0.328497 0.000000 0.576947
0.483549 0.000000 0.572165
0.638601 0.000000 0.567383
0.793653 0.000000 0.562600
0.948705 0.000000 0.557818
1.000000 0.000000 0.553753
0.000000 0.083548 0.576298
0.025571 0.082401 0.573053
0.180655 0.079750 0.568304
0.335740 0.077099 0.563554
0.490824 0.074448 0.558805
0.645909 0.071797 0.554055
0.800994 0.069146 0.549306
0.956078 0.066495 0.544556
1.000000 0.064692 0.540654
0.000000 0.228461 0.560451
0.030229 0.227183 0.557076
0.185313 0.224532 0.552326
0.340398 0.221881 0.547577
0.495482 0.219230 0.542827
0.650567 0.216579 0.538077
0.805651 0.213928 0.533328
0.960736 0.211277 0.528579
1.000000 0.209604 0.524807
0.000000 0.373373 0.544604
0.034886 0.371965 0.541098
0.189971 0.369314 0.536348
0.345055 0.366663 0.531599
0.500140 0.364012 0.526849
0.655224 0.361361 0.522100
0.810309 0.358710 0.517350
0.970274 0.358715 0.512023
1.000000 0.361573 0.507617
0.000000 0.518285 0.528757
0.039544 0.516747 0.525120
0.194628 0.514096 0.520371
0.349713 0.511445 0.515621
0.512515 0.512995 0.509957
0.675362 0.514594 0.504313
0.835006 0.516986 0.501540
0.994650 0.519379 0.498767
1.000000 0.523379 0.497602
0.000000 0.664735 0.512618
0.054757 0.667274 0.507892
0.216426 0.669165 0.503304
0.376070 0.671558 0.500531
0.535714 0.673950 0.497758
0.695358 0.676343 0.494985
0.855002 0.678736 0.492213
1.000000 0.681129 0.489440
1.000000 0.685455 0.488601
0.000000 0.825571 0.498964
0.076778 0.828521 0.496749
0.236422 0.830914 0.493976
0.396066 0.833307 0.491203
0.555710 0.835700 0.488430
0.715354 0.838092 0.485658
0.874998 0.840485 0.482885
1.000000 0.843192 0.480426
1.000000 0.847531 0.479600
0.000000 0.987647 0.489963
0.096774 0.990271 0.487421
0.256418 0.992664 0.484648
0.416062 0.995056 0.481875
0.575706 0.997449 0.479103
0.735350 0.999842 0.476330
0.894994 1.000000 0.473557
1.000000 1.000000 0.471556
1.000000 1.000000 0.470913
0.000000 1.000000 0.486554
0.122641 1.000000 0.483964
0.282468 1.000000 0.481374
0.442295 1.000000 0.478784
0.602122 1.000000 0.476194
0.761949 1.000000 0.473605
0.921776 1.000000 0.471015
1.000000 1.000000 0.469392
1.000000 1.000000 0.468749
0.000000 0.000000 0.741748
0.018853 0.000000 0.738587
0.173905 0.000000 0.733805
0.328956 0.000000 0.729023
0.484008 0.000000 0.724241
0.639060 0.000000 0.719459
0.794112 0.000000 0.714676
0.949164 0.000000 0.709894
1.000000 0.000000 0.705842
0.000000 0.082661 0.728399
0.026041 0.081501 0.725140
0.181126 0.078850 0.720391
0.336210 0.076199 0.715641
0.491295 0.073548 0.710892
0.646379 0.070897 0.706142
0.801464 0.068246 0.701393
0.956548 0.065595 0.696643
1.000000 0.063804 0.692754
0.000000 0.227573 0.712552
0.030699 0.226283 0.709163
0.185783 0.223632 0.704413
0.340868 0.220981 0.699664
0.495952 0.218330 0.694914
0.651037 0.215679 0.690165
0.806121 0.213028 0.685415
0.961206 0.210377 0.680665
1.000000 0.208717 0.676907
0.000000 0.372486 0.696705
0.035356 0.371065 0.693185
0.190441 0.368414 0.688435
0.345525 0.365763 0.683686
0.500610 0.363112 0.678936
0.655694 0.360461 0.674187
0.810779 0.357809 0.669437
0.973390 0.359256 0.663796
1.000000 0.362160 0.659436
0.000000 0.517398 0.680858
0.040014 0.515846 0.677207
0.195099 0.513195 0.672458
0.352754 0.511944 0.667404
0.515632 0.513535 0.661731
0.677380 0.515406 0.657071
0.837024 0.517799 0.654299
0.996668 0.520192 0.651526
1.000000 0.524225 0.650393
0.000000 0.665322 0.664437
0.057874 0.667814 0.659666
0.218444 0.669977 0.656062
0.378088 0.672370 0.653289
0.537732 0.674763 0.650516
0.697376 0.677156 0.647744
0.857020 0.679548 0.644971
1.000000 0.681961 0.642218
1.000000 0.686301 0.641392
0.000000 0.826417 0.651755
0.078796 0.829334 0.649507
0.238440 0.831727 0.646734
0.398085 0.834120 0.643961
0.557729 0.836512 0.641189
0.717373 0.838905 0.638416
0.877017 0.841298 0.635643
1.000000 0.844037 0.633217
1.000000 0.848377 0.632391
0.000000 0.988493 0.642754
0.098792 0.991083 0.640179
0.258437 0.993476 0.637406
0.418081 0.995869 0.634634
0.577725 0.998262 0.631861
0.737369 1.000000 0.629088
0.897023 1.000000 0.626325
1.000000 1.000000 0.624409
1.000000 1.000000 0.623766
0.000000 1.000000 0.639374
0.124722 1.000000 0.636784
0.284549 1.000000 0.634194
0.444376 1.000000 0.631605
0.604203 1.000000 0.629015
0.764030 1.000000 0.626425
0.923857 1.000000 0.623835
1.000000 1.000000 0.622246
1.000000 1.000000 0.621603
0.000000 0.000000 0.893837
0.019312 0.000000 0.890663
0.174364 0.000000 0.885881
0.329416 0.000000 0.881099
0.484467 0.000000 0.876317
0.639519 0.000000 0.871534
0.794571 0.000000 0.866752
0.949623 0.000000 0.861970
1.000000 0.000000 0.857931
0.000000 0.081774 0.880499
0.026511 0.080601 0.877227
0.181596 0.077950 0.872478
0.336680 0.075299 0.867728
0.491765 0.072648 0.862979
0.646849 0.069997 0.858229
0.801934 0.067346 0.853480
0.957018 0.064695 0.848730
1.000000 0.062917 0.844854
0.000000 0.226686 0.864652
0.031169 0.225383 0.861250
0.186253 0.222732 0.856500
0.341338 0.220081 0.851751
0.496422 0.217429 0.847001
0.651507 0.214778 0.842252
0.806592 0.212127 0.837502
0.961676 0.209476 0.832753
1.000000 0.207830 0.829008
0.000000 0.371599 0.848805
0.035827 0.370164 0.845272
0.190911 0.367513 0.840522
0.345996 0.364862 0.835773
0.501080 0.362211 0.831023
0.656165 0.359560 0.826274
0.813629 0.358205 0.821242
0.976508 0.359796 0.815570
1.000000 0.362994 0.812186
0.000000 0.516511 0.832958
0.040484 0.514946 0.829294
0.195569 0.512295 0.824545
0.355871 0.512484 0.819177
0.518749 0.514075 0.813505
0.679399 0.516219 0.809830
0.839043 0.518612 0.807057
0.998687 0.521004 0.804284
1.000000 0.525070 0.803185
0.000000 0.665909 0.816257
0.060819 0.668397 0.811593
0.220463 0.670790 0.808820
0.380107 0.673183 0.806047
0.539751 0.675575 0.803275
0.699395 0.677968 0.800502
0.859039 0.680361 0.797729
1.000000 0.682807 0.795010
1.000000 0.687146 0.794184
0.000000 0.827263 0.804547
0.080815 0.830147 0.802265
0.240459 0.832539 0.799493
0.400103 0.834932 0.796720
0.559747 0.837325 0.793947
0.719391 0.839718 0.791174
0.879035 0.842110 0.788401
1.000000 0.844883 0.786009
1.000000 0.849222 0.785182
0.000000 0.989339 0.795546
0.100811 0.991896 0.792937
0.260455 0.994289 0.790165
0.420099 0.996681 0.787392
0.579743 0.999074 0.784619
0.739387 1.000000 0.781846
0.899103 1.000000 0.779146
1.000000 1.000000 0.777263
1.000000 1.000000 0.776620
0.000000 1.000000 0.792195
0.126802 1.000000 0.789605
0.286629 1.000000 0.787015
0.446456 1.000000 0.784425
0.606283 1.000000 0.781835
0.766110 1.000000 0.779245
0.925937 1.000000 0.776656
1.000000 1.000000 0.775099
1.000000 1.000000 0.774456
0.000000 0.000000 1.000000
0.019771 0.000000 1.000000
0.174823 0.000000 1.000000
0.329875 0.000000 1.000000
0.484926 0.000000 1.000000
0.639978 0.000000 1.000000
0.795030 0.000000 1.000000
0.950082 0.000000 1.000000
1.000000 0.000000 1.000000
0.000000 0.080887 1.000000
0.026981 0.079701 1.000000
0.182066 0.077050 1.000000
0.337151 0.074398 1.000000
0.492235 0.071747 1.000000
0.647320 0.069096 1.000000
0.802404 0.066445 1.000000
0.957489 0.063794 1.000000
1.000000 0.062030 0.996955
0.000000 0.225799 1.000000
0.031639 0.224482 1.000000
0.186724 0.221831 1.000000
0.341808 0.219180 1.000000
0.496893 0.216529 0.999088
0.651977 0.213878 0.994339
0.807062 0.211227 0.989589
0.962146 0.208576 0.984839
1.000000 0.206943 0.981108
0.000000 0.370712 1.000000
0.036297 0.369264 0.997359
0.191381 0.366613 0.992610
0.346466 0.363962 0.987860
0.501550 0.361311 0.983110
0.656635 0.358660 0.978361
0.816746 0.358745 0.973016
0.979624 0.360337 0.967343
1.000000 0.363840 0.964977
0.000000 0.515624 0.985058
0.040954 0.514046 0.981381
0.196110 0.511433 0.976623
0.358988 0.513025 0.970951
0.521774 0.514639 0.965361
0.681418 0.517032 0.962588
0.841062 0.519424 0.959815
1.000000 0.521817 0.957043
1.000000 0.525916 0.955976
0.000000 0.666495 0.968077
0.062838 0.669210 0.964351
0.222482 0.671603 0.961579
0.382126 0.673995 0.958806
0.541770 0.676388 0.956033
0.701414 0.678781 0.953260
0.861058 0.681174 0.950487
1.000000 0.683653 0.947801
1.000000 0.687992 0.946975
0.000000 0.828108 0.957338
0.082834 0.830959 0.955024
0.242478 0.833352 0.952251
0.402122 0.835745 0.949478
0.561766 0.838137 0.946705
0.721410 0.840530 0.943933
0.881054 0.842923 0.941160
1.000000 0.845729 0.938800
1.000000 0.850068 0.937974
0.000000 0.990184 0.948337
0.102830 0.992709 0.945696
0.262474 0.995101 0.942923
0.422118 0.997494 0.940150
0.581762 0.999887 0.937378
0.741406 1.000000 0.934605
0.901184 1.000000 0.931966
1.000000 1.000000 0.930116
1.000000 1.000000 0.929473
0.000000 1.000000 0.945015
0.128883 1.000000 0.942425
0.288710 1.000000 0.939835
0.448537 1.000000 0.937246
0.608364 1.000000 0.934656
0.768191 1.000000 0.932066
0.928018 1.000000 0.929476
1.000000 1.000000 0.927953
1.000000 1.000000 0.927310
0.000000 0.000000 1.000000
0.020802 0.000000 1.000000
0.175842 0.000000 1.000000
0.330882 0.000000 1.000000
0.485922 0.000000 1.000000
0.640962 0.000000 1.000000
0.796002 0.000000 1.000000
0.951042 0.000000 1.000000
1.000000 0.000000 1.000000
0.000000 0.080544 1.000000
0.027984 0.079333 1.000000
0.183057 0.076670 1.000000
0.338129 0.074007 1.000000
0.493202 0.071344 1.000000
0.648275 0.068681 1.000000
0.803347 0.066018 1.000000
0.958420 0.063355 1.000000
1.000000 0.061592 1.000000
0.000000 0.225416 1.000000
0.032602 0.224074 1.000000
0.187674 0.221411 1.000000
0.342747 0.218749 1.000000
0.497820 0.216086 1.000000
0.652892 0.213423 1.000000
0.807965 0.210760 1.000000
0.963038 0.208097 1.000000
1.000000 0.206465 1.000000
0.000000 0.370289 1.000000
0.037219 0.368816 1.000000
0.192292 0.366153 1.000000
0.347365 0.363490 1.000000
0.502437 0.360827 1.000000
0.657510 0.358164 1.000000
0.820254 0.359676 1.000000
0.983104 0.361256 1.000000
1.000000 0.365059 1.000000
0.000000 0.515161 1.000000
0.041837 0.513558 1.000000
0.199626 0.512373 1.000000
0.362490 0.513950 1.000000
0.524167 0.515826 1.000000
0.683809 0.518216 1.000000
0.843450 0.520607 1.000000
1.000000 0.522997 1.000000
1.000000 0.527126 1.000000
0.000000 0.667462 1.000000
0.065230 0.670397 1.000000
0.224872 0.672787 1.000000
0.384513 0.675177 1.000000
0.544154 0.677567 1.000000
0.703796 0.679957 1.000000
0.863437 0.682347 1.000000
1.000000 0.684856 1.000000
1.000000 0.689193 1.000000
0.000000 0.829322 1.000000
0.085217 0.832137 1.000000
0.244859 0.834527 1.000000
0.404500 0.836917 1.000000
0.564142 0.839307 1.000000
0.723783 0.841697 1.000000
0.883424 0.844087 1.000000
1.000000 0.846923 1.000000
1.000000 0.851260 1.000000
0.000000 0.991389 1.000000
0.105205 0.993877 1.000000
0.264846 0.996268 1.000000
0.424488 0.998658 1.000000
0.584129 1.000000 1.000000
0.743784 1.000000 1.000000
0.903608 1.000000 1.000000
1.000000 1.000000 1.000000
1.000000 1.000000 1.000000
0.000000 1.000000 1.000000
0.131311 1.000000 1.000000
0.291136 1.000000 1.000000
0.450960 1.000000 1.000000
0.610784 1.000000 1.000000
0.770609 1.000000 1.000000
0.930433 1.000000 1.000000
1.000000 1.000000 1.000000
1.000000 1.000000 1.000000
