resources/luts/teal_amber.cube
TITLE "Teal & Amber"
LUT_3D_SIZE 5
DOMAIN_MIN 0.000000 0.000000 0.000000
DOMAIN_MAX 1.000000 1.000000 1.000000
0.000000 0.000000 0.000000
0.171509 0.000000 0.000000
0.481589 0.000000 0.000000
0.791668 0.000000 0.000000
1.000000 0.000000 0.000000
0.000000 0.231852 0.000000
0.183252 0.227953 0.000000
0.493397 0.222627 0.000000
0.803542 0.217301 0.000000
1.000000 0.212901 0.000000
0.000000 0.521597 0.000000
0.192487 0.517437 0.000000
0.502633 0.512111 0.000000
0.825492 0.513704 0.000000
1.000000 0.519675 0.000000
0.000000 0.821871 0.000000
0.228024 0.827340 0.000000
0.547307 0.832121 0.000000
0.866589 0.836901 0.000000
1.000000 0.843810 0.000000
0.000000 1.000000 0.000000
0.273804 1.000000 0.000000
0.593452 1.000000 0.000000
0.913101 1.000000 0.000000
1.000000 1.000000 0.000000
0.000000 0.000000 0.285480
0.172527 0.000000 0.277577
0.482631 0.000000 0.268013
0.792735 0.000000 0.258449
1.000000 0.000000 0.249574
0.000000 0.230235 0.256251
0.184373 0.226333 0.248152
0.494542 0.221031 0.238653
0.804711 0.215729 0.229154
1.000000 0.211378 0.220607
0.000000 0.520060 0.224557
0.193688 0.515896 0.216197
0.506281 0.511914 0.206410
0.830968 0.515361 0.196024
1.000000 0.521688 0.192019
0.000000 0.823880 0.193381
0.232385 0.829289 0.188459
0.551673 0.834075 0.182914
0.870961 0.838860 0.177368
1.000000 0.845840 0.174017
0.000000 1.000000 0.180912
0.278306 1.000000 0.175733
0.597960 1.000000 0.170553
0.917614 1.000000 0.165374
1.000000 1.000000 0.163042
0.000000 0.000000 0.589659
0.173445 0.000000 0.581729
0.483549 0.000000 0.572165
0.793653 0.000000 0.562600
1.000000 0.000000 0.553753
0.000000 0.228461 0.560451
0.185313 0.224532 0.552326
0.495482 0.219230 0.542827
0.805651 0.213928 0.533328
1.000000 0.209604 0.524807
0.000000 0.518285 0.528757
0.194628 0.514096 0.520371
0.512515 0.512995 0.509957
0.835006 0.516986 0.501540
1.000000 0.523379 0.497602
0.000000 0.825571 0.498964
0.236422 0.830914 0.493976
0.555710 0.835700 0.488430
0.874998 0.840485 0.482885
1.000000 0.847531 0.479600
0.000000 1.000000 0.486554
0.282468 1.000000 0.481374
0.602122 1.000000 0.476194
0.921776 1.000000 0.471015
1.000000 1.000000 0.468749
0.000000 0.000000 0.893837
0.174364 0.000000 0.885881
0.484467 0.000000 0.876317
0.794571 0.000000 0.866752
1.000000 0.000000 0.857931
0.000000 0.226686 0.864652
0.186253 0.222732 0.856500
0.496422 0.217429 0.847001
0.806592 0.212127 0.837502
1.000000 0.207830 0.829008
0.000000 0.516511 0.832958
0.195569 0.512295 0.824545
0.518749 0.514075 0.813505
0.839043 0.518612 0.807057
1.000000 0.525070 0.803185
0.000000 0.827263 0.804547
0.240459 0.832539 0.799493
0.559747 0.837325 0.793947
0.879035 0.842110 0.788401
1.000000 0.849222 0.785182
0.000000 1.000000 0.792195
0.286629 1.000000 0.787015
0.606283 1.000000 0.781835
0.925937 1.000000 0.776656
1.000000 1.000000 0.774456
0.000000 0.000000 1.000000
0.175842 0.000000 1.000000
0.485922 0.000000 1.000000
0.796002 0.000000 1.000000
1.000000 0.000000 1.000000
0.000000 0.225416 1.000000
0.187674 0.221411 1.000000
0.497820 0.216086 1.000000
0.807965 0.210760 1.000000
1.000000 0.206465 1.000000
0.000000 0.515161 1.000000
0.199626 0.512373 1.000000
0.524167 0.515826 1.000000
0.843450 0.520607 1.000000
1.000000 0.527126 1.000000
0.000000 0.829322 1.000000
0.244859 0.834527 1.000000
0.564142 0.839307 1.000000
0.883424 0.844087 1.000000
1.000000 0.851260 1.000000
0.000000 1.000000 1.000000
0.291136 1.000000 1.000000
0.610784 1.000000 1.000000
0.930433 1.000000 1.000000
1.000000 1.000000 1.000000
