resources/luts/teal_amber.cube
TITLE "Teal & Amber"
LUT_3D_SIZE 33
DOMAIN_MIN 0.000000 0.000000 0.000000
DOMAIN_MAX 1.000000 1.000000 1.000000
0.000000 0.000000 0.000000
0.000000 0.000000 0.000000
0.000000 0.000000 0.000000
0.000000 0.000000 0.000000
0.016469 0.000000 0.000000
0.055229 0.000000 0.000000
0.093989 0.000000 0.000000
0.132749 0.000000 0.000000
0.171509 0.000000 0.000000
0.210269 0.000000 0.000000
0.249029 0.000000 0.000000
0.287789 0.000000 0.000000
0.326549 0.000000 0.000000
0.365309 0.000000 0.000000
0.404069 0.000000 0.000000
0.442829 0.000000 0.000000
0.481589 0.000000 0.000000
0.520349 0.000000 0.000000
0.559109 0.000000 0.000000
0.597869 0.000000 0.000000
0.636629 0.000000 0.000000
0.675389 0.000000 0.000000
0.714149 0.000000 0.000000
0.752909 0.000000 0.000000
0.791668 0.000000 0.000000
0.830428 0.000000 0.000000
0.869189 0.000000 0.000000
0.907948 0.000000 0.000000
0.946708 0.000000 0.000000
0.985468 0.000000 0.000000
1.000000 0.000000 0.000000
1.000000 0.000000 0.000000
1.000000 0.000000 0.000000
0.000000 0.000000 0.000000
0.000000 0.000000 0.000000
0.000000 0.000000 0.000000
0.000000 0.000000 0.000000
0.019151 0.000000 0.000000
0.057911 0.000000 0.000000
0.096671 0.000000 0.000000
0.135431 0.000000 0.000000
0.174191 0.000000 0.000000
0.212951 0.000000 0.000000
0.251711 0.000000 0.000000
0.290471 0.000000 0.000000
0.329231 0.000000 0.000000
0.367991 0.000000 0.000000
0.406751 0.000000 0.000000
0.445511 0.000000 0.000000
0.484271 0.000000 0.000000
0.523031 0.000000 0.000000
0.561791 0.000000 0.000000
0.600551 0.000000 0.000000
0.639311 0.000000 0.000000
0.678071 0.000000 0.000000
0.716831 0.000000 0.000000
0.755591 0.000000 0.000000
0.794351 0.000000 0.000000
0.833111 0.000000 0.000000
0.871871 0.000000 0.000000
0.910631 0.000000 0.000000
0.949391 0.000000 0.000000
0.988151 0.000000 0.000000
1.000000 0.000000 0.000000
1.000000 0.000000 0.000000
1.000000 0.000000 0.000000
0.000000 0.014544 0.000000
0.000000 0.014350 0.000000
0.000000 0.014156 0.000000
0.000000 0.013963 0.000000
0.021253 0.013503 0.000000
0.060021 0.012837 0.000000
0.098789 0.012172 0.000000
0.137557 0.011506 0.000000
0.176325 0.010840 0.000000
0.215094 0.010175 0.000000
0.253862 0.009509 0.000000
0.292630 0.008843 0.000000
0.331398 0.008177 0.000000
0.370166 0.007512 0.000000
0.408934 0.006846 0.000000
0.447702 0.006180 0.000000
0.486471 0.005515 0.000000
0.525239 0.004849 0.000000
0.564007 0.004183 0.000000
0.602775 0.003517 0.000000
0.641543 0.002852 0.000000
0.680312 0.002186 0.000000
0.719080 0.001520 0.000000
0.757848 0.000854 0.000000
0.796616 0.000189 0.000000
0.835384 0.000000 0.000000
0.874152 0.000000 0.000000
0.912920 0.000000 0.000000
0.951689 0.000000 0.000000
0.990457 0.000000 0.000000
1.000000 0.000000 0.000000
1.000000 0.000000 0.000000
1.000000 0.000000 0.000000
0.000000 0.050762 0.000000
0.000000 0.050568 0.000000
0.000000 0.050375 0.000000
0.000000 0.050181 0.000000
0.022407 0.049689 0.000000
0.061175 0.049023 0.000000
0.099944 0.048357 0.000000
0.138712 0.047692 0.000000
0.177480 0.047026 0.000000
0.216248 0.046360 0.000000
0.255016 0.045694 0.000000
0.293784 0.045029 0.000000
0.332552 0.044363 0.000000
0.371321 0.043697 0.000000
0.410089 0.043031 0.000000
0.448857 0.042366 0.000000
0.487625 0.041700 0.000000
0.526393 0.041034 0.000000
0.565161 0.040369 0.000000
0.603930 0.039703 0.000000
0.642698 0.039037 0.000000
0.681466 0.038371 0.000000
0.720234 0.037706 0.000000
0.759002 0.037040 0.000000
0.797770 0.036374 0.000000
0.836538 0.035708 0.000000
0.875307 0.035043 0.000000
0.914075 0.034377 0.000000
0.952843 0.033711 0.000000
0.991611 0.033045 0.000000
1.000000 0.032380 0.000000
1.000000 0.032004 0.000000
1.000000 0.031810 0.000000
0.000000 0.086980 0.000000
0.000000 0.086786 0.000000
0.000000 0.086593 0.000000
0.000000 0.086399 0.000000
0.023562 0.085874 0.000000
0.062330 0.085208 0.000000
0.101098 0.084543 0.000000
0.139866 0.083877 0.000000
0.178634 0.083211 0.000000
0.217402 0.082545 0.000000
0.256171 0.081880 0.000000
0.294939 0.081214 0.000000
0.333707 0.080548 0.000000
0.372475 0.079883 0.000000
0.411243 0.079217 0.000000
0.450011 0.078551 0.000000
0.488780 0.077885 0.000000
0.527548 0.077220 0.000000
0.566316 0.076554 0.000000
0.605084 0.075888 0.000000
0.643852 0.075223 0.000000
0.682620 0.074557 0.000000
0.721389 0.073891 0.000000
0.760157 0.073225 0.000000
0.798925 0.072560 0.000000
0.837693 0.071894 0.000000
0.876461 0.071228 0.000000
0.915229 0.070562 0.000000
0.953997 0.069897 0.000000
0.992766 0.069231 0.000000
1.000000 0.068565 0.000000
1.000000 0.068222 0.000000
1.000000 0.068028 0.000000
0.000000 0.123198 0.000000
0.000000 0.123004 0.000000
0.000000 0.122811 0.000000
0.000000 0.122617 0.000000
0.024716 0.122060 0.000000
0.063484 0.121394 0.000000
0.102252 0.120728 0.000000
0.141020 0.120062 0.000000
0.179789 0.119397 0.000000
0.218557 0.118731 0.000000
0.257325 0.118065 0.000000
0.296093 0.117399 0.000000
0.334861 0.116734 0.000000
0.373629 0.116068 0.000000
0.412398 0.115402 0.000000
0.451166 0.114737 0.000000
0.489934 0.114071 0.000000
0.528702 0.113405 0.000000
0.567470 0.112739 0.000000
0.606238 0.112074 0.000000
0.645007 0.111408 0.000000
0.683775 0.110742 0.000000
0.722543 0.110076 0.000000
0.761311 0.109411 0.000000
0.800079 0.108745 0.000000
0.838847 0.108079 0.000000
0.877616 0.107414 0.000000
0.916384 0.106748 0.000000
0.955152 0.106082 0.000000
0.993920 0.105416 0.000000
1.000000 0.104751 0.000000
1.000000 0.104440 0.000000
1.000000 0.104246 0.000000
0.000000 0.159416 0.000000
0.000000 0.159223 0.000000
0.000000 0.159029 0.000000
0.000000 0.158835 0.000000
0.025870 0.158245 0.000000
0.064639 0.157579 0.000000
0.103407 0.156914 0.000000
0.142175 0.156248 0.000000
0.180943 0.155582 0.000000
0.219711 0.154916 0.000000
0.258479 0.154251 0.000000
0.297248 0.153585 0.000000
0.336016 0.152919 0.000000
0.374784 0.152253 0.000000
0.413552 0.151588 0.000000
0.452320 0.150922 0.000000
0.491088 0.150256 0.000000
0.529857 0.149591 0.000000
0.568625 0.148925 0.000000
0.607393 0.148259 0.000000
0.646161 0.147593 0.000000
0.684929 0.146928 0.000000
0.723697 0.146262 0.000000
0.762465 0.145596 0.000000
0.801234 0.144930 0.000000
0.840002 0.144265 0.000000
0.878770 0.143599 0.000000
0.917538 0.142933 0.000000
0.956306 0.142268 0.000000
0.995074 0.141602 0.000000
1.000000 0.140936 0.000000
1.000000 0.140658 0.000000
1.000000 0.140465 0.000000
0.000000 0.195634 0.000000
0.000000 0.195441 0.000000
0.000000 0.195247 0.000000
0.000000 0.195053 0.000000
0.027025 0.194430 0.000000
0.065793 0.193765 0.000000
0.104561 0.193099 0.000000
0.143329 0.192433 0.000000
0.182097 0.191768 0.000000
0.220866 0.191102 0.000000
0.259634 0.190436 0.000000
0.298402 0.189770 0.000000
0.337170 0.189105 0.000000
0.375938 0.188439 0.000000
0.414706 0.187773 0.000000
0.453475 0.187107 0.000000
0.492243 0.186442 0.000000
0.531011 0.185776 0.000000
0.569779 0.185110 0.000000
0.608547 0.184445 0.000000
0.647316 0.183779 0.000000
0.686084 0.183113 0.000000
0.724852 0.182447 0.000000
0.763620 0.181782 0.000000
0.802388 0.181116 0.000000
0.841156 0.180450 0.000000
0.879924 0.179784 0.000000
0.918693 0.179119 0.000000
0.957461 0.178453 0.000000
0.996229 0.177787 0.000000
1.000000 0.177122 0.000000
1.000000 0.176876 0.000000
1.000000 0.176683 0.000000
0.000000 0.231852 0.000000
0.000000 0.231659 0.000000
0.000000 0.231465 0.000000
0.000000 0.231272 0.000000
0.028179 0.230616 0.000000
0.066947 0.229950 0.000000
0.105716 0.229284 0.000000
0.144484 0.228619 0.000000
0.183252 0.227953 0.000000
0.222020 0.227287 0.000000
0.260788 0.226622 0.000000
0.299556 0.225956 0.000000
0.338325 0.225290 0.000000
0.377093 0.224624 0.000000
0.415861 0.223959 0.000000
0.454629 0.223293 0.000000
0.493397 0.222627 0.000000
0.532165 0.221961 0.000000
0.570934 0.221296 0.000000
0.609702 0.220630 0.000000
0.648470 0.219964 0.000000
0.687238 0.219299 0.000000
0.726006 0.218633 0.000000
0.764774 0.217967 0.000000
0.803542 0.217301 0.000000
0.842311 0.216636 0.000000
0.881079 0.215970 0.000000
0.919847 0.215304 0.000000
0.958615 0.214639 0.000000
0.997383 0.213973 0.000000
1.000000 0.213307 0.000000
1.000000 0.213094 0.000000
1.000000 0.212901 0.000000
0.000000 0.268070 0.000000
0.000000 0.267877 0.000000
0.000000 0.267683 0.000000
0.000000 0.267467 0.000000
0.029334 0.266801 0.000000
0.068102 0.266136 0.000000
0.106870 0.265470 0.000000
0.145638 0.264804 0.000000
0.184406 0.264138 0.000000
0.223175 0.263473 0.000000
0.261943 0.262807 0.000000
0.300711 0.262141 0.000000
0.339479 0.261476 0.000000
0.378247 0.260810 0.000000
0.417015 0.260144 0.000000
0.455783 0.259478 0.000000
0.494552 0.258813 0.000000
0.533320 0.258147 0.000000
0.572088 0.257481 0.000000
0.610856 0.256815 0.000000
0.649624 0.256150 0.000000
0.688393 0.255484 0.000000
0.727161 0.254818 0.000000
0.765929 0.254153 0.000000
0.804697 0.253487 0.000000
0.843465 0.252821 0.000000
0.882233 0.252155 0.000000
0.921001 0.251490 0.000000
0.959769 0.250824 0.000000
0.998538 0.250158 0.000000
1.000000 0.249506 0.000000
1.000000 0.249313 0.000000
1.000000 0.249119 0.000000
0.000000 0.304289 0.000000
0.000000 0.304095 0.000000
0.000000 0.303901 0.000000
0.000000 0.303653 0.000000
0.030488 0.302987 0.000000
0.069256 0.302321 0.000000
0.108024 0.301655 0.000000
0.146793 0.300990 0.000000
0.185561 0.300324 0.000000
0.224329 0.299658 0.000000
0.263097 0.298992 0.000000
0.301865 0.298327 0.000000
0.340633 0.297661 0.000000
0.379402 0.296995 0.000000
0.418170 0.296330 0.000000
0.456938 0.295664 0.000000
0.495706 0.294998 0.000000
0.534474 0.294332 0.000000
0.573242 0.293667 0.000000
0.612010 0.293001 0.000000
0.650779 0.292335 0.000000
0.689547 0.291669 0.000000
0.728315 0.291004 0.000000
0.767083 0.290338 0.000000
0.805851 0.289672 0.000000
0.844619 0.289007 0.000000
0.883388 0.288341 0.000000
0.922156 0.287675 0.000000
0.960924 0.287009 0.000000
0.999692 0.286344 0.000000
1.000000 0.285724 0.000000
1.000000 0.285531 0.000000
1.000000 0.285337 0.000000
0.000000 0.340507 0.000000
0.000000 0.340313 0.000000
0.000000 0.340119 0.000000
0.000000 0.339838 0.000000
0.031643 0.339172 0.000000
0.070411 0.338507 0.000000
0.109179 0.337841 0.000000
0.147947 0.337175 0.000000
0.186715 0.336509 0.000000
0.225483 0.335844 0.000000
0.264252 0.335178 0.000000
0.303020 0.334512 0.000000
0.341788 0.333846 0.000000
0.380556 0.333181 0.000000
0.419324 0.332515 0.000000
0.458092 0.331849 0.000000
0.496860 0.331184 0.000000
0.535629 0.330518 0.000000
0.574397 0.329852 0.000000
0.613165 0.329186 0.000000
0.651933 0.328521 0.000000
0.690701 0.327855 0.000000
0.729469 0.327189 0.000000
0.768238 0.326523 0.000000
0.807006 0.325858 0.000000
0.845774 0.325192 0.000000
0.884542 0.324526 0.000000
0.923310 0.323861 0.000000
0.962078 0.323195 0.000000
1.000000 0.322529 0.000000
1.000000 0.321942 0.000000
1.000000 0.321749 0.000000
1.000000 0.321555 0.000000
0.000000 0.376725 0.000000
0.000000 0.376531 0.000000
0.000000 0.376338 0.000000
0.000000 0.376023 0.000000
0.032797 0.375358 0.000000
0.071565 0.374692 0.000000
0.110333 0.374026 0.000000
0.149101 0.373361 0.000000
0.187870 0.372695 0.000000
0.226638 0.372029 0.000000
0.265406 0.371363 0.000000
0.304174 0.370698 0.000000
0.342942 0.370032 0.000000
0.381710 0.369366 0.000000
0.420479 0.368700 0.000000
0.459247 0.368035 0.000000
0.498015 0.367369 0.000000
0.536783 0.366703 0.000000
0.575551 0.366038 0.000000
0.614319 0.365372 0.000000
0.653087 0.364706 0.000000
0.691856 0.364040 0.000000
0.730624 0.363375 0.000000
0.769392 0.362709 0.000000
0.808160 0.362043 0.000000
0.846928 0.361377 0.000000
0.885697 0.360712 0.000000
0.924465 0.360046 0.000000
0.963233 0.359380 0.000000
1.000000 0.358715 0.000000
1.000000 0.358161 0.000000
1.000000 0.358044 0.000000
1.000000 0.358935 0.000000
0.000000 0.412943 0.000000
0.000000 0.412749 0.000000
0.000000 0.412556 0.000000
0.000000 0.412209 0.000000
0.033951 0.411543 0.000000
0.072720 0.410877 0.000000
0.111488 0.410212 0.000000
0.150256 0.409546 0.000000
0.189024 0.408880 0.000000
0.227792 0.408215 0.000000
0.266560 0.407549 0.000000
0.305329 0.406883 0.000000
0.344097 0.406217 0.000000
0.382865 0.405552 0.000000
0.421633 0.404886 0.000000
0.460401 0.404220 0.000000
0.499169 0.403554 0.000000
0.537938 0.402889 0.000000
0.576706 0.402223 0.000000
0.615474 0.401557 0.000000
0.654242 0.400892 0.000000
0.693010 0.400226 0.000000
0.731778 0.399560 0.000000
0.770546 0.398894 0.000000
0.809315 0.398229 0.000000
0.848083 0.397563 0.000000
0.886851 0.396897 0.000000
0.925619 0.396231 0.000000
0.965235 0.396027 0.000000
1.000000 0.396421 0.000000
1.000000 0.397019 0.000000
1.000000 0.397910 0.000000
1.000000 0.398800 0.000000
0.000000 0.449161 0.000000
0.000000 0.448968 0.000000
0.000000 0.448774 0.000000
0.000000 0.448394 0.000000
0.035106 0.447729 0.000000
0.073874 0.447063 0.000000
0.112642 0.446397 0.000000
0.151410 0.445731 0.000000
0.190178 0.445066 0.000000
0.228947 0.444400 0.000000
0.267715 0.443734 0.000000
0.306483 0.443069 0.000000
0.345251 0.442403 0.000000
0.384019 0.441737 0.000000
0.422787 0.441071 0.000000
0.461556 0.440406 0.000000
0.500324 0.439740 0.000000
0.539092 0.439074 0.000000
0.577860 0.438408 0.000000
0.616628 0.437743 0.000000
0.655396 0.437077 0.000000
0.694165 0.436411 0.000000
0.732933 0.435746 0.000000
0.771701 0.435080 0.000000
0.810469 0.434414 0.000000
0.850794 0.434595 0.000000
0.891510 0.434990 0.000000
0.932226 0.435384 0.000000
0.972942 0.435778 0.000000
1.000000 0.436172 0.000000
1.000000 0.436884 0.000000
1.000000 0.437775 0.000000
1.000000 0.438666 0.000000
0.000000 0.485379 0.000000
0.000000 0.485186 0.000000
0.000000 0.484992 0.000000
0.000000 0.484580 0.000000
0.036260 0.483914 0.000000
0.075028 0.483248 0.000000
0.113797 0.482583 0.000000
0.152565 0.481917 0.000000
0.191333 0.481251 0.000000
0.230101 0.480585 0.000000
0.268869 0.479920 0.000000
0.307637 0.479254 0.000000
0.346406 0.478588 0.000000
0.385174 0.477923 0.000000
0.423942 0.477257 0.000000
0.462710 0.476591 0.000000
0.501478 0.475925 0.000000
0.540246 0.475260 0.000000
0.579014 0.474594 0.000000
0.617783 0.473928 0.000000
0.656551 0.473262 0.000000
0.695637 0.472770 0.000000
0.736353 0.473164 0.000000
0.777069 0.473558 0.000000
0.817785 0.473952 0.000000
0.858501 0.474347 0.000000
0.899216 0.474741 0.000000
0.939932 0.475135 0.000000
0.980648 0.475529 0.000000
1.000000 0.475972 0.000000
1.000000 0.476990 0.000000
1.000000 0.478074 0.000000
1.000000 0.479159 0.000000
0.000000 0.521597 0.000000
0.000000 0.521404 0.000000
0.000000 0.521210 0.000000
0.000000 0.520765 0.000000
0.037415 0.520100 0.000000
0.076183 0.519434 0.000000
0.114951 0.518768 0.000000
0.153719 0.518102 0.000000
0.192487 0.517437 0.000000
0.231255 0.516771 0.000000
0.270024 0.516105 0.000000
0.308792 0.515439 0.000000
0.347560 0.514774 0.000000
0.386328 0.514108 0.000000
0.425096 0.513442 0.000000
0.463864 0.512777 0.000000
0.502633 0.512111 0.000000
0.541401 0.511445 0.000000
0.581196 0.511338 0.000000
0.621912 0.511732 0.000000
0.662628 0.512127 0.000000
0.703344 0.512521 0.000000
0.744060 0.512915 0.000000
0.784776 0.513309 0.000000
0.825492 0.513704 0.000000
0.866207 0.514098 0.000000
0.906436 0.514615 0.000000
0.946346 0.515213 0.000000
0.986256 0.515810 0.000000
1.000000 0.516423 0.000000
1.000000 0.517507 0.000000
1.000000 0.518591 0.000000
1.000000 0.519675 0.000000
0.000000 0.557815 0.000000
0.000000 0.557622 0.000000
0.000000 0.557428 0.000000
0.000000 0.556951 0.000000
0.038569 0.556285 0.000000
0.077337 0.555619 0.000000
0.116105 0.554954 0.000000
0.154874 0.554288 0.000000
0.193642 0.553622 0.000000
0.232410 0.552956 0.000000
0.271178 0.552291 0.000000
0.309946 0.551625 0.000000
0.348714 0.550959 0.000000
0.387483 0.550293 0.000000
0.426251 0.549628 0.000000
0.466755 0.549907 0.000000
0.507471 0.550301 0.000000
0.548187 0.550695 0.000000
0.588903 0.551089 0.000000
0.629619 0.551484 0.000000
0.670335 0.551878 0.000000
0.711051 0.552272 0.000000
0.751766 0.552666 0.000000
0.791701 0.553257 0.000000
0.831612 0.553855 0.000000
0.871522 0.554453 0.000000
0.911433 0.555050 0.000000
0.951343 0.555648 0.000000
0.991253 0.556245 0.000000
1.000000 0.556940 0.000000
1.000000 0.558024 0.000000
1.000000 0.559108 0.000000
1.000000 0.560192 0.000000
0.000000 0.594034 0.000000
0.000000 0.593840 0.000000
0.000000 0.593646 0.000000
0.000955 0.593136 0.000000
0.039724 0.592470 0.000000
0.078492 0.591805 0.000000
0.117260 0.591139 0.000000
0.156028 0.590473 0.000000
0.194796 0.589808 0.000000
0.233564 0.589142 0.000000
0.272333 0.588476 0.000000
0.311598 0.588081 0.000000
0.352314 0.588475 0.000000
0.393030 0.588869 0.000000
0.433746 0.589264 0.000000
0.474462 0.589658 0.000000
0.515178 0.590052 0.000000
0.555894 0.590446 0.000000
0.596610 0.590841 0.000000
0.637057 0.591303 0.000000
0.676967 0.591900 0.000000
0.716878 0.592498 0.000000
0.756788 0.593095 0.000000
0.796698 0.593693 0.000000
0.836609 0.594290 0.000000
0.876519 0.594888 0.000000
0.916429 0.595485 0.000000
0.956340 0.596083 0.000000
0.996250 0.596680 0.000000
1.000000 0.597456 0.000000
1.000000 0.598541 0.000000
1.000000 0.599625 0.000000
1.000000 0.600709 0.000000
0.000000 0.630252 0.000000
0.000000 0.630058 0.000000
0.000000 0.629865 0.000000
0.002110 0.629322 0.000000
0.040878 0.628656 0.000000
0.079646 0.627990 0.000000
0.118414 0.627324 0.000000
0.157182 0.626659 0.000000
0.197157 0.626650 0.000000
0.237873 0.627044 0.000000
0.278589 0.627438 0.000000
0.319305 0.627832 0.000000
0.360021 0.628226 0.000000
0.400737 0.628621 0.000000
0.441453 0.629015 0.000000
0.482169 0.629409 0.000000
0.522323 0.629945 0.000000
0.562233 0.630543 0.000000
0.602143 0.631140 0.000000
0.642054 0.631738 0.000000
0.681964 0.632335 0.000000
0.721874 0.632933 0.000000
0.761785 0.633530 0.000000
0.801695 0.634128 0.000000
0.841605 0.634725 0.000000
0.881516 0.635323 0.000000
0.921426 0.635920 0.000000
0.961336 0.636518 0.000000
1.000000 0.637115 0.000000
1.000000 0.637973 0.000000
1.000000 0.639057 0.000000
1.000000 0.640142 0.000000
1.000000 0.641226 0.000000
0.000000 0.666470 0.000000
0.000000 0.666276 0.000000
0.000000 0.666083 0.000000
0.003264 0.665507 0.000000
0.042032 0.664841 0.000000
0.082716 0.665218 0.000000
0.123432 0.665612 0.000000
0.164148 0.666007 0.000000
0.204864 0.666401 0.000000
0.245580 0.666795 0.000000
0.286296 0.667189 0.000000
0.327012 0.667583 0.000000
0.367678 0.667990 0.000000
0.407588 0.668588 0.000000
0.447499 0.669185 0.000000
0.487409 0.669783 0.000000
0.527319 0.670380 0.000000
0.567230 0.670978 0.000000
0.607140 0.671575 0.000000
0.647050 0.672173 0.000000
0.686961 0.672770 0.000000
0.726871 0.673368 0.000000
0.766782 0.673965 0.000000
0.806692 0.674563 0.000000
0.846602 0.675160 0.000000
0.886513 0.675758 0.000000
0.926423 0.676355 0.000000
0.966333 0.676953 0.000000
1.000000 0.677550 0.000000
1.000000 0.678490 0.000000
1.000000 0.679574 0.000000
1.000000 0.680658 0.000000
1.000000 0.681743 0.000000
0.000000 0.702688 0.000000
0.000000 0.702871 0.000000
0.000000 0.703762 0.000000
0.008991 0.704181 0.000000
0.049707 0.704575 0.000000
0.090423 0.704969 0.000000
0.131139 0.705364 0.000000
0.171855 0.705758 0.000000
0.212571 0.706152 0.000000
0.252944 0.706633 0.000000
0.292854 0.707230 0.000000
0.332765 0.707828 0.000000
0.372675 0.708425 0.000000
0.412585 0.709023 0.000000
0.452496 0.709620 0.000000
0.492406 0.710218 0.000000
0.532316 0.710815 0.000000
0.572227 0.711413 0.000000
0.612137 0.712010 0.000000
0.652047 0.712608 0.000000
0.691958 0.713205 0.000000
0.731868 0.713803 0.000000
0.771778 0.714400 0.000000
0.811689 0.714998 0.000000
0.851599 0.715595 0.000000
0.891509 0.716193 0.000000
0.931420 0.716791 0.000000
0.971330 0.717388 0.000000
1.000000 0.717986 0.000000
1.000000 0.719007 0.000000
1.000000 0.720091 0.000000
1.000000 0.721175 0.000000
1.000000 0.722259 0.000000
0.000000 0.741846 0.000000
0.000000 0.742737 0.000000
0.000000 0.743538 0.000000
0.016698 0.743932 0.000000
0.057414 0.744326 0.000000
0.098130 0.744720 0.000000
0.138210 0.745275 0.000000
0.178120 0.745873 0.000000
0.218030 0.746470 0.000000
0.257941 0.747068 0.000000
0.297851 0.747665 0.000000
0.337761 0.748263 0.000000
0.377672 0.748860 0.000000
0.417582 0.749458 0.000000
0.457492 0.750055 0.000000
0.497403 0.750653 0.000000
0.537313 0.751250 0.000000
0.577223 0.751848 0.000000
0.617134 0.752445 0.000000
0.657044 0.753043 0.000000
0.696954 0.753641 0.000000
0.736865 0.754238 0.000000
0.776775 0.754836 0.000000
0.816686 0.755433 0.000000
0.856596 0.756031 0.000000
0.896506 0.756628 0.000000
0.936417 0.757226 0.000000
0.976327 0.757823 0.000000
1.000000 0.758439 0.000000
1.000000 0.759524 0.000000
1.000000 0.760608 0.000000
1.000000 0.761692 0.000000
1.000000 0.762776 0.000000
0.000000 0.781712 0.000000
0.000000 0.782602 0.000000
0.000000 0.783320 0.000000
0.023475 0.783918 0.000000
0.063386 0.784515 0.000000
0.103296 0.785113 0.000000
0.143206 0.785710 0.000000
0.183117 0.786308 0.000000
0.223027 0.786905 0.000000
0.262937 0.787503 0.000000
0.302848 0.788100 0.000000
0.342758 0.788698 0.000000
0.382669 0.789295 0.000000
0.422579 0.789893 0.000000
0.462489 0.790490 0.000000
0.502400 0.791088 0.000000
0.542310 0.791685 0.000000
0.582220 0.792283 0.000000
0.622131 0.792881 0.000000
0.662041 0.793478 0.000000
0.701951 0.794076 0.000000
0.741862 0.794673 0.000000
0.781772 0.795271 0.000000
0.821682 0.795868 0.000000
0.861593 0.796466 0.000000
0.901503 0.797063 0.000000
0.941413 0.797661 0.000000
0.981324 0.798258 0.000000
1.000000 0.798956 0.000000
1.000000 0.800040 0.000000
1.000000 0.801125 0.000000
1.000000 0.802209 0.000000
1.000000 0.803293 0.000000
0.000000 0.821871 0.000000
0.000000 0.822955 0.000000
0.000000 0.823755 0.000000
0.028472 0.824353 0.000000
0.068383 0.824950 0.000000
0.108293 0.825548 0.000000
0.148203 0.826145 0.000000
0.188114 0.826743 0.000000
0.228024 0.827340 0.000000
0.267934 0.827938 0.000000
0.307845 0.828535 0.000000
0.347755 0.829133 0.000000
0.387665 0.829731 0.000000
0.427576 0.830328 0.000000
0.467486 0.830926 0.000000
0.507396 0.831523 0.000000
0.547307 0.832121 0.000000
0.587217 0.832718 0.000000
0.627127 0.833316 0.000000
0.667038 0.833913 0.000000
0.706948 0.834511 0.000000
0.746858 0.835108 0.000000
0.786769 0.835706 0.000000
0.826679 0.836303 0.000000
0.866589 0.836901 0.000000
0.906500 0.837498 0.000000
0.946410 0.838096 0.000000
0.986321 0.838693 0.000000
1.000000 0.839473 0.000000
1.000000 0.840557 0.000000
1.000000 0.841641 0.000000
1.000000 0.842726 0.000000
1.000000 0.843810 0.000000
0.000000 0.862388 0.000000
0.000000 0.863472 0.000000
0.000000 0.864190 0.000000
0.033469 0.864788 0.000000
0.073379 0.865385 0.000000
0.113290 0.865983 0.000000
0.153200 0.866580 0.000000
0.193110 0.867178 0.000000
0.233021 0.867776 0.000000
0.272931 0.868373 0.000000
0.312841 0.868971 0.000000
0.352752 0.869568 0.000000
0.392662 0.870166 0.000000
0.432572 0.870763 0.000000
0.472483 0.871361 0.000000
0.512393 0.871958 0.000000
0.552303 0.872556 0.000000
0.592214 0.873153 0.000000
0.632124 0.873751 0.000000
0.672035 0.874348 0.000000
0.711945 0.874946 0.000000
0.751855 0.875543 0.000000
0.791766 0.876141 0.000000
0.831676 0.876738 0.000000
0.871586 0.877336 0.000000
0.911497 0.877934 0.000000
0.951407 0.878531 0.000000
0.991317 0.879129 0.000000
1.000000 0.879990 0.000000
1.000000 0.881074 0.000000
1.000000 0.882158 0.000000
1.000000 0.883242 0.000000
1.000000 0.884327 0.000000
0.000000 0.902905 0.000000
0.000000 0.903989 0.000000
0.000000 0.904625 0.000000
0.038466 0.905223 0.000000
0.078376 0.905820 0.000000
0.118286 0.906418 0.000000
0.158197 0.907016 0.000000
0.198107 0.907613 0.000000
0.238018 0.908211 0.000000
0.277928 0.908808 0.000000
0.317838 0.909406 0.000000
0.357749 0.910003 0.000000
0.397659 0.910601 0.000000
0.437569 0.911198 0.000000
0.477480 0.911796 0.000000
0.517390 0.912393 0.000000
0.557300 0.912991 0.000000
0.597211 0.913588 0.000000
0.637121 0.914186 0.000000
0.677031 0.914783 0.000000
0.716942 0.915381 0.000000
0.756852 0.915978 0.000000
0.796762 0.916576 0.000000
0.836673 0.917174 0.000000
0.876583 0.917771 0.000000
0.916493 0.918369 0.000000
