resources/luts/vintage_western.cube
TITLE "Vintage Western"
LUT_3D_SIZE 5
DOMAIN_MIN 0.000000 0.000000 0.000000
DOMAIN_MAX 1.000000 1.000000 1.000000
0.007937 0.000449 0.080323
0.213828 0.012097 0.088687
0.419720 0.023744 0.097010
0.625611 0.035392 0.105296
0.826772 0.046772 0.113359
0.043579 0.228691 0.107597
0.249623 0.241247 0.115947
0.455667 0.253804 0.124267
0.661711 0.266360 0.132559
0.865721 0.278801 0.140745
0.080732 0.465931 0.135571
0.286776 0.478488 0.143829
0.492820 0.491044 0.152068
0.708321 0.511515 0.162807
0.908326 0.532057 0.174251
0.131703 0.714472 0.167512
0.350002 0.735881 0.179229
0.568301 0.757289 0.190932
0.786600 0.778698 0.202630
0.953000 0.797170 0.212295
0.203151 0.940199 0.202083
0.419924 0.952521 0.212726
0.636698 0.964842 0.223380
0.853471 0.977164 0.234051
0.984642 0.984642 0.241368
0.010973 0.003742 0.196715
0.216934 0.015459 0.207199
0.422895 0.027176 0.217689
0.628855 0.038893 0.228193
0.830357 0.050358 0.238540
0.046900 0.232526 0.231363
0.253014 0.245151 0.242000
0.459127 0.257777 0.252666
0.665240 0.270403 0.263368
0.869591 0.282929 0.274042
0.084286 0.469999 0.267274
0.290400 0.482625 0.278035
0.498318 0.496761 0.289421
0.716133 0.518948 0.303575
0.912836 0.539135 0.314810
0.139615 0.721743 0.307976
0.357914 0.743151 0.320124
0.576213 0.764560 0.332367
0.794512 0.785968 0.344715
0.957510 0.804248 0.354857
0.210545 0.944384 0.343754
0.427319 0.956705 0.355077
0.644092 0.969027 0.366500
0.860866 0.981348 0.378030
0.988634 0.988634 0.385842
0.014695 0.007721 0.338022
0.220656 0.019438 0.349129
0.426617 0.031155 0.360330
0.632578 0.042872 0.371631
0.834352 0.054352 0.382861
0.050674 0.236813 0.375099
0.256788 0.249439 0.386659
0.462901 0.262065 0.398337
0.669014 0.274690 0.410140
0.873638 0.287232 0.422010
0.088060 0.474287 0.414470
0.294174 0.486913 0.426456
0.506033 0.504349 0.440634
0.724045 0.526219 0.455667
0.917346 0.546213 0.468290
0.147528 0.729013 0.460666
0.365827 0.750421 0.474512
0.584126 0.771830 0.488516
0.802425 0.793239 0.502670
0.962020 0.811326 0.514140
0.217939 0.948568 0.501132
0.434713 0.960890 0.514115
0.651487 0.973211 0.527208
0.868260 0.985532 0.540405
0.992626 0.992626 0.549159
0.018418 0.011700 0.494497
0.224379 0.023417 0.507229
0.430339 0.035134 0.520072
0.636300 0.046851 0.533019
0.838347 0.058347 0.545871
0.054449 0.241101 0.537031
0.260562 0.253727 0.550236
0.466675 0.266352 0.563531
0.672789 0.278978 0.576910
0.877684 0.291535 0.590304
0.091835 0.478575 0.581800
0.297948 0.491200 0.595281
0.513749 0.511936 0.612676
0.731958 0.533489 0.628228
0.921856 0.553291 0.641905
0.155440 0.736283 0.633726
0.373739 0.757692 0.648865
0.592038 0.779100 0.664053
0.810337 0.800509 0.679281
0.966530 0.818404 0.691361
0.225334 0.952753 0.677164
0.442107 0.965074 0.691039
0.658881 0.977395 0.704934
0.875655 0.989717 0.718841
0.996618 0.996618 0.727840
0.022140 0.015679 0.669966
0.228101 0.027396 0.683623
0.434062 0.039113 0.697303
0.640023 0.050830 0.710999
0.842341 0.062341 0.724518
0.058223 0.245389 0.715272
0.264336 0.258015 0.729118
0.470449 0.270640 0.742964
0.676563 0.283266 0.756803
0.881730 0.295838 0.770582
0.095609 0.482862 0.761839
0.303745 0.497182 0.776476
0.521499 0.519279 0.791080
0.739736 0.540626 0.803506
0.926170 0.560174 0.814286
0.163196 0.743397 0.808023
0.381434 0.764744 0.820407
0.599671 0.786091 0.832755
0.817908 0.807438 0.845062
0.970638 0.825079 0.854031
0.232365 0.956573 0.841509
0.449077 0.968833 0.852428
0.665789 0.981093 0.863307
0.882501 0.993353 0.874144
1.000000 1.000000 0.880000
