resources/luts/vintage_western.cube
TITLE "Vintage Western"
LUT_3D_SIZE 33
DOMAIN_MIN 0.000000 0.000000 0.000000
DOMAIN_MAX 1.000000 1.000000 1.000000
0.007937 0.000449 0.080323
0.033673 0.001905 0.081371
0.059410 0.003361 0.082418
0.085146 0.004817 0.083464
0.110883 0.006273 0.084510
0.136619 0.007729 0.085555
0.162356 0.009185 0.086600
0.188092 0.010641 0.087644
0.213828 0.012097 0.088687
0.239565 0.013553 0.089729
0.265301 0.015009 0.090771
0.291038 0.016465 0.091813
0.316774 0.017920 0.092853
0.342511 0.019376 0.093893
0.368247 0.020832 0.094933
0.393984 0.022288 0.095972
0.419720 0.023744 0.097010
0.445456 0.025200 0.098048
0.471193 0.026656 0.099085
0.496929 0.028112 0.100121
0.522666 0.029568 0.101157
0.548402 0.031024 0.102193
0.574139 0.032480 0.103228
0.599875 0.033936 0.104262
0.625611 0.035392 0.105296
0.651348 0.036848 0.106329
0.677084 0.038304 0.107362
0.702821 0.039760 0.108394
0.728557 0.041216 0.109426
0.754294 0.042672 0.110457
0.780030 0.044128 0.111488
0.805766 0.045584 0.112518
0.826772 0.046772 0.113359
0.011071 0.021106 0.082806
0.036826 0.022675 0.083866
0.062582 0.024245 0.084925
0.088337 0.025814 0.085984
0.114093 0.027384 0.087041
0.139848 0.028953 0.088099
0.165604 0.030523 0.089155
0.191359 0.032092 0.090211
0.217115 0.033662 0.091266
0.242870 0.035231 0.092321
0.268626 0.036801 0.093375
0.294381 0.038371 0.094428
0.320137 0.039940 0.095481
0.345892 0.041510 0.096533
0.371648 0.043079 0.097585
0.397403 0.044649 0.098636
0.423159 0.046218 0.099686
0.448914 0.047788 0.100736
0.474670 0.049357 0.101785
0.500425 0.050927 0.102834
0.526181 0.052496 0.103882
0.551936 0.054066 0.104930
0.577692 0.055636 0.105977
0.603447 0.057205 0.107023
0.629203 0.058775 0.108069
0.654958 0.060344 0.109114
0.680714 0.061914 0.110159
0.706469 0.063483 0.111204
0.732225 0.065053 0.112248
0.757980 0.066622 0.113291
0.783736 0.068192 0.114334
0.809491 0.069761 0.115376
0.830853 0.071082 0.116242
0.015715 0.050761 0.086369
0.041470 0.052330 0.087426
0.067226 0.053900 0.088483
0.092981 0.055469 0.089540
0.118737 0.057039 0.090595
0.144492 0.058608 0.091650
0.170248 0.060178 0.092705
0.196003 0.061747 0.093759
0.221759 0.063317 0.094812
0.247514 0.064887 0.095864
0.273270 0.066456 0.096916
0.299025 0.068026 0.097968
0.324781 0.069595 0.099018
0.350536 0.071165 0.100069
0.376292 0.072734 0.101118
0.402047 0.074304 0.102167
0.427803 0.075873 0.103216
0.453558 0.077443 0.104264
0.479314 0.079012 0.105311
0.505069 0.080582 0.106358
0.530825 0.082152 0.107404
0.556580 0.083721 0.108450
0.582336 0.085291 0.109495
0.608091 0.086860 0.110540
0.633847 0.088430 0.111584
0.659602 0.089999 0.112627
0.685358 0.091569 0.113671
0.711113 0.093138 0.114713
0.736869 0.094708 0.115755
0.762624 0.096277 0.116797
0.788380 0.097847 0.117838
0.814135 0.099417 0.118879
0.835834 0.100757 0.119757
0.020359 0.080416 0.089924
0.046114 0.081985 0.090979
0.071870 0.083555 0.092034
0.097625 0.085124 0.093088
0.123381 0.086694 0.094142
0.149136 0.088263 0.095195
0.174892 0.089833 0.096247
0.200647 0.091403 0.097299
0.226403 0.092972 0.098350
0.252158 0.094542 0.099401
0.277914 0.096111 0.100451
0.303669 0.097681 0.101500
0.329425 0.099250 0.102549
0.355180 0.100820 0.103597
0.380936 0.102389 0.104645
0.406691 0.103959 0.105692
0.432447 0.105528 0.106739
0.458202 0.107098 0.107785
0.483958 0.108668 0.108830
0.509713 0.110237 0.109875
0.535469 0.111807 0.110920
0.561224 0.113376 0.111964
0.586980 0.114946 0.113007
0.612735 0.116515 0.114050
0.638491 0.118085 0.115093
0.664246 0.119654 0.116135
0.690002 0.121224 0.117176
0.715757 0.122793 0.118217
0.741513 0.124363 0.119258
0.767268 0.125933 0.120298
0.793024 0.127502 0.121337
0.818779 0.129072 0.122377
0.840815 0.130431 0.123267
0.025003 0.110071 0.093472
0.050758 0.111640 0.094525
0.076514 0.113210 0.095578
0.102269 0.114779 0.096630
0.128025 0.116349 0.097682
0.153780 0.117918 0.098733
0.179536 0.119488 0.099783
0.205291 0.121058 0.100833
0.231047 0.122627 0.101882
0.256802 0.124197 0.102931
0.282558 0.125766 0.103979
0.308313 0.127336 0.105026
0.334069 0.128905 0.106073
0.359824 0.130475 0.107120
0.385580 0.132044 0.108166
0.411335 0.133614 0.109211
0.437091 0.135183 0.110256
0.462846 0.136753 0.111300
0.488602 0.138323 0.112344
0.514357 0.139892 0.113387
0.540113 0.141462 0.114430
0.565868 0.143031 0.115472
0.591624 0.144601 0.116514
0.617379 0.146170 0.117555
0.643135 0.147740 0.118596
0.668890 0.149309 0.119636
0.694646 0.150879 0.120676
0.720401 0.152448 0.121716
0.746157 0.154018 0.122755
0.771912 0.155588 0.123793
0.797668 0.157157 0.124831
0.823423 0.158727 0.125869
0.845796 0.160105 0.126772
0.029647 0.139726 0.097013
0.055403 0.141295 0.098065
0.081158 0.142865 0.099115
0.106914 0.144434 0.100165
0.132669 0.146004 0.101215
0.158425 0.147574 0.102264
0.184180 0.149143 0.103312
0.209936 0.150713 0.104360
0.235691 0.152282 0.105407
0.261447 0.153852 0.106454
0.287202 0.155421 0.107500
0.312958 0.156991 0.108546
0.338713 0.158560 0.109591
0.364469 0.160130 0.110636
0.390224 0.161699 0.111680
0.415980 0.163269 0.112724
0.441735 0.164839 0.113767
0.467491 0.166408 0.114809
0.493246 0.167978 0.115851
0.519002 0.169547 0.116893
0.544757 0.171117 0.117934
0.570513 0.172686 0.118975
0.596268 0.174256 0.120015
0.622024 0.175825 0.121055
0.647779 0.177395 0.122094
0.673535 0.178964 0.123133
0.699290 0.180534 0.124171
0.725046 0.182104 0.125209
0.750801 0.183673 0.126247
0.776557 0.185243 0.127284
0.802312 0.186812 0.128321
0.828068 0.188382 0.129357
0.850777 0.189779 0.130272
0.034291 0.169381 0.100548
0.060047 0.170950 0.101597
0.085802 0.172520 0.102646
0.111558 0.174089 0.103694
0.137313 0.175659 0.104742
0.163069 0.177229 0.105789
0.188824 0.178798 0.106835
0.214580 0.180368 0.107881
0.240335 0.181937 0.108927
0.266091 0.183507 0.109972
0.291846 0.185076 0.111016
0.317602 0.186646 0.112060
0.343357 0.188215 0.113103
0.369113 0.189785 0.114146
0.394868 0.191354 0.115189
0.420624 0.192924 0.116231
0.446379 0.194494 0.117272
0.472135 0.196063 0.118313
0.497890 0.197633 0.119354
0.523646 0.199202 0.120394
0.549401 0.200772 0.121433
0.575157 0.202341 0.122472
0.600912 0.203911 0.123511
0.626668 0.205480 0.124549
0.652423 0.207050 0.125587
0.678179 0.208620 0.126624
0.703934 0.210189 0.127661
0.729690 0.211759 0.128698
0.755445 0.213328 0.129734
0.781201 0.214898 0.130770
0.806956 0.216467 0.131805
0.832712 0.218037 0.132840
0.855758 0.219453 0.133767
0.038935 0.199036 0.104075
0.064691 0.200605 0.105123
0.090446 0.202175 0.106170
0.116202 0.203745 0.107216
0.141957 0.205314 0.108262
0.167713 0.206884 0.109307
0.193468 0.208453 0.110352
0.219224 0.210023 0.111396
0.244979 0.211592 0.112440
0.270735 0.213162 0.113483
0.296490 0.214731 0.114526
0.322246 0.216301 0.115568
0.348001 0.217870 0.116610
0.373757 0.219440 0.117651
0.399512 0.221010 0.118692
0.425268 0.222579 0.119732
0.451023 0.224149 0.120772
0.476779 0.225718 0.121812
0.502534 0.227288 0.122850
0.528290 0.228857 0.123889
0.554045 0.230427 0.124927
0.579801 0.231996 0.125965
0.605556 0.233566 0.127002
0.631312 0.235135 0.128039
0.657067 0.236705 0.129075
0.682823 0.238275 0.130111
0.708578 0.239844 0.131147
0.734334 0.241414 0.132182
0.760089 0.242983 0.133217
0.785845 0.244553 0.134251
0.811600 0.246122 0.135285
0.837356 0.247692 0.136319
0.860740 0.249127 0.137258
0.043579 0.228691 0.107597
0.069335 0.230260 0.108643
0.095090 0.231830 0.109688
0.120846 0.233400 0.110732
0.146601 0.234969 0.111776
0.172357 0.236539 0.112820
0.198112 0.238108 0.113863
0.223868 0.239678 0.114905
0.249623 0.241247 0.115947
0.275379 0.242817 0.116989
0.301134 0.244386 0.118030
0.326890 0.245956 0.119071
0.352645 0.247525 0.120111
0.378401 0.249095 0.121151
0.404156 0.250665 0.122190
0.429912 0.252234 0.123229
0.455667 0.253804 0.124267
0.481423 0.255373 0.125305
0.507178 0.256943 0.126342
0.532934 0.258512 0.127379
0.558689 0.260082 0.128416
0.584445 0.261651 0.129452
0.610200 0.263221 0.130488
0.635956 0.264791 0.131524
0.661711 0.266360 0.132559
0.687467 0.267930 0.133593
0.713222 0.269499 0.134627
0.738978 0.271069 0.135661
0.764733 0.272638 0.136695
0.790489 0.274208 0.137728
0.816244 0.275777 0.138761
0.842000 0.277347 0.139793
0.865721 0.278801 0.140745
0.048223 0.258346 0.111112
0.073979 0.259916 0.112156
0.099734 0.261485 0.113200
0.125490 0.263055 0.114242
0.151245 0.264624 0.115285
0.177001 0.266194 0.116327
0.202756 0.267763 0.117368
0.228512 0.269333 0.118409
0.254267 0.270902 0.119449
0.280023 0.272472 0.120489
0.305778 0.274041 0.121529
0.331534 0.275611 0.122568
0.357289 0.277181 0.123607
0.383045 0.278750 0.124645
0.408800 0.280320 0.125683
0.434556 0.281889 0.126720
0.460311 0.283459 0.127757
0.486067 0.285028 0.128793
0.511822 0.286598 0.129829
0.537578 0.288167 0.130865
0.563333 0.289737 0.131900
0.589089 0.291306 0.132935
0.614844 0.292876 0.133970
0.640600 0.294446 0.135004
0.666355 0.296015 0.136038
0.692111 0.297585 0.137071
0.717866 0.299154 0.138104
0.743622 0.300724 0.139137
0.769377 0.302293 0.140169
0.795133 0.303863 0.141201
0.820888 0.305432 0.142233
0.846644 0.307002 0.143264
0.870702 0.308475 0.144228
0.052868 0.288001 0.114622
0.078623 0.289571 0.115664
0.104379 0.291140 0.116706
0.130134 0.292710 0.117747
0.155890 0.294279 0.118788
0.181645 0.295849 0.119828
0.207401 0.297418 0.120868
0.233156 0.298988 0.121907
0.258912 0.300557 0.122946
0.284667 0.302127 0.123985
0.310423 0.303697 0.125023
0.336178 0.305266 0.126060
0.361934 0.306836 0.127098
0.387689 0.308405 0.128134
0.413445 0.309975 0.129171
0.439200 0.311544 0.130207
0.464956 0.313114 0.131242
0.490711 0.314683 0.132277
0.516467 0.316253 0.133312
0.542222 0.317822 0.134346
0.567978 0.319392 0.135380
0.593733 0.320962 0.136414
0.619489 0.322531 0.137447
0.645244 0.324101 0.138480
0.671000 0.325670 0.139513
0.696755 0.327240 0.140545
0.722511 0.328809 0.141577
0.748266 0.330379 0.142608
0.774022 0.331948 0.143639
0.799777 0.333518 0.144670
0.825533 0.335087 0.145701
0.851288 0.336657 0.146731
0.875683 0.338150 0.147707
0.057512 0.317656 0.118126
0.083267 0.319226 0.119167
0.109023 0.320795 0.120207
0.134778 0.322365 0.121246
0.160534 0.323934 0.122286
0.186289 0.325504 0.123324
0.212045 0.327073 0.124363
0.237800 0.328643 0.125401
0.263556 0.330212 0.126438
0.289311 0.331782 0.127475
0.315067 0.333352 0.128512
0.340822 0.334921 0.129548
0.366578 0.336491 0.130584
0.392333 0.338060 0.131619
0.418089 0.339630 0.132654
0.443844 0.341199 0.133689
0.469600 0.342769 0.134723
0.495355 0.344338 0.135757
0.521111 0.345908 0.136790
0.546866 0.347477 0.137823
0.572622 0.349047 0.138856
0.598377 0.350617 0.139888
0.624133 0.352186 0.140921
0.649888 0.353756 0.141952
0.675644 0.355325 0.142984
0.701399 0.356895 0.144015
0.727155 0.358464 0.145046
0.752910 0.360034 0.146076
0.778666 0.361603 0.147106
0.804421 0.363173 0.148136
0.830177 0.364743 0.149165
0.855932 0.366312 0.150195
0.880664 0.367824 0.151183
0.062156 0.347311 0.121625
0.087911 0.348881 0.122664
0.113667 0.350450 0.123702
0.139422 0.352020 0.124741
0.165178 0.353589 0.125778
0.190933 0.355159 0.126816
0.216689 0.356728 0.127852
0.242444 0.358298 0.128889
0.268200 0.359868 0.129925
0.293955 0.361437 0.130961
0.319711 0.363007 0.131996
0.345466 0.364576 0.133031
0.371222 0.366146 0.134065
0.396977 0.367715 0.135099
0.422733 0.369285 0.136133
0.448488 0.370854 0.137166
0.474244 0.372424 0.138199
0.499999 0.373993 0.139232
0.525755 0.375563 0.140264
0.551510 0.377133 0.141296
0.577266 0.378702 0.142328
0.603021 0.380272 0.143359
0.628777 0.381841 0.144390
0.654532 0.383411 0.145421
0.680288 0.384980 0.146451
0.706043 0.386550 0.147481
0.731799 0.388119 0.148511
0.757554 0.389689 0.149540
0.783310 0.391258 0.150569
0.809065 0.392828 0.151598
0.834821 0.394398 0.152627
0.860679 0.396053 0.153668
0.885850 0.398714 0.154799
0.066800 0.376966 0.125118
0.092555 0.378536 0.126156
0.118311 0.380105 0.127193
0.144066 0.381675 0.128230
0.169822 0.383244 0.129266
0.195577 0.384814 0.130302
0.221333 0.386384 0.131338
0.247088 0.387953 0.132373
0.272844 0.389523 0.133407
0.298599 0.391092 0.134442
0.324355 0.392662 0.135476
0.350110 0.394231 0.136509
0.375866 0.395801 0.137542
0.401621 0.397370 0.138575
0.427377 0.398940 0.139608
0.453132 0.400509 0.140640
0.478888 0.402079 0.141672
0.504643 0.403648 0.142703
0.530399 0.405218 0.143734
0.556154 0.406788 0.144765
0.581910 0.408357 0.145796
0.607665 0.409927 0.146826
0.633421 0.411496 0.147856
0.659176 0.413066 0.148886
0.684932 0.414635 0.149915
0.710687 0.416205 0.150944
0.736443 0.417774 0.151973
0.762198 0.419344 0.153001
0.788582 0.421439 0.154109
0.815780 0.424215 0.155319
0.842979 0.426991 0.156529
0.870177 0.429767 0.157738
0.891476 0.432214 0.158853
0.071444 0.406621 0.128607
0.097199 0.408191 0.129643
0.122955 0.409760 0.130679
0.148710 0.411330 0.131714
0.174466 0.412899 0.132749
0.200221 0.414469 0.133784
0.225977 0.416039 0.134818
0.251732 0.417608 0.135852
0.277488 0.419178 0.136885
0.303243 0.420747 0.137918
0.328999 0.422317 0.138951
0.354754 0.423886 0.139984
0.380510 0.425456 0.141016
0.406265 0.427025 0.142047
0.432021 0.428595 0.143079
0.457776 0.430164 0.144110
0.483532 0.431734 0.145141
0.509287 0.433304 0.146171
0.535043 0.434873 0.147201
0.560798 0.436443 0.148231
0.586554 0.438012 0.149260
0.612309 0.439582 0.150290
0.638065 0.441151 0.151319
0.663820 0.442721 0.152347
0.689576 0.444290 0.153376
0.716485 0.446824 0.154549
0.743683 0.449601 0.155760
0.770882 0.452377 0.156969
0.798080 0.455153 0.158179
0.825289 0.457939 0.159733
0.852504 0.460732 0.161512
0.879719 0.463525 0.163291
0.897154 0.465764 0.164684
0.076088 0.436276 0.132091
0.101843 0.437846 0.133126
0.127599 0.439415 0.134161
0.153354 0.440985 0.135195
0.179110 0.442555 0.136228
0.204866 0.444124 0.137262
0.230621 0.445694 0.138295
0.256377 0.447263 0.139327
0.282132 0.448833 0.140359
0.307887 0.450402 0.141391
0.333643 0.451972 0.142423
0.359398 0.453541 0.143454
0.385154 0.455111 0.144485
0.410910 0.456680 0.145516
0.436665 0.458250 0.146546
0.462421 0.459819 0.147576
0.488176 0.461389 0.148606
0.513932 0.462959 0.149635
0.539687 0.464528 0.150664
0.565443 0.466098 0.151693
0.591198 0.467667 0.152722
0.617189 0.469434 0.153780
0.644388 0.472210 0.154990
0.671586 0.474986 0.156200
0.698785 0.477763 0.157410
0.725983 0.480539 0.158619
0.753198 0.483331 0.160381
0.780413 0.486124 0.162160
0.807627 0.488916 0.163938
0.834860 0.491681 0.165641
0.862147 0.494357 0.167107
0.889435 0.497033 0.168573
0.902741 0.498918 0.169489
0.080732 0.465931 0.135571
0.106488 0.467501 0.136604
0.132243 0.469070 0.137638
0.157999 0.470640 0.138670
0.183754 0.472210 0.139703
0.209510 0.473779 0.140735
0.235265 0.475349 0.141767
0.261021 0.476918 0.142798
0.286776 0.478488 0.143829
0.312532 0.480057 0.144860
0.338287 0.481627 0.145891
0.364043 0.483196 0.146921
0.389798 0.484766 0.147951
0.415554 0.486335 0.148981
0.441309 0.487905 0.150010
0.467065 0.489475 0.151039
0.492820 0.491044 0.152068
0.518576 0.492614 0.153096
0.545092 0.494820 0.154220
0.572291 0.497596 0.155431
0.599489 0.500372 0.156640
0.626688 0.503148 0.157850
0.653892 0.505930 0.159249
0.681107 0.508723 0.161029
0.708321 0.511515 0.162807
0.735536 0.514308 0.164585
0.762795 0.517030 0.166175
0.790083 0.519706 0.167641
0.817370 0.522382 0.169106
0.844657 0.525058 0.170572
0.871945 0.527734 0.172036
0.899232 0.530410 0.173501
0.908326 0.532057 0.174251
0.085376 0.495586 0.139046
0.111132 0.497156 0.140079
0.136887 0.498726 0.141111
0.162643 0.500295 0.142142
0.188398 0.501865 0.143174
0.214154 0.503434 0.144205
0.239909 0.505004 0.145236
0.265665 0.506573 0.146266
0.291420 0.508143 0.147296
0.317176 0.509712 0.148326
0.342931 0.511282 0.149355
0.368687 0.512851 0.150385
0.394442 0.514421 0.151413
0.420198 0.515991 0.152442
0.445953 0.517560 0.153470
0.472995 0.520205 0.154661
0.500194 0.522982 0.155871
0.527392 0.525758 0.157081
0.554591 0.528534 0.158290
0.581801 0.531322 0.159897
0.609016 0.534114 0.161676
0.636230 0.536907 0.163455
0.663445 0.539700 0.165233
0.690731 0.542379 0.166708
0.718018 0.545055 0.168174
0.745305 0.547732 0.169640
0.772593 0.550408 0.171105
0.799880 0.553084 0.172570
0.827167 0.555760 0.174034
0.854455 0.558436 0.175499
0.881742 0.561112 0.176963
0.909029 0.563788 0.178426
0.913910 0.565196 0.179010
0.090020 0.525241 0.142518
0.115776 0.526811 0.143549
0.141531 0.528381 0.144580
0.167287 0.529950 0.145611
0.193042 0.531520 0.146641
0.218798 0.533089 0.147671
0.244553 0.534659 0.148701
0.270309 0.536228 0.149730
0.296064 0.537798 0.150759
0.321820 0.539367 0.151788
0.347575 0.540937 0.152816
0.373699 0.542815 0.153891
0.400898 0.545591 0.155102
0.428097 0.548367 0.156312
0.455295 0.551144 0.157521
0.482495 0.553921 0.158765
0.509709 0.556714 0.160545
0.536924 0.559506 0.162324
0.564139 0.562299 0.164102
0.591378 0.565053 0.165776
0.618666 0.567729 0.167242
0.645953 0.570405 0.168708
0.673240 0.573081 0.170173
0.700528 0.575757 0.171638
0.727815 0.578433 0.173103
0.755103 0.581109 0.174567
0.782390 0.583785 0.176032
0.809677 0.586461 0.177496
0.836965 0.589137 0.178959
0.864252 0.591813 0.180423
0.891539 0.594489 0.181886
0.918827 0.597165 0.183349
0.919494 0.598336 0.183767
0.094664 0.554897 0.145986
0.120420 0.556466 0.147016
0.146175 0.558036 0.148046
0.171931 0.559605 0.149075
0.197686 0.561175 0.150105
0.223442 0.562744 0.151134
0.249197 0.564314 0.152162
0.274953 0.565883 0.153191
0.301602 0.568200 0.154332
0.328801 0.570977 0.155542
0.355999 0.573753 0.156752
0.383198 0.576529 0.157961
0.410404 0.579313 0.159413
0.437618 0.582105 0.161193
0.464833 0.584898 0.162971
0.492048 0.587691 0.164749
0.519314 0.590402 0.166310
0.546601 0.593078 0.167776
0.573888 0.595754 0.169241
0.601176 0.598430 0.170707
0.628463 0.601106 0.172172
0.655751 0.603782 0.173636
0.683038 0.606458 0.175101
0.710325 0.609134 0.176565
0.737613 0.611810 0.178028
0.764900 0.614486 0.179492
0.792187 0.617163 0.180955
0.819475 0.619839 0.182419
0.846762 0.622515 0.183882
0.874050 0.625191 0.185344
0.901337 0.627867 0.186807
0.924880 0.630331 0.188123
0.925079 0.631475 0.188523
0.099308 0.584552 0.149450
0.125064 0.586121 0.150479
0.150819 0.587691 0.151508
0.176575 0.589260 0.152537
0.202330 0.590830 0.153565
0.229505 0.593586 0.154773
0.256704 0.596363 0.155983
0.283902 0.599139 0.157192
0.311101 0.601915 0.158402
0.338312 0.604704 0.160061
0.365527 0.607497 0.161840
0.392742 0.610290 0.163619
0.419962 0.613075 0.165377
0.447249 0.615751 0.166844
0.474536 0.618427 0.168309
0.501824 0.621103 0.169775
0.529111 0.623779 0.171240
0.556398 0.626455 0.172705
0.583686 0.629131 0.174169
0.610973 0.631808 0.175634
0.638261 0.634484 0.177098
0.665548 0.637160 0.178561
0.692835 0.639836 0.180025
0.720123 0.642512 0.181488
0.747410 0.645188 0.182951
0.774697 0.647864 0.184414
0.801985 0.650540 0.185877
0.829272 0.653216 0.187340
0.856560 0.655892 0.188802
0.883847 0.658568 0.190265
0.911134 0.661244 0.191727
0.930465 0.663470 0.192877
0.930663 0.664614 0.193277
0.103953 0.614207 0.152911
0.130210 0.616196 0.154003
0.157408 0.618972 0.155213
0.184607 0.621748 0.156423
0.211805 0.624525 0.157633
0.239006 0.627303 0.158929
0.266221 0.630096 0.160709
0.293436 0.632889 0.162488
0.320651 0.635681 0.164266
0.347897 0.638424 0.165911
0.375184 0.641100 0.167377
0.402472 0.643776 0.168843
0.429759 0.646452 0.170308
0.457046 0.649129 0.171773
0.484334 0.651805 0.173238
0.511621 0.654481 0.174702
0.538908 0.657157 0.176167
0.566196 0.659833 0.177631
0.593483 0.662509 0.179094
0.620771 0.665185 0.180558
0.648058 0.667861 0.182021
0.675345 0.670537 0.183484
0.702633 0.673213 0.184947
0.729920 0.675889 0.186410
0.757208 0.678565 0.187872
0.784495 0.681241 0.189335
0.811782 0.683917 0.190797
0.839070 0.686594 0.192259
0.866357 0.689270 0.193722
0.893644 0.691946 0.195184
0.920932 0.694622 0.196646
0.936049 0.696609 0.197631
0.936247 0.697753 0.198031
0.112510 0.647134 0.156863
0.139708 0.649910 0.158073
0.166915 0.652695 0.159577
0.194130 0.655488 0.161357
0.221345 0.658280 0.163135
0.248560 0.661073 0.164913
0.275832 0.663774 0.166445
0.303120 0.666450 0.167911
0.330407 0.669126 0.169376
0.357694 0.671802 0.170842
0.384982 0.674478 0.172307
0.412269 0.677154 0.173771
0.439556 0.679830 0.175236
0.466844 0.682506 0.176700
0.494131 0.685182 0.178163
0.521419 0.687858 0.179627
0.548706 0.690534 0.181090
0.575993 0.693210 0.182554
0.603281 0.695886 0.184017
0.630568 0.698562 0.185479
0.657855 0.701239 0.186942
0.685143 0.703915 0.188405
0.712430 0.706591 0.189867
0.739717 0.709267 0.191329
0.767005 0.711943 0.192792
0.794292 0.714619 0.194254
0.821580 0.717295 0.195716
0.848867 0.719971 0.197178
0.876154 0.722647 0.198641
0.903442 0.725323 0.200103
0.930729 0.727999 0.201565
0.941633 0.729748 0.202385
0.941832 0.730892 0.202784
0.122039 0.680879 0.162004
0.149254 0.683672 0.163783
0.176480 0.686447 0.165512
0.203768 0.689123 0.166979
0.231055 0.691799 0.168444
0.258342 0.694475 0.169910
0.285630 0.697151 0.171375
0.312917 0.699827 0.172840
0.340204 0.702503 0.174304
0.367492 0.705179 0.175769
0.394779 0.707855 0.177233
0.422066 0.710531 0.178696
0.449354 0.713207 0.180160
0.476641 0.715883 0.181623
0.503929 0.718560 0.183086
0.531216 0.721236 0.184549
0.558503 0.723912 0.186012
0.585791 0.726588 0.187475
0.613078 0.729264 0.188937
0.640365 0.731940 0.190399
0.667653 0.734616 0.191862
0.694940 0.737292 0.193324
0.722228 0.739968 0.194786
0.749515 0.742644 0.196249
0.776802 0.745320 0.197711
0.804090 0.747996 0.199173
0.831377 0.750672 0.200635
0.858664 0.753348 0.202097
0.885952 0.756024 0.203560
0.913239 0.758701 0.205022
0.940526 0.761377 0.206485
0.947218 0.762888 0.207139
0.947416 0.764031 0.207539
0.131703 0.714472 0.167512
0.158990 0.717148 0.168978
0.186278 0.719824 0.170443
0.213565 0.722500 0.171908
0.240852 0.725176 0.173373
0.268140 0.727852 0.174837
0.295427 0.730529 0.176302
0.322714 0.733205 0.177765
0.350002 0.735881 0.179229
0.377289 0.738557 0.180693
0.404576 0.741233 0.182156
0.431864 0.743909 0.183619
0.459151 0.746585 0.185082
0.486439 0.749261 0.186544
0.513726 0.751937 0.188007
0.541013 0.754613 0.189469
0.568301 0.757289 0.190932
0.595588 0.759965 0.192394
0.622875 0.762641 0.193856
0.650163 0.765317 0.195319
0.677450 0.767993 0.196781
0.704738 0.770669 0.198243
0.732025 0.773346 0.199705
0.759312 0.776022 0.201168
0.786600 0.778698 0.202630
0.813887 0.781374 0.204092
0.841174 0.784050 0.205555
0.868462 0.786726 0.207017
0.895749 0.789402 0.208480
0.923037 0.792078 0.209943
0.950324 0.794754 0.211406
0.952802 0.796027 0.211895
0.953000 0.797170 0.212295
0.141500 0.747850 0.172442
0.168788 0.750526 0.173906
0.196075 0.753202 0.175371
0.223362 0.755878 0.176835
0.250650 0.758554 0.178298
0.277937 0.761230 0.179762
0.305224 0.763906 0.181225
0.332512 0.766582 0.182688
0.359799 0.769258 0.184151
0.387087 0.771934 0.185614
0.414374 0.774610 0.187077
0.441661 0.777286 0.188539
0.468949 0.779962 0.190002
0.496236 0.782638 0.191464
0.523523 0.785315 0.192927
0.550811 0.787991 0.194389
0.578098 0.790667 0.195851
0.605385 0.793343 0.197313
0.632673 0.796019 0.198775
0.659960 0.798695 0.200238
0.687248 0.801371 0.201700
0.714535 0.804047 0.203162
0.741822 0.806723 0.204625
0.769110 0.809399 0.206087
0.796397 0.812075 0.207550
0.823684 0.814751 0.209012
0.850972 0.817427 0.210475
0.878259 0.820103 0.211938
0.905547 0.822779 0.213402
0.932834 0.825455 0.214865
0.958188 0.828022 0.216253
0.958386 0.829166 0.216653
0.958585 0.830309 0.217053
0.151298 0.781227 0.177368
0.178585 0.783903 0.178831
0.205872 0.786579 0.180295
0.233160 0.789255 0.181758
0.260447 0.791931 0.183221
0.287734 0.794607 0.184684
0.315022 0.797283 0.186147
0.342309 0.799959 0.187609
0.369597 0.802636 0.189072
0.396884 0.805312 0.190534
0.424171 0.807988 0.191997
0.451459 0.810664 0.193459
0.478746 0.813340 0.194921
0.506033 0.816016 0.196383
0.533321 0.818692 0.197846
0.560608 0.821368 0.199308
0.587896 0.824044 0.200770
0.615183 0.826720 0.202232
0.642470 0.829396 0.203695
0.669758 0.832072 0.205157
0.697045 0.834748 0.206620
0.724332 0.837424 0.208082
0.751620 0.840100 0.209545
0.778907 0.842777 0.211008
0.806194 0.845453 0.212471
0.833482 0.848129 0.213934
