resources/luts/vintage_western.cube
TITLE "Vintage Western"
LUT_3D_SIZE 9
DOMAIN_MIN 0.000000 0.000000 0.000000
DOMAIN_MAX 1.000000 1.000000 1.000000
0.007937 0.000449 0.080323
0.110883 0.006273 0.084510
0.213828 0.012097 0.088687
0.316774 0.017920 0.092853
0.419720 0.023744 0.097010
0.522666 0.029568 0.101157
0.625611 0.035392 0.105296
0.728557 0.041216 0.109426
0.826772 0.046772 0.113359
0.025003 0.110071 0.093472
0.128025 0.116349 0.097682
0.231047 0.122627 0.101882
0.334069 0.128905 0.106073
0.437091 0.135183 0.110256
0.540113 0.141462 0.114430
0.643135 0.147740 0.118596
0.746157 0.154018 0.122755
0.845796 0.160105 0.126772
0.043579 0.228691 0.107597
0.146601 0.234969 0.111776
0.249623 0.241247 0.115947
0.352645 0.247525 0.120111
0.455667 0.253804 0.124267
0.558689 0.260082 0.128416
0.661711 0.266360 0.132559
0.764733 0.272638 0.136695
0.865721 0.278801 0.140745
0.062156 0.347311 0.121625
0.165178 0.353589 0.125778
0.268200 0.359868 0.129925
0.371222 0.366146 0.134065
0.474244 0.372424 0.138199
0.577266 0.378702 0.142328
0.680288 0.384980 0.146451
0.783310 0.391258 0.150569
0.885850 0.398714 0.154799
0.080732 0.465931 0.135571
0.183754 0.472210 0.139703
0.286776 0.478488 0.143829
0.389798 0.484766 0.147951
0.492820 0.491044 0.152068
0.599489 0.500372 0.156640
0.708321 0.511515 0.162807
0.817370 0.522382 0.169106
0.908326 0.532057 0.174251
0.099308 0.584552 0.149450
0.202330 0.590830 0.153565
0.311101 0.601915 0.158402
0.419962 0.613075 0.165377
0.529111 0.623779 0.171240
0.638261 0.634484 0.177098
0.747410 0.645188 0.182951
0.856560 0.655892 0.188802
0.930663 0.664614 0.193277
0.131703 0.714472 0.167512
0.240852 0.725176 0.173373
0.350002 0.735881 0.179229
0.459151 0.746585 0.185082
0.568301 0.757289 0.190932
0.677450 0.767993 0.196781
0.786600 0.778698 0.202630
0.895749 0.789402 0.208480
0.953000 0.797170 0.212295
0.170892 0.847982 0.187212
0.280042 0.858686 0.193061
0.389191 0.869390 0.198910
0.498341 0.880095 0.204759
0.607490 0.890799 0.210610
0.716640 0.901503 0.216464
0.825789 0.912207 0.222321
0.934939 0.922912 0.228183
0.975338 0.929727 0.231345
0.203151 0.940199 0.202083
0.311537 0.946360 0.207404
0.419924 0.952521 0.212726
0.528311 0.958681 0.218051
0.636698 0.964842 0.223380
0.745085 0.971003 0.228713
0.853471 0.977164 0.234051
0.961858 0.983324 0.239395
0.984642 0.984642 0.241368
0.009112 0.001752 0.127009
0.112092 0.007611 0.132319
0.215073 0.013469 0.137618
0.318053 0.019328 0.142908
0.421034 0.025186 0.148189
0.524014 0.031045 0.153463
0.626994 0.036903 0.158730
0.729975 0.042762 0.163991
0.828360 0.048360 0.169065
0.026320 0.111645 0.143974
0.129377 0.117958 0.149307
0.232434 0.124271 0.154632
0.335490 0.130583 0.159950
0.438547 0.136896 0.165263
0.541604 0.143209 0.170570
0.644660 0.149522 0.175873
0.747717 0.155835 0.181173
0.847527 0.161964 0.186342
0.045013 0.230382 0.161885
0.148070 0.236695 0.167195
0.251127 0.243007 0.172501
0.354183 0.249320 0.177803
0.457240 0.255633 0.183101
0.560297 0.261946 0.188398
0.663353 0.268259 0.193693
0.766410 0.274572 0.198987
0.867568 0.280777 0.204208
0.063706 0.349119 0.179732
0.166763 0.355431 0.185030
0.269820 0.361744 0.190326
0.372876 0.368057 0.195620
0.475933 0.374370 0.200915
0.578990 0.380683 0.206210
0.682046 0.386995 0.211506
0.785103 0.393308 0.216805
0.888091 0.402368 0.223059
0.082399 0.467855 0.197548
0.185456 0.474168 0.202842
0.288512 0.480481 0.208138
0.391569 0.486794 0.213435
0.494626 0.493107 0.218735
0.603320 0.504138 0.225787
0.712179 0.515309 0.232897
0.821326 0.526017 0.238783
0.910581 0.535596 0.243880
0.101092 0.586592 0.215364
0.206096 0.594535 0.221269
0.314955 0.605705 0.228374
0.423918 0.616710 0.235046
0.533067 0.627415 0.240923
0.642217 0.638119 0.246809
0.751366 0.648823 0.252704
0.860516 0.659527 0.258611
0.932918 0.668153 0.263070
0.135659 0.718107 0.237185
0.244808 0.728812 0.243065
0.353958 0.739516 0.248954
0.463107 0.750220 0.254853
0.572257 0.760924 0.260764
0.681406 0.771629 0.266687
0.790556 0.782333 0.272624
0.899705 0.793037 0.278575
0.955255 0.800709 0.282396
0.174849 0.851617 0.257004
0.283998 0.862321 0.262919
0.393148 0.873026 0.268847
0.502297 0.883730 0.274789
0.611447 0.894434 0.280746
0.720596 0.905138 0.286720
0.829746 0.915843 0.292711
0.938895 0.926547 0.298721
0.977593 0.933266 0.301899
0.206848 0.942292 0.271886
0.315235 0.948452 0.277297
0.423621 0.954613 0.282721
0.532008 0.960774 0.288159
0.640395 0.966934 0.293611
0.748782 0.973095 0.299080
0.857169 0.979256 0.304565
0.965555 0.985416 0.310067
0.986638 0.986638 0.312032
0.010973 0.003742 0.196715
0.113954 0.009600 0.201956
0.216934 0.015459 0.207199
0.319914 0.021317 0.212443
0.422895 0.027176 0.217689
0.525875 0.033034 0.222939
0.628855 0.038893 0.228193
0.731836 0.044751 0.233451
0.830357 0.050358 0.238540
0.028207 0.113789 0.213518
0.131264 0.120102 0.218818
0.234321 0.126414 0.224122
0.337377 0.132727 0.229430
0.440434 0.139040 0.234743
0.543491 0.145353 0.240062
0.646547 0.151666 0.245388
0.749604 0.157979 0.250722
0.849550 0.164116 0.255941
0.046900 0.232526 0.231363
0.149957 0.238838 0.236678
0.253014 0.245151 0.242000
0.356070 0.251464 0.247329
0.459127 0.257777 0.252666
0.562184 0.264090 0.258012
0.665240 0.270403 0.263368
0.768297 0.276715 0.268734
0.869591 0.282929 0.274042
0.065593 0.351262 0.249271
0.168650 0.357575 0.254611
0.271707 0.363888 0.259961
0.374763 0.370201 0.265320
0.477820 0.376514 0.270691
0.580877 0.382827 0.276073
0.683933 0.389139 0.281468
0.786990 0.395452 0.286876
0.890384 0.406073 0.293836
0.084286 0.469999 0.267274
0.187343 0.476312 0.272649
0.290400 0.482625 0.278035
0.393456 0.488938 0.283435
0.498318 0.496761 0.289421
0.607177 0.507932 0.296696
0.716133 0.518948 0.303575
0.825282 0.529653 0.309622
0.912836 0.539135 0.314810
0.102979 0.588736 0.285405
0.209953 0.598328 0.292066
0.318813 0.609499 0.299351
0.427874 0.620345 0.305774
0.537024 0.631050 0.311829
0.646173 0.641754 0.317906
0.755322 0.652458 0.324006
0.864472 0.663163 0.330131
0.935173 0.671692 0.334693
0.139615 0.721743 0.307976
0.248765 0.732447 0.314038
0.357914 0.743151 0.320124
0.467064 0.753855 0.326233
0.576213 0.764560 0.332367
0.685363 0.775264 0.338527
0.794512 0.785968 0.344715
0.903662 0.796672 0.350931
0.957510 0.804248 0.354857
0.178805 0.855252 0.328463
0.287954 0.865957 0.334607
0.397104 0.876661 0.340777
0.506253 0.887365 0.346975
0.615403 0.898069 0.353202
0.724552 0.908774 0.359459
0.833702 0.919478 0.365747
0.942851 0.930182 0.372068
0.979848 0.936805 0.375343
0.210545 0.944384 0.343754
0.318932 0.950544 0.349403
0.427319 0.956705 0.355077
0.535705 0.962866 0.360775
0.644092 0.969027 0.366500
0.752479 0.975187 0.372251
0.860866 0.981348 0.378030
0.969253 0.987509 0.383838
0.988634 0.988634 0.385842
0.012834 0.005732 0.266411
0.115815 0.011590 0.271730
0.218795 0.017448 0.277061
0.321775 0.023307 0.282404
0.424756 0.029165 0.287761
0.527736 0.035024 0.293132
0.630717 0.040882 0.298518
0.733697 0.046741 0.303921
0.832355 0.052355 0.309164
0.030094 0.115933 0.283520
0.133151 0.122246 0.288934
0.236208 0.128558 0.294362
0.339264 0.134871 0.299807
0.442321 0.141184 0.305267
0.545378 0.147497 0.310745
0.648434 0.153810 0.316241
0.751491 0.160123 0.321756
0.851573 0.166267 0.327169
0.048787 0.234669 0.301793
0.151844 0.240982 0.307260
0.254901 0.247295 0.312744
0.357957 0.253608 0.318247
0.461014 0.259921 0.323769
0.564071 0.266234 0.329312
0.667127 0.272546 0.334875
0.770184 0.278859 0.340460
0.871614 0.285080 0.346000
0.067480 0.353406 0.320255
0.170537 0.359719 0.325785
0.273594 0.366032 0.331335
0.376650 0.372345 0.336906
0.479707 0.378658 0.342499
0.582764 0.384970 0.348116
0.685820 0.391283 0.353756
0.790540 0.398988 0.359973
0.892676 0.409778 0.367318
0.086173 0.472143 0.338940
0.189230 0.478456 0.344541
0.292287 0.484769 0.350166
0.395343 0.491082 0.355816
0.502176 0.500555 0.362745
0.611035 0.511726 0.370392
0.720089 0.522584 0.377183
0.829239 0.533288 0.383565
0.915091 0.542674 0.388978
0.104952 0.590951 0.357907
0.213811 0.602122 0.365524
0.322681 0.613276 0.373142
0.431830 0.623981 0.379502
0.540980 0.634685 0.385897
0.650129 0.645389 0.392328
0.759279 0.656093 0.398797
0.868428 0.666798 0.405303
0.937428 0.675231 0.410083
0.143571 0.725378 0.381826
0.252721 0.736082 0.388234
0.361870 0.746786 0.394679
0.471020 0.757491 0.401161
0.580169 0.768195 0.407682
0.689319 0.778899 0.414243
0.798468 0.789603 0.420844
0.907618 0.800308 0.427489
0.959765 0.807787 0.431614
0.182761 0.858888 0.403530
0.291911 0.869592 0.410066
0.401060 0.880296 0.416641
0.510210 0.891000 0.423258
0.619359 0.901705 0.429918
0.728508 0.912409 0.436622
0.837658 0.923113 0.443370
0.946807 0.933817 0.450164
0.982103 0.940344 0.453609
0.214242 0.946476 0.419616
0.322629 0.952637 0.425650
0.431016 0.958797 0.431720
0.539403 0.964958 0.437827
0.647789 0.971119 0.443971
0.756176 0.977279 0.450152
0.864563 0.983440 0.456369
0.972950 0.989601 0.462621
0.990630 0.990630 0.464700
0.014695 0.007721 0.338022
0.117676 0.013580 0.343564
0.220656 0.019438 0.349129
0.323637 0.025297 0.354717
0.426617 0.031155 0.360330
0.529597 0.037013 0.365967
0.632578 0.042872 0.371631
0.735558 0.048730 0.377322
0.834352 0.054352 0.382861
0.031982 0.118077 0.355904
0.135038 0.124389 0.361579
0.238095 0.130702 0.367280
0.341152 0.137015 0.373007
0.444208 0.143328 0.378762
0.547265 0.149641 0.384546
0.650321 0.155954 0.390359
0.753378 0.162266 0.396202
0.853596 0.168419 0.401952
0.050674 0.236813 0.375099
0.153731 0.243126 0.380864
0.256788 0.249439 0.386659
0.359844 0.255752 0.392482
0.462901 0.262065 0.398337
0.565958 0.268377 0.404222
0.669014 0.274690 0.410140
0.772071 0.281003 0.416091
0.873638 0.287232 0.422010
0.069367 0.355550 0.394610
0.172424 0.361863 0.400476
0.275481 0.368176 0.406373
0.378537 0.374489 0.412303
0.481594 0.380801 0.418266
0.584651 0.387114 0.424264
0.687707 0.393427 0.430296
0.794398 0.402782 0.437658
0.894969 0.413484 0.445475
0.088060 0.474287 0.414470
0.191117 0.480600 0.420446
0.294174 0.486913 0.426456
0.397230 0.493225 0.432501
0.506033 0.504349 0.440634
0.614896 0.515515 0.448838
0.724045 0.526219 0.455667
0.833195 0.536923 0.462539
0.917346 0.546213 0.468290
0.108809 0.594745 0.435442
0.217669 0.605915 0.443618
0.326637 0.616912 0.451319
0.435786 0.627616 0.458164
0.544936 0.638320 0.465051
0.654086 0.649024 0.471979
0.763235 0.659729 0.478948
0.872384 0.670433 0.485955
0.939683 0.678770 0.491020
0.147528 0.729013 0.460666
0.256677 0.739717 0.467569
0.365827 0.750421 0.474512
0.474976 0.761126 0.481494
0.584126 0.771830 0.488516
0.693275 0.782534 0.495575
0.802425 0.793239 0.502670
0.911574 0.803943 0.509800
0.962020 0.811326 0.514140
0.186717 0.862523 0.484046
0.295867 0.873227 0.491082
0.405016 0.883931 0.498154
0.514166 0.894636 0.505262
0.623315 0.905340 0.512405
0.732465 0.916044 0.519581
0.841614 0.926748 0.526790
0.950764 0.937453 0.534030
0.984358 0.943883 0.537613
0.217939 0.948568 0.501132
0.326326 0.954729 0.507609
0.434713 0.960890 0.514115
0.543100 0.967050 0.520648
0.651487 0.973211 0.527208
0.759873 0.979372 0.533794
0.868260 0.985532 0.540405
0.976647 0.991693 0.547040
0.992626 0.992626 0.549159
0.016557 0.009711 0.413472
0.119537 0.015569 0.419382
0.222517 0.021428 0.425326
0.325498 0.027286 0.431304
0.428478 0.033145 0.437318
0.531459 0.039003 0.443368
0.634439 0.044862 0.449454
0.737419 0.050720 0.455575
0.836349 0.056349 0.461544
0.033869 0.120220 0.432596
0.136925 0.126533 0.438679
0.239982 0.132846 0.444798
0.343039 0.139159 0.450954
0.446095 0.145472 0.457146
0.549152 0.151785 0.463373
0.652209 0.158097 0.469634
0.755265 0.164410 0.475928
0.855620 0.170570 0.482127
0.052562 0.238957 0.453204
0.155618 0.245270 0.459409
0.258675 0.251583 0.465648
0.361732 0.257896 0.471921
0.464788 0.264209 0.478227
0.567845 0.270521 0.484566
0.670901 0.276834 0.490935
0.773958 0.283147 0.497334
0.875661 0.289383 0.503699
0.071255 0.357694 0.474213
0.174311 0.364007 0.480531
0.277368 0.370320 0.486881
0.380424 0.376632 0.493261
0.483481 0.382945 0.499672
0.586538 0.389258 0.506111
0.689594 0.395571 0.512579
0.798256 0.406575 0.521208
0.897262 0.417189 0.529480
0.089947 0.476431 0.495592
0.193004 0.482744 0.502013
0.296061 0.489056 0.508463
0.401032 0.496972 0.515667
0.509891 0.508142 0.524388
0.618852 0.519150 0.532618
0.728002 0.529854 0.539883
0.837151 0.540558 0.547176
0.919601 0.549752 0.553185
0.112667 0.598538 0.518837
0.221527 0.609709 0.527575
0.330593 0.620547 0.535260
0.439743 0.631251 0.542535
0.548892 0.641955 0.549839
0.658042 0.652660 0.557170
0.767191 0.663364 0.564528
0.876341 0.674068 0.571911
0.941938 0.682309 0.577153
0.151484 0.732648 0.545191
0.260633 0.743353 0.552505
0.369783 0.754057 0.559846
0.478932 0.764761 0.567213
0.588082 0.775465 0.574605
0.697231 0.786170 0.582021
0.806381 0.796874 0.589460
0.915530 0.807578 0.596919
0.964275 0.814865 0.601367
0.190674 0.866158 0.569902
0.299823 0.876862 0.577302
0.408973 0.887567 0.584727
0.518122 0.898271 0.592173
0.627271 0.908975 0.599640
0.736421 0.919679 0.607128
0.845570 0.930384 0.614634
0.954720 0.941088 0.622157
0.986613 0.947422 0.625789
0.221637 0.950660 0.587620
0.330023 0.956821 0.594400
0.438410 0.962982 0.601197
0.546797 0.969142 0.608010
0.655184 0.975303 0.614838
0.763571 0.981464 0.621681
0.871957 0.987625 0.628538
0.980344 0.993785 0.635407
0.994622 0.994622 0.637513
0.018418 0.011700 0.494497
0.121398 0.017559 0.500849
0.224379 0.023417 0.507229
0.327359 0.029276 0.513637
0.430339 0.035134 0.520072
0.533320 0.040993 0.526533
0.636300 0.046851 0.533019
0.739281 0.052710 0.539529
0.838347 0.058347 0.545871
0.035756 0.122364 0.515042
0.138812 0.128677 0.521548
0.241869 0.134990 0.528080
0.344926 0.141303 0.534638
0.447982 0.147616 0.541220
0.551039 0.153928 0.547825
0.654096 0.160241 0.554454
0.757152 0.166554 0.561104
0.857643 0.172722 0.567649
0.054449 0.241101 0.537031
0.157505 0.247414 0.543622
0.260562 0.253727 0.550236
0.363619 0.260040 0.556873
0.466675 0.266352 0.563531
0.569732 0.272665 0.570210
0.672789 0.278978 0.576910
0.775845 0.285291 0.583628
0.877684 0.291535 0.590304
0.073142 0.359838 0.559294
0.176198 0.366151 0.565960
0.279255 0.372464 0.572647
0.382312 0.378776 0.579353
0.485368 0.385089 0.586079
0.588425 0.391402 0.592822
0.693254 0.399198 0.600283
0.802113 0.410369 0.609363
0.899518 0.420735 0.617369
0.091835 0.478575 0.581800
0.194891 0.484887 0.588532
0.297948 0.491200 0.595281
0.404889 0.500765 0.603586
0.513749 0.511936 0.612676
0.622808 0.522785 0.620692
0.731958 0.533489 0.628228
0.841107 0.544194 0.635781
0.921856 0.553291 0.641905
0.116525 0.602332 0.606892
0.225400 0.613478 0.615907
0.334549 0.624182 0.623434
0.443699 0.634886 0.630976
0.552848 0.645591 0.638534
0.661998 0.656295 0.646105
0.771147 0.666999 0.653689
0.880297 0.677703 0.661285
0.944193 0.685848 0.666582
0.155440 0.736283 0.633726
0.264590 0.746988 0.641289
0.373739 0.757692 0.648865
0.482889 0.768396 0.656453
0.592038 0.779100 0.664053
0.701188 0.789805 0.671663
0.810337 0.800509 0.679281
0.919486 0.811213 0.686908
0.966530 0.818404 0.691361
0.194630 0.869793 0.659219
0.303779 0.880498 0.666822
0.412929 0.891202 0.674435
0.522078 0.901906 0.682057
0.631228 0.912610 0.689686
0.740377 0.923315 0.697321
0.849527 0.934019 0.704961
0.958676 0.944723 0.712604
0.988868 0.950961 0.716202
0.225334 0.952753 0.677164
0.333721 0.958913 0.684099
0.442107 0.965074 0.691039
0.550494 0.971235 0.697985
0.658881 0.977395 0.704934
0.767268 0.983556 0.711887
0.875655 0.989717 0.718841
0.984041 0.995878 0.725798
0.996618 0.996618 0.727840
0.020279 0.013690 0.580628
0.123259 0.019548 0.587289
0.226240 0.025407 0.593968
0.329220 0.031265 0.600664
0.432201 0.037124 0.607375
0.535181 0.042982 0.614101
0.638161 0.048841 0.620842
0.741142 0.054699 0.627595
0.840344 0.060344 0.634170
0.037643 0.124508 0.602153
0.140699 0.130821 0.608936
0.243756 0.137134 0.615734
0.346813 0.143447 0.622545
0.449869 0.149760 0.629371
0.552926 0.156072 0.636208
0.655983 0.162385 0.643058
0.759039 0.168698 0.649918
0.859666 0.174873 0.656665
0.056336 0.243245 0.625029
0.159392 0.249558 0.631859
0.262449 0.255871 0.638701
0.365506 0.262183 0.645554
0.468562 0.268496 0.652418
0.571619 0.274809 0.659292
0.674676 0.281122 0.666174
0.777732 0.287435 0.673065
0.879707 0.293686 0.679907
0.075029 0.361982 0.648052
0.178085 0.368295 0.654920
0.281142 0.374607 0.661797
0.384199 0.380920 0.668682
0.487255 0.387233 0.675575
0.590312 0.393546 0.682475
0.697111 0.402992 0.690892
0.805971 0.414163 0.700148
0.901773 0.424274 0.707654
0.093722 0.480718 0.671191
0.196778 0.487031 0.678086
0.299887 0.493388 0.685010
0.408747 0.504559 0.694261
0.517615 0.515716 0.703474
0.626765 0.526420 0.711117
0.735914 0.537125 0.718763
0.845063 0.547829 0.726410
0.924111 0.556830 0.732515
0.120383 0.606126 0.697631
0.229356 0.617113 0.706256
0.338506 0.627817 0.713900
0.447655 0.638522 0.721547
0.556805 0.649226 0.729195
0.665954 0.659930 0.736843
0.775104 0.670634 0.744490
0.884253 0.681339 0.752136
0.946448 0.689387 0.757372
0.159396 0.739919 0.724331
0.268546 0.750623 0.731979
0.377695 0.761327 0.739627
0.486845 0.772031 0.747274
0.595994 0.782736 0.754918
0.705144 0.793440 0.762559
0.814293 0.804144 0.770194
0.923443 0.814848 0.777824
0.968785 0.821943 0.782185
0.198586 0.873428 0.750057
0.307735 0.884133 0.757700
0.416885 0.894837 0.765339
0.526034 0.905541 0.772973
0.635184 0.916246 0.780600
0.744333 0.926950 0.788219
0.853483 0.937654 0.795830
0.962632 0.948358 0.803431
0.991123 0.954500 0.806917
0.229031 0.954845 0.767839
0.337418 0.961006 0.774781
0.445805 0.967166 0.781717
0.554191 0.973327 0.788647
0.662578 0.979488 0.795570
0.770965 0.985648 0.802484
0.879352 0.991809 0.809390
0.987739 0.997970 0.816285
0.998614 0.998614 0.818222
0.022140 0.015679 0.669966
0.125121 0.021538 0.676791
0.228101 0.027396 0.683623
0.331081 0.033255 0.690461
0.434062 0.039113 0.697303
0.537042 0.044972 0.704150
0.640023 0.050830 0.710999
0.743003 0.056689 0.717852
0.842341 0.062341 0.724518
0.039530 0.126652 0.692004
0.142586 0.132965 0.698917
0.245643 0.139278 0.705833
0.348700 0.145591 0.712753
0.451756 0.151903 0.719674
0.554813 0.158216 0.726597
0.657870 0.164529 0.733521
0.760926 0.170842 0.740444
0.861689 0.177025 0.747248
0.058223 0.245389 0.715272
0.161279 0.251702 0.722194
0.264336 0.258015 0.729118
0.367393 0.264327 0.736041
0.470449 0.270640 0.742964
0.573506 0.276953 0.749885
0.676563 0.283266 0.756803
0.779619 0.289579 0.763719
0.881730 0.295838 0.770582
0.076916 0.364126 0.738561
0.179972 0.370438 0.745484
0.283029 0.376751 0.752404
0.386086 0.383064 0.759321
0.489142 0.389377 0.766236
0.592199 0.395690 0.773145
0.700969 0.406786 0.782353
0.809769 0.417893 0.788815
0.903936 0.427721 0.794271
0.095609 0.482862 0.761839
0.198665 0.489175 0.768752
0.303745 0.497182 0.776476
0.412585 0.508333 0.784827
0.521499 0.519279 0.791080
0.630618 0.529952 0.797296
0.739736 0.540626 0.803506
0.848855 0.551299 0.809708
0.926170 0.560174 0.814286
0.124197 0.609876 0.787111
0.233229 0.620665 0.793344
0.342348 0.631338 0.799558
0.451466 0.642012 0.805765
0.560585 0.652685 0.811964
0.669704 0.663359 0.818155
0.778822 0.674032 0.824338
0.887941 0.684706 0.830510
0.948404 0.692626 0.834213
0.163196 0.743397 0.808023
0.272315 0.754071 0.814219
0.381434 0.764744 0.820407
0.490552 0.775418 0.826586
0.599671 0.786091 0.832755
0.708790 0.796765 0.838914
0.817908 0.807438 0.845062
0.927027 0.818112 0.851198
0.970638 0.825079 0.854031
0.202282 0.876804 0.828833
0.311401 0.887477 0.834999
0.420520 0.898151 0.841154
0.529638 0.908824 0.847297
0.638757 0.919498 0.853429
0.747876 0.930171 0.859549
0.856994 0.940844 0.865655
0.966113 0.951518 0.871748
0.992871 0.957532 0.873719
0.232365 0.956573 0.841509
0.340721 0.962703 0.846973
0.449077 0.968833 0.852428
0.557433 0.974963 0.857872
0.665789 0.981093 0.863307
0.774145 0.987223 0.868731
0.882501 0.993353 0.874144
0.990857 0.999483 0.879545
1.000000 1.000000 0.880000
